( —ÖŠs 5 )
( USBCNC Postprocessor )
N20G00G21G17G90G40G49
N30G80
N40G00G43Z20.000H1
N50S10000M03
N60G94
N70X0.000Y0.000F500.0
N80G00X3.000Y3.500Z6.000
N90G01Z-0.146F70.0
N100G3X2.500Y3.000I0.000J-0.500F500.0
N110G3X3.000Y2.500I0.500J0.000
N120G3X3.500Y3.000I0.000J0.500
N130G3X3.000Y3.500I-0.500J0.000
N140G01Z-0.292F70.0
N150G3X2.500Y3.000I0.000J-0.500F500.0
N160G3X3.000Y2.500I0.500J0.000
N170G3X3.500Y3.000I0.000J0.500
N180G3X3.000Y3.500I-0.500J0.000
N190G01Z-0.438F70.0
N200G3X2.500Y3.000I0.000J-0.500F500.0
N210G3X3.000Y2.500I0.500J0.000
N220G3X3.500Y3.000I0.000J0.500
N230G3X3.000Y3.500I-0.500J0.000
N240G01Z-0.585F70.0
N250G3X2.500Y3.000I0.000J-0.500F500.0
N260G3X3.000Y2.500I0.500J0.000
N270G3X3.500Y3.000I0.000J0.500
N280G3X3.000Y3.500I-0.500J0.000
N290G01Z-0.731F70.0
N300G3X2.500Y3.000I0.000J-0.500F500.0
N310G3X3.000Y2.500I0.500J0.000
N320G3X3.500Y3.000I0.000J0.500
N330G3X3.000Y3.500I-0.500J0.000
N340G01Z-0.877F70.0
N350G3X2.500Y3.000I0.000J-0.500F500.0
N360G3X3.000Y2.500I0.500J0.000
N370G3X3.500Y3.000I0.000J0.500
N380G3X3.000Y3.500I-0.500J0.000
N390G01Z-1.023F70.0
N400G3X2.500Y3.000I0.000J-0.500F500.0
N410G3X3.000Y2.500I0.500J0.000
N420G3X3.500Y3.000I0.000J0.500
N430G3X3.000Y3.500I-0.500J0.000
N440G01Z-1.169F70.0
N450G3X2.500Y3.000I0.000J-0.500F500.0
N460G3X3.000Y2.500I0.500J0.000
N470G3X3.500Y3.000I0.000J0.500
N480G3X3.000Y3.500I-0.500J0.000
N490G01Z-1.315F70.0
N500G3X2.500Y3.000I0.000J-0.500F500.0
N510G3X3.000Y2.500I0.500J0.000
N520G3X3.500Y3.000I0.000J0.500
N530G3X3.000Y3.500I-0.500J0.000
N540G01Z-1.462F70.0
N550G3X2.500Y3.000I0.000J-0.500F500.0
N560G3X3.000Y2.500I0.500J0.000
N570G3X3.500Y3.000I0.000J0.500
N580G3X3.000Y3.500I-0.500J0.000
N590G01Z-1.608F70.0
N600G3X2.500Y3.000I0.000J-0.500F500.0
N610G3X3.000Y2.500I0.500J0.000
N620G3X3.500Y3.000I0.000J0.500
N630G3X3.000Y3.500I-0.500J0.000
N640G01Z-1.754F70.0
N650G3X2.500Y3.000I0.000J-0.500F500.0
N660G3X3.000Y2.500I0.500J0.000
N670G3X3.500Y3.000I0.000J0.500
N680G3X3.000Y3.500I-0.500J0.000
N690G01Z-1.900F70.0
N700G3X2.500Y3.000I0.000J-0.500F500.0
N710G3X3.000Y2.500I0.500J0.000
N720G3X3.500Y3.000I0.000J0.500
N730G3X3.000Y3.500I-0.500J0.000
N740G00Z6.000
N750G00X25.161Y10.326
N760G01Z-0.146F70.0
N770G3X24.661Y9.826I0.000J-0.500F500.0
N780G3X25.161Y9.326I0.500J0.000
N790G3X25.661Y9.826I0.000J0.500
N800G3X25.161Y10.326I-0.500J0.000
N810G01Z-0.292F70.0
N820G3X24.661Y9.826I0.000J-0.500F500.0
N830G3X25.161Y9.326I0.500J0.000
N840G3X25.661Y9.826I0.000J0.500
N850G3X25.161Y10.326I-0.500J0.000
N860G01Z-0.438F70.0
N870G3X24.661Y9.826I0.000J-0.500F500.0
N880G3X25.161Y9.326I0.500J0.000
N890G3X25.661Y9.826I0.000J0.500
N900G3X25.161Y10.326I-0.500J0.000
N910G01Z-0.585F70.0
N920G3X24.661Y9.826I0.000J-0.500F500.0
N930G3X25.161Y9.326I0.500J0.000
N940G3X25.661Y9.826I0.000J0.500
N950G3X25.161Y10.326I-0.500J0.000
N960G01Z-0.731F70.0
N970G3X24.661Y9.826I0.000J-0.500F500.0
N980G3X25.161Y9.326I0.500J0.000
N990G3X25.661Y9.826I0.000J0.500
N1000G3X25.161Y10.326I-0.500J0.000
N1010G01Z-0.877F70.0
N1020G3X24.661Y9.826I0.000J-0.500F500.0
N1030G3X25.161Y9.326I0.500J0.000
N1040G3X25.661Y9.826I0.000J0.500
N1050G3X25.161Y10.326I-0.500J0.000
N1060G01Z-1.023F70.0
N1070G3X24.661Y9.826I0.000J-0.500F500.0
N1080G3X25.161Y9.326I0.500J0.000
N1090G3X25.661Y9.826I0.000J0.500
N1100G3X25.161Y10.326I-0.500J0.000
N1110G01Z-1.169F70.0
N1120G3X24.661Y9.826I0.000J-0.500F500.0
N1130G3X25.161Y9.326I0.500J0.000
N1140G3X25.661Y9.826I0.000J0.500
N1150G3X25.161Y10.326I-0.500J0.000
N1160G01Z-1.315F70.0
N1170G3X24.661Y9.826I0.000J-0.500F500.0
N1180G3X25.161Y9.326I0.500J0.000
N1190G3X25.661Y9.826I0.000J0.500
N1200G3X25.161Y10.326I-0.500J0.000
N1210G01Z-1.462F70.0
N1220G3X24.661Y9.826I0.000J-0.500F500.0
N1230G3X25.161Y9.326I0.500J0.000
N1240G3X25.661Y9.826I0.000J0.500
N1250G3X25.161Y10.326I-0.500J0.000
N1260G01Z-1.608F70.0
N1270G3X24.661Y9.826I0.000J-0.500F500.0
N1280G3X25.161Y9.326I0.500J0.000
N1290G3X25.661Y9.826I0.000J0.500
N1300G3X25.161Y10.326I-0.500J0.000
N1310G01Z-1.754F70.0
N1320G3X24.661Y9.826I0.000J-0.500F500.0
N1330G3X25.161Y9.326I0.500J0.000
N1340G3X25.661Y9.826I0.000J0.500
N1350G3X25.161Y10.326I-0.500J0.000
N1360G01Z-1.900F70.0
N1370G3X24.661Y9.826I0.000J-0.500F500.0
N1380G3X25.161Y9.326I0.500J0.000
N1390G3X25.661Y9.826I0.000J0.500
N1400G3X25.161Y10.326I-0.500J0.000
N1410G00Z6.000
N1420G00X45.163
N1430G01Z-0.146F70.0
N1440G3X44.663Y9.826I0.000J-0.500F500.0
N1450G3X45.163Y9.326I0.500J0.000
N1460G3X45.663Y9.826I0.000J0.500
N1470G3X45.163Y10.326I-0.500J0.000
N1480G01Z-0.292F70.0
N1490G3X44.663Y9.826I0.000J-0.500F500.0
N1500G3X45.163Y9.326I0.500J0.000
N1510G3X45.663Y9.826I0.000J0.500
N1520G3X45.163Y10.326I-0.500J0.000
N1530G01Z-0.438F70.0
N1540G3X44.663Y9.826I0.000J-0.500F500.0
N1550G3X45.163Y9.326I0.500J0.000
N1560G3X45.663Y9.826I0.000J0.500
N1570G3X45.163Y10.326I-0.500J0.000
N1580G01Z-0.585F70.0
N1590G3X44.663Y9.826I0.000J-0.500F500.0
N1600G3X45.163Y9.326I0.500J0.000
N1610G3X45.663Y9.826I0.000J0.500
N1620G3X45.163Y10.326I-0.500J0.000
N1630G01Z-0.731F70.0
N1640G3X44.663Y9.826I0.000J-0.500F500.0
N1650G3X45.163Y9.326I0.500J0.000
N1660G3X45.663Y9.826I0.000J0.500
N1670G3X45.163Y10.326I-0.500J0.000
N1680G01Z-0.877F70.0
N1690G3X44.663Y9.826I0.000J-0.500F500.0
N1700G3X45.163Y9.326I0.500J0.000
N1710G3X45.663Y9.826I0.000J0.500
N1720G3X45.163Y10.326I-0.500J0.000
N1730G01Z-1.023F70.0
N1740G3X44.663Y9.826I0.000J-0.500F500.0
N1750G3X45.163Y9.326I0.500J0.000
N1760G3X45.663Y9.826I0.000J0.500
N1770G3X45.163Y10.326I-0.500J0.000
N1780G01Z-1.169F70.0
N1790G3X44.663Y9.826I0.000J-0.500F500.0
N1800G3X45.163Y9.326I0.500J0.000
N1810G3X45.663Y9.826I0.000J0.500
N1820G3X45.163Y10.326I-0.500J0.000
N1830G01Z-1.315F70.0
N1840G3X44.663Y9.826I0.000J-0.500F500.0
N1850G3X45.163Y9.326I0.500J0.000
N1860G3X45.663Y9.826I0.000J0.500
N1870G3X45.163Y10.326I-0.500J0.000
N1880G01Z-1.462F70.0
N1890G3X44.663Y9.826I0.000J-0.500F500.0
N1900G3X45.163Y9.326I0.500J0.000
N1910G3X45.663Y9.826I0.000J0.500
N1920G3X45.163Y10.326I-0.500J0.000
N1930G01Z-1.608F70.0
N1940G3X44.663Y9.826I0.000J-0.500F500.0
N1950G3X45.163Y9.326I0.500J0.000
N1960G3X45.663Y9.826I0.000J0.500
N1970G3X45.163Y10.326I-0.500J0.000
N1980G01Z-1.754F70.0
N1990G3X44.663Y9.826I0.000J-0.500F500.0
N2000G3X45.163Y9.326I0.500J0.000
N2010G3X45.663Y9.826I0.000J0.500
N2020G3X45.163Y10.326I-0.500J0.000
N2030G01Z-1.900F70.0
N2040G3X44.663Y9.826I0.000J-0.500F500.0
N2050G3X45.163Y9.326I0.500J0.000
N2060G3X45.663Y9.826I0.000J0.500
N2070G3X45.163Y10.326I-0.500J0.000
N2080G00Z6.000
N2090G00X69.040Y3.500
N2100G01Z-0.146F70.0
N2110G3X68.540Y3.000I0.000J-0.500F500.0
N2120G3X69.040Y2.500I0.500J0.000
N2130G3X69.540Y3.000I0.000J0.500
N2140G3X69.040Y3.500I-0.500J0.000
N2150G01Z-0.292F70.0
N2160G3X68.540Y3.000I0.000J-0.500F500.0
N2170G3X69.040Y2.500I0.500J0.000
N2180G3X69.540Y3.000I0.000J0.500
N2190G3X69.040Y3.500I-0.500J0.000
N2200G01Z-0.438F70.0
N2210G3X68.540Y3.000I0.000J-0.500F500.0
N2220G3X69.040Y2.500I0.500J0.000
N2230G3X69.540Y3.000I0.000J0.500
N2240G3X69.040Y3.500I-0.500J0.000
N2250G01Z-0.585F70.0
N2260G3X68.540Y3.000I0.000J-0.500F500.0
N2270G3X69.040Y2.500I0.500J0.000
N2280G3X69.540Y3.000I0.000J0.500
N2290G3X69.040Y3.500I-0.500J0.000
N2300G01Z-0.731F70.0
N2310G3X68.540Y3.000I0.000J-0.500F500.0
N2320G3X69.040Y2.500I0.500J0.000
N2330G3X69.540Y3.000I0.000J0.500
N2340G3X69.040Y3.500I-0.500J0.000
N2350G01Z-0.877F70.0
N2360G3X68.540Y3.000I0.000J-0.500F500.0
N2370G3X69.040Y2.500I0.500J0.000
N2380G3X69.540Y3.000I0.000J0.500
N2390G3X69.040Y3.500I-0.500J0.000
N2400G01Z-1.023F70.0
N2410G3X68.540Y3.000I0.000J-0.500F500.0
N2420G3X69.040Y2.500I0.500J0.000
N2430G3X69.540Y3.000I0.000J0.500
N2440G3X69.040Y3.500I-0.500J0.000
N2450G01Z-1.169F70.0
N2460G3X68.540Y3.000I0.000J-0.500F500.0
N2470G3X69.040Y2.500I0.500J0.000
N2480G3X69.540Y3.000I0.000J0.500
N2490G3X69.040Y3.500I-0.500J0.000
N2500G01Z-1.315F70.0
N2510G3X68.540Y3.000I0.000J-0.500F500.0
N2520G3X69.040Y2.500I0.500J0.000
N2530G3X69.540Y3.000I0.000J0.500
N2540G3X69.040Y3.500I-0.500J0.000
N2550G01Z-1.462F70.0
N2560G3X68.540Y3.000I0.000J-0.500F500.0
N2570G3X69.040Y2.500I0.500J0.000
N2580G3X69.540Y3.000I0.000J0.500
N2590G3X69.040Y3.500I-0.500J0.000
N2600G01Z-1.608F70.0
N2610G3X68.540Y3.000I0.000J-0.500F500.0
N2620G3X69.040Y2.500I0.500J0.000
N2630G3X69.540Y3.000I0.000J0.500
N2640G3X69.040Y3.500I-0.500J0.000
N2650G01Z-1.754F70.0
N2660G3X68.540Y3.000I0.000J-0.500F500.0
N2670G3X69.040Y2.500I0.500J0.000
N2680G3X69.540Y3.000I0.000J0.500
N2690G3X69.040Y3.500I-0.500J0.000
N2700G01Z-1.900F70.0
N2710G3X68.540Y3.000I0.000J-0.500F500.0
N2720G3X69.040Y2.500I0.500J0.000
N2730G3X69.540Y3.000I0.000J0.500
N2740G3X69.040Y3.500I-0.500J0.000
N2750G00Z6.000
N2760G00X77.140
N2770G01Z-0.146F70.0
N2780G3X76.640Y3.000I0.000J-0.500F500.0
N2790G3X77.140Y2.500I0.500J0.000
N2800G3X77.640Y3.000I0.000J0.500
N2810G3X77.140Y3.500I-0.500J0.000
N2820G01Z-0.292F70.0
N2830G3X76.640Y3.000I0.000J-0.500F500.0
N2840G3X77.140Y2.500I0.500J0.000
N2850G3X77.640Y3.000I0.000J0.500
N2860G3X77.140Y3.500I-0.500J0.000
N2870G01Z-0.438F70.0
N2880G3X76.640Y3.000I0.000J-0.500F500.0
N2890G3X77.140Y2.500I0.500J0.000
N2900G3X77.640Y3.000I0.000J0.500
N2910G3X77.140Y3.500I-0.500J0.000
N2920G01Z-0.585F70.0
N2930G3X76.640Y3.000I0.000J-0.500F500.0
N2940G3X77.140Y2.500I0.500J0.000
N2950G3X77.640Y3.000I0.000J0.500
N2960G3X77.140Y3.500I-0.500J0.000
N2970G01Z-0.731F70.0
N2980G3X76.640Y3.000I0.000J-0.500F500.0
N2990G3X77.140Y2.500I0.500J0.000
N3000G3X77.640Y3.000I0.000J0.500
N3010G3X77.140Y3.500I-0.500J0.000
N3020G01Z-0.877F70.0
N3030G3X76.640Y3.000I0.000J-0.500F500.0
N3040G3X77.140Y2.500I0.500J0.000
N3050G3X77.640Y3.000I0.000J0.500
N3060G3X77.140Y3.500I-0.500J0.000
N3070G01Z-1.023F70.0
N3080G3X76.640Y3.000I0.000J-0.500F500.0
N3090G3X77.140Y2.500I0.500J0.000
N3100G3X77.640Y3.000I0.000J0.500
N3110G3X77.140Y3.500I-0.500J0.000
N3120G01Z-1.169F70.0
N3130G3X76.640Y3.000I0.000J-0.500F500.0
N3140G3X77.140Y2.500I0.500J0.000
N3150G3X77.640Y3.000I0.000J0.500
N3160G3X77.140Y3.500I-0.500J0.000
N3170G01Z-1.315F70.0
N3180G3X76.640Y3.000I0.000J-0.500F500.0
N3190G3X77.140Y2.500I0.500J0.000
N3200G3X77.640Y3.000I0.000J0.500
N3210G3X77.140Y3.500I-0.500J0.000
N3220G01Z-1.462F70.0
N3230G3X76.640Y3.000I0.000J-0.500F500.0
N3240G3X77.140Y2.500I0.500J0.000
N3250G3X77.640Y3.000I0.000J0.500
N3260G3X77.140Y3.500I-0.500J0.000
N3270G01Z-1.608F70.0
N3280G3X76.640Y3.000I0.000J-0.500F500.0
N3290G3X77.140Y2.500I0.500J0.000
N3300G3X77.640Y3.000I0.000J0.500
N3310G3X77.140Y3.500I-0.500J0.000
N3320G01Z-1.754F70.0
N3330G3X76.640Y3.000I0.000J-0.500F500.0
N3340G3X77.140Y2.500I0.500J0.000
N3350G3X77.640Y3.000I0.000J0.500
N3360G3X77.140Y3.500I-0.500J0.000
N3370G01Z-1.900F70.0
N3380G3X76.640Y3.000I0.000J-0.500F500.0
N3390G3X77.140Y2.500I0.500J0.000
N3400G3X77.640Y3.000I0.000J0.500
N3410G3X77.140Y3.500I-0.500J0.000
N3420G00Z6.000
N3430G00X99.301Y10.326
N3440G01Z-0.146F70.0
N3450G3X98.801Y9.826I0.000J-0.500F500.0
N3460G3X99.301Y9.326I0.500J0.000
N3470G3X99.801Y9.826I0.000J0.500
N3480G3X99.301Y10.326I-0.500J0.000
N3490G01Z-0.292F70.0
N3500G3X98.801Y9.826I0.000J-0.500F500.0
N3510G3X99.301Y9.326I0.500J0.000
N3520G3X99.801Y9.826I0.000J0.500
N3530G3X99.301Y10.326I-0.500J0.000
N3540G01Z-0.438F70.0
N3550G3X98.801Y9.826I0.000J-0.500F500.0
N3560G3X99.301Y9.326I0.500J0.000
N3570G3X99.801Y9.826I0.000J0.500
N3580G3X99.301Y10.326I-0.500J0.000
N3590G01Z-0.585F70.0
N3600G3X98.801Y9.826I0.000J-0.500F500.0
N3610G3X99.301Y9.326I0.500J0.000
N3620G3X99.801Y9.826I0.000J0.500
N3630G3X99.301Y10.326I-0.500J0.000
N3640G01Z-0.731F70.0
N3650G3X98.801Y9.826I0.000J-0.500F500.0
N3660G3X99.301Y9.326I0.500J0.000
N3670G3X99.801Y9.826I0.000J0.500
N3680G3X99.301Y10.326I-0.500J0.000
N3690G01Z-0.877F70.0
N3700G3X98.801Y9.826I0.000J-0.500F500.0
N3710G3X99.301Y9.326I0.500J0.000
N3720G3X99.801Y9.826I0.000J0.500
N3730G3X99.301Y10.326I-0.500J0.000
N3740G01Z-1.023F70.0
N3750G3X98.801Y9.826I0.000J-0.500F500.0
N3760G3X99.301Y9.326I0.500J0.000
N3770G3X99.801Y9.826I0.000J0.500
N3780G3X99.301Y10.326I-0.500J0.000
N3790G01Z-1.169F70.0
N3800G3X98.801Y9.826I0.000J-0.500F500.0
N3810G3X99.301Y9.326I0.500J0.000
N3820G3X99.801Y9.826I0.000J0.500
N3830G3X99.301Y10.326I-0.500J0.000
N3840G01Z-1.315F70.0
N3850G3X98.801Y9.826I0.000J-0.500F500.0
N3860G3X99.301Y9.326I0.500J0.000
N3870G3X99.801Y9.826I0.000J0.500
N3880G3X99.301Y10.326I-0.500J0.000
N3890G01Z-1.462F70.0
N3900G3X98.801Y9.826I0.000J-0.500F500.0
N3910G3X99.301Y9.326I0.500J0.000
N3920G3X99.801Y9.826I0.000J0.500
N3930G3X99.301Y10.326I-0.500J0.000
N3940G01Z-1.608F70.0
N3950G3X98.801Y9.826I0.000J-0.500F500.0
N3960G3X99.301Y9.326I0.500J0.000
N3970G3X99.801Y9.826I0.000J0.500
N3980G3X99.301Y10.326I-0.500J0.000
N3990G01Z-1.754F70.0
N4000G3X98.801Y9.826I0.000J-0.500F500.0
N4010G3X99.301Y9.326I0.500J0.000
N4020G3X99.801Y9.826I0.000J0.500
N4030G3X99.301Y10.326I-0.500J0.000
N4040G01Z-1.900F70.0
N4050G3X98.801Y9.826I0.000J-0.500F500.0
N4060G3X99.301Y9.326I0.500J0.000
N4070G3X99.801Y9.826I0.000J0.500
N4080G3X99.301Y10.326I-0.500J0.000
N4090G00Z6.000
N4100G00X119.303
N4110G01Z-0.146F70.0
N4120G3X118.803Y9.826I0.000J-0.500F500.0
N4130G3X119.303Y9.326I0.500J0.000
N4140G3X119.803Y9.826I0.000J0.500
N4150G3X119.303Y10.326I-0.500J0.000
N4160G01Z-0.292F70.0
N4170G3X118.803Y9.826I0.000J-0.500F500.0
N4180G3X119.303Y9.326I0.500J0.000
N4190G3X119.803Y9.826I0.000J0.500
N4200G3X119.303Y10.326I-0.500J0.000
N4210G01Z-0.438F70.0
N4220G3X118.803Y9.826I0.000J-0.500F500.0
N4230G3X119.303Y9.326I0.500J0.000
N4240G3X119.803Y9.826I0.000J0.500
N4250G3X119.303Y10.326I-0.500J0.000
N4260G01Z-0.585F70.0
N4270G3X118.803Y9.826I0.000J-0.500F500.0
N4280G3X119.303Y9.326I0.500J0.000
N4290G3X119.803Y9.826I0.000J0.500
N4300G3X119.303Y10.326I-0.500J0.000
N4310G01Z-0.731F70.0
N4320G3X118.803Y9.826I0.000J-0.500F500.0
N4330G3X119.303Y9.326I0.500J0.000
N4340G3X119.803Y9.826I0.000J0.500
N4350G3X119.303Y10.326I-0.500J0.000
N4360G01Z-0.877F70.0
N4370G3X118.803Y9.826I0.000J-0.500F500.0
N4380G3X119.303Y9.326I0.500J0.000
N4390G3X119.803Y9.826I0.000J0.500
N4400G3X119.303Y10.326I-0.500J0.000
N4410G01Z-1.023F70.0
N4420G3X118.803Y9.826I0.000J-0.500F500.0
N4430G3X119.303Y9.326I0.500J0.000
N4440G3X119.803Y9.826I0.000J0.500
N4450G3X119.303Y10.326I-0.500J0.000
N4460G01Z-1.169F70.0
N4470G3X118.803Y9.826I0.000J-0.500F500.0
N4480G3X119.303Y9.326I0.500J0.000
N4490G3X119.803Y9.826I0.000J0.500
N4500G3X119.303Y10.326I-0.500J0.000
N4510G01Z-1.315F70.0
N4520G3X118.803Y9.826I0.000J-0.500F500.0
N4530G3X119.303Y9.326I0.500J0.000
N4540G3X119.803Y9.826I0.000J0.500
N4550G3X119.303Y10.326I-0.500J0.000
N4560G01Z-1.462F70.0
N4570G3X118.803Y9.826I0.000J-0.500F500.0
N4580G3X119.303Y9.326I0.500J0.000
N4590G3X119.803Y9.826I0.000J0.500
N4600G3X119.303Y10.326I-0.500J0.000
N4610G01Z-1.608F70.0
N4620G3X118.803Y9.826I0.000J-0.500F500.0
N4630G3X119.303Y9.326I0.500J0.000
N4640G3X119.803Y9.826I0.000J0.500
N4650G3X119.303Y10.326I-0.500J0.000
N4660G01Z-1.754F70.0
N4670G3X118.803Y9.826I0.000J-0.500F500.0
N4680G3X119.303Y9.326I0.500J0.000
N4690G3X119.803Y9.826I0.000J0.500
N4700G3X119.303Y10.326I-0.500J0.000
N4710G01Z-1.900F70.0
N4720G3X118.803Y9.826I0.000J-0.500F500.0
N4730G3X119.303Y9.326I0.500J0.000
N4740G3X119.803Y9.826I0.000J0.500
N4750G3X119.303Y10.326I-0.500J0.000
N4760G00Z6.000
N4770G00X143.180Y3.500
N4780G01Z-0.146F70.0
N4790G3X142.680Y3.000I0.000J-0.500F500.0
N4800G3X143.180Y2.500I0.500J0.000
N4810G3X143.680Y3.000I0.000J0.500
N4820G3X143.180Y3.500I-0.500J0.000
N4830G01Z-0.292F70.0
N4840G3X142.680Y3.000I0.000J-0.500F500.0
N4850G3X143.180Y2.500I0.500J0.000
N4860G3X143.680Y3.000I0.000J0.500
N4870G3X143.180Y3.500I-0.500J0.000
N4880G01Z-0.438F70.0
N4890G3X142.680Y3.000I0.000J-0.500F500.0
N4900G3X143.180Y2.500I0.500J0.000
N4910G3X143.680Y3.000I0.000J0.500
N4920G3X143.180Y3.500I-0.500J0.000
N4930G01Z-0.585F70.0
N4940G3X142.680Y3.000I0.000J-0.500F500.0
N4950G3X143.180Y2.500I0.500J0.000
N4960G3X143.680Y3.000I0.000J0.500
N4970G3X143.180Y3.500I-0.500J0.000
N4980G01Z-0.731F70.0
N4990G3X142.680Y3.000I0.000J-0.500F500.0
N5000G3X143.180Y2.500I0.500J0.000
N5010G3X143.680Y3.000I0.000J0.500
N5020G3X143.180Y3.500I-0.500J0.000
N5030G01Z-0.877F70.0
N5040G3X142.680Y3.000I0.000J-0.500F500.0
N5050G3X143.180Y2.500I0.500J0.000
N5060G3X143.680Y3.000I0.000J0.500
N5070G3X143.180Y3.500I-0.500J0.000
N5080G01Z-1.023F70.0
N5090G3X142.680Y3.000I0.000J-0.500F500.0
N5100G3X143.180Y2.500I0.500J0.000
N5110G3X143.680Y3.000I0.000J0.500
N5120G3X143.180Y3.500I-0.500J0.000
N5130G01Z-1.169F70.0
N5140G3X142.680Y3.000I0.000J-0.500F500.0
N5150G3X143.180Y2.500I0.500J0.000
N5160G3X143.680Y3.000I0.000J0.500
N5170G3X143.180Y3.500I-0.500J0.000
N5180G01Z-1.315F70.0
N5190G3X142.680Y3.000I0.000J-0.500F500.0
N5200G3X143.180Y2.500I0.500J0.000
N5210G3X143.680Y3.000I0.000J0.500
N5220G3X143.180Y3.500I-0.500J0.000
N5230G01Z-1.462F70.0
N5240G3X142.680Y3.000I0.000J-0.500F500.0
N5250G3X143.180Y2.500I0.500J0.000
N5260G3X143.680Y3.000I0.000J0.500
N5270G3X143.180Y3.500I-0.500J0.000
N5280G01Z-1.608F70.0
N5290G3X142.680Y3.000I0.000J-0.500F500.0
N5300G3X143.180Y2.500I0.500J0.000
N5310G3X143.680Y3.000I0.000J0.500
N5320G3X143.180Y3.500I-0.500J0.000
N5330G01Z-1.754F70.0
N5340G3X142.680Y3.000I0.000J-0.500F500.0
N5350G3X143.180Y2.500I0.500J0.000
N5360G3X143.680Y3.000I0.000J0.500
N5370G3X143.180Y3.500I-0.500J0.000
N5380G01Z-1.900F70.0
N5390G3X142.680Y3.000I0.000J-0.500F500.0
N5400G3X143.180Y2.500I0.500J0.000
N5410G3X143.680Y3.000I0.000J0.500
N5420G3X143.180Y3.500I-0.500J0.000
N5430G00Z6.000
N5440G00X48.163Y5.983Z6.000
N5450G01Z-0.146F70.0
N5460G01X66.393Y6.000F500.0
N5470X66.394Y6.000
N5480G2X73.040Y3.000I2.646J-3.000
N5490G2X66.394Y0.000I-4.000J0.000
N5500G01X5.646Y0.000
N5510G2X-1.000Y3.000I-2.646J3.000
N5520G2X5.646Y6.000I4.000J0.000
N5530G01X5.647Y6.000
N5540X22.161Y5.983
N5550Y7.181
N5560G2X25.161Y13.826I3.000J2.646
N5570G2X28.161Y7.181I0.000J-4.000
N5580G01Y5.983
N5590X42.163
N5600Y7.181
N5610G2X45.163Y13.826I3.000J2.646
N5620G2X48.163Y7.181I0.000J-4.000
N5630G01Y5.983
N5640G01Z-0.292F70.0
N5650G01X66.393Y6.000F500.0
N5660X66.394Y6.000
N5670G2X73.040Y3.000I2.646J-3.000
N5680G2X66.394Y0.000I-4.000J0.000
N5690G01X5.646Y0.000
N5700G2X-1.000Y3.000I-2.646J3.000
N5710G2X5.646Y6.000I4.000J0.000
N5720G01X5.647Y6.000
N5730X22.161Y5.983
N5740Y7.181
N5750G2X25.161Y13.826I3.000J2.646
N5760G2X28.161Y7.181I0.000J-4.000
N5770G01Y5.983
N5780X42.163
N5790Y7.181
N5800G2X45.163Y13.826I3.000J2.646
N5810G2X48.163Y7.181I0.000J-4.000
N5820G01Y5.983
N5830G01Z-0.438F70.0
N5840G01X66.393Y6.000F500.0
N5850X66.394Y6.000
N5860G2X73.040Y3.000I2.646J-3.000
N5870G2X66.394Y0.000I-4.000J0.000
N5880G01X5.646Y0.000
N5890G2X-1.000Y3.000I-2.646J3.000
N5900G2X5.646Y6.000I4.000J0.000
N5910G01X5.647Y6.000
N5920X22.161Y5.983
N5930Y7.181
N5940G2X25.161Y13.826I3.000J2.646
N5950G2X28.161Y7.181I0.000J-4.000
N5960G01Y5.983
N5970X42.163
N5980Y7.181
N5990G2X45.163Y13.826I3.000J2.646
N6000G2X48.163Y7.181I0.000J-4.000
N6010G01Y5.983
N6020G01Z-0.585F70.0
N6030G01X66.393Y6.000F500.0
N6040X66.394Y6.000
N6050G2X73.040Y3.000I2.646J-3.000
N6060G2X66.394Y0.000I-4.000J0.000
N6070G01X5.646Y0.000
N6080G2X-1.000Y3.000I-2.646J3.000
N6090G2X5.646Y6.000I4.000J0.000
N6100G01X5.647Y6.000
N6110X22.161Y5.983
N6120Y7.181
N6130G2X25.161Y13.826I3.000J2.646
N6140G2X28.161Y7.181I0.000J-4.000
N6150G01Y5.983
N6160X42.163
N6170Y7.181
N6180G2X45.163Y13.826I3.000J2.646
N6190G2X48.163Y7.181I0.000J-4.000
N6200G01Y5.983
N6210G01Z-0.731F70.0
N6220G01X66.393Y6.000F500.0
N6230X66.394Y6.000
N6240G2X73.040Y3.000I2.646J-3.000
N6250G2X66.394Y0.000I-4.000J0.000
N6260G01X5.646Y0.000
N6270G2X-1.000Y3.000I-2.646J3.000
N6280G2X5.646Y6.000I4.000J0.000
N6290G01X5.647Y6.000
N6300X22.161Y5.983
N6310Y7.181
N6320G2X25.161Y13.826I3.000J2.646
N6330G2X28.161Y7.181I0.000J-4.000
N6340G01Y5.983
N6350X42.163
N6360Y7.181
N6370G2X45.163Y13.826I3.000J2.646
N6380G2X48.163Y7.181I0.000J-4.000
N6390G01Y5.983
N6400G01Z-0.877F70.0
N6410G01X66.393Y6.000F500.0
N6420X66.394Y6.000
N6430G2X73.040Y3.000I2.646J-3.000
N6440G2X66.394Y0.000I-4.000J0.000
N6450G01X5.646Y0.000
N6460G2X-1.000Y3.000I-2.646J3.000
N6470G2X5.646Y6.000I4.000J0.000
N6480G01X5.647Y6.000
N6490X22.161Y5.983
N6500Y7.181
N6510G2X25.161Y13.826I3.000J2.646
N6520G2X28.161Y7.181I0.000J-4.000
N6530G01Y5.983
N6540X42.163
N6550Y7.181
N6560G2X45.163Y13.826I3.000J2.646
N6570G2X48.163Y7.181I0.000J-4.000
N6580G01Y5.983
N6590G01Z-1.023F70.0
N6600G01X66.393Y6.000F500.0
N6610X66.394Y6.000
N6620G2X73.040Y3.000I2.646J-3.000
N6630G2X66.394Y0.000I-4.000J0.000
N6640G01X5.646Y0.000
N6650G2X-1.000Y3.000I-2.646J3.000
N6660G2X5.646Y6.000I4.000J0.000
N6670G01X5.647Y6.000
N6680X22.161Y5.983
N6690Y7.181
N6700G2X25.161Y13.826I3.000J2.646
N6710G2X28.161Y7.181I0.000J-4.000
N6720G01Y5.983
N6730X42.163
N6740Y7.181
N6750G2X45.163Y13.826I3.000J2.646
N6760G2X48.163Y7.181I0.000J-4.000
N6770G01Y5.983
N6780G01Z-1.169F70.0
N6790G01X66.393Y6.000F500.0
N6800X66.394Y6.000
N6810G2X73.040Y3.000I2.646J-3.000
N6820G2X66.394Y0.000I-4.000J0.000
N6830G01X5.646Y0.000
N6840G2X-1.000Y3.000I-2.646J3.000
N6850G2X5.646Y6.000I4.000J0.000
N6860G01X5.647Y6.000
N6870X22.161Y5.983
N6880Y7.181
N6890G2X25.161Y13.826I3.000J2.646
N6900G2X28.161Y7.181I0.000J-4.000
N6910G01Y5.983
N6920X42.163
N6930Y7.181
N6940G2X45.163Y13.826I3.000J2.646
N6950G2X48.163Y7.181I0.000J-4.000
N6960G01Y5.983
N6970G01Z-1.315F70.0
N6980G01X66.393Y6.000F500.0
N6990X66.394Y6.000
N7000G2X73.040Y3.000I2.646J-3.000
N7010G2X66.394Y0.000I-4.000J0.000
N7020G01X5.646Y0.000
N7030G2X-1.000Y3.000I-2.646J3.000
N7040G2X5.646Y6.000I4.000J0.000
N7050G01X5.647Y6.000
N7060X22.161Y5.983
N7070Y7.181
N7080G2X25.161Y13.826I3.000J2.646
N7090G2X28.161Y7.181I0.000J-4.000
N7100G01Y5.983
N7110X42.163
N7120Y7.181
N7130G2X45.163Y13.826I3.000J2.646
N7140G2X48.163Y7.181I0.000J-4.000
N7150G01Y5.983
N7160G01Z-1.462F70.0
N7170G01X66.393Y6.000F500.0
N7180X66.394Y6.000
N7190G2X73.040Y3.000I2.646J-3.000
N7200G2X66.394Y0.000I-4.000J0.000
N7210G01X5.646Y0.000
N7220G2X-1.000Y3.000I-2.646J3.000
N7230G2X5.646Y6.000I4.000J0.000
N7240G01X5.647Y6.000
N7250X22.161Y5.983
N7260Y7.181
N7270G2X25.161Y13.826I3.000J2.646
N7280G2X28.161Y7.181I0.000J-4.000
N7290G01Y5.983
N7300X42.163
N7310Y7.181
N7320G2X45.163Y13.826I3.000J2.646
N7330G2X48.163Y7.181I0.000J-4.000
N7340G01Y5.983
N7350G01Z-1.608F70.0
N7360G01X66.393Y6.000F500.0
N7370X66.394Y6.000
N7380G2X73.040Y3.000I2.646J-3.000
N7390G2X66.394Y0.000I-4.000J0.000
N7400G01X5.646Y0.000
N7410G2X-1.000Y3.000I-2.646J3.000
N7420G2X5.646Y6.000I4.000J0.000
N7430G01X5.647Y6.000
N7440X22.161Y5.983
N7450Y7.181
N7460G2X25.161Y13.826I3.000J2.646
N7470G2X28.161Y7.181I0.000J-4.000
N7480G01Y5.983
N7490X42.163
N7500Y7.181
N7510G2X45.163Y13.826I3.000J2.646
N7520G2X48.163Y7.181I0.000J-4.000
N7530G01Y5.983
N7540G01Z-1.754F70.0
N7550G01X66.393Y6.000F500.0
N7560X66.394Y6.000
N7570G2X73.040Y3.000I2.646J-3.000
N7580G2X66.394Y0.000I-4.000J0.000
N7590G01X5.646Y0.000
N7600G2X-1.000Y3.000I-2.646J3.000
N7610G2X5.646Y6.000I4.000J0.000
N7620G01X5.647Y6.000
N7630X22.161Y5.983
N7640Y7.181
N7650G2X25.161Y13.826I3.000J2.646
N7660G2X28.161Y7.181I0.000J-4.000
N7670G01Y5.983
N7680X42.163
N7690Y7.181
N7700G2X45.163Y13.826I3.000J2.646
N7710G2X48.163Y7.181I0.000J-4.000
N7720G01Y5.983
N7730G01Z-1.900F70.0
N7740G01X66.393Y6.000F500.0
N7750X66.394Y6.000
N7760G2X73.040Y3.000I2.646J-3.000
N7770G2X66.394Y0.000I-4.000J0.000
N7780G01X5.646Y0.000
N7790G2X-1.000Y3.000I-2.646J3.000
N7800G2X5.646Y6.000I4.000J0.000
N7810G01X5.647Y6.000
N7820X22.161Y5.983
N7830Y7.181
N7840G2X25.161Y13.826I3.000J2.646
N7850G2X28.161Y7.181I0.000J-4.000
N7860G01Y5.983
N7870X42.163
N7880Y7.181
N7890G2X45.163Y13.826I3.000J2.646
N7900G2X48.163Y7.181I0.000J-4.000
N7910G01Y5.983
N7920G00Z6.000
N7930G00X122.303
N7940G01Z-0.146F70.0
N7950G01X140.533Y6.000F500.0
N7960X140.534Y6.000
N7970G2X147.180Y3.000I2.646J-3.000
N7980G2X140.534Y0.000I-4.000J0.000
N7990G01X79.786Y0.000
N8000G2X73.140Y3.000I-2.646J3.000
N8010G2X79.786Y6.000I4.000J0.000
N8020G01X79.787Y6.000
N8030X96.301Y5.983
N8040Y7.181
N8050G2X99.301Y13.826I3.000J2.646
N8060G2X102.301Y7.181I0.000J-4.000
N8070G01Y5.983
N8080X116.303
N8090Y7.181
N8100G2X119.303Y13.826I3.000J2.646
N8110G2X122.303Y7.181I0.000J-4.000
N8120G01Y5.983
N8130G01Z-0.292F70.0
N8140G01X140.533Y6.000F500.0
N8150X140.534Y6.000
N8160G2X147.180Y3.000I2.646J-3.000
N8170G2X140.534Y0.000I-4.000J0.000
N8180G01X79.786Y0.000
N8190G2X73.140Y3.000I-2.646J3.000
N8200G2X79.786Y6.000I4.000J0.000
N8210G01X79.787Y6.000
N8220X96.301Y5.983
N8230Y7.181
N8240G2X99.301Y13.826I3.000J2.646
N8250G2X102.301Y7.181I0.000J-4.000
N8260G01Y5.983
N8270X116.303
N8280Y7.181
N8290G2X119.303Y13.826I3.000J2.646
N8300G2X122.303Y7.181I0.000J-4.000
N8310G01Y5.983
N8320G01Z-0.438F70.0
N8330G01X140.533Y6.000F500.0
N8340X140.534Y6.000
N8350G2X147.180Y3.000I2.646J-3.000
N8360G2X140.534Y0.000I-4.000J0.000
N8370G01X79.786Y0.000
N8380G2X73.140Y3.000I-2.646J3.000
N8390G2X79.786Y6.000I4.000J0.000
N8400G01X79.787Y6.000
N8410X96.301Y5.983
N8420Y7.181
N8430G2X99.301Y13.826I3.000J2.646
N8440G2X102.301Y7.181I0.000J-4.000
N8450G01Y5.983
N8460X116.303
N8470Y7.181
N8480G2X119.303Y13.826I3.000J2.646
N8490G2X122.303Y7.181I0.000J-4.000
N8500G01Y5.983
N8510G01Z-0.585F70.0
N8520G01X140.533Y6.000F500.0
N8530X140.534Y6.000
N8540G2X147.180Y3.000I2.646J-3.000
N8550G2X140.534Y0.000I-4.000J0.000
N8560G01X79.786Y0.000
N8570G2X73.140Y3.000I-2.646J3.000
N8580G2X79.786Y6.000I4.000J0.000
N8590G01X79.787Y6.000
N8600X96.301Y5.983
N8610Y7.181
N8620G2X99.301Y13.826I3.000J2.646
N8630G2X102.301Y7.181I0.000J-4.000
N8640G01Y5.983
N8650X116.303
N8660Y7.181
N8670G2X119.303Y13.826I3.000J2.646
N8680G2X122.303Y7.181I0.000J-4.000
N8690G01Y5.983
N8700G01Z-0.731F70.0
N8710G01X140.533Y6.000F500.0
N8720X140.534Y6.000
N8730G2X147.180Y3.000I2.646J-3.000
N8740G2X140.534Y0.000I-4.000J0.000
N8750G01X79.786Y0.000
N8760G2X73.140Y3.000I-2.646J3.000
N8770G2X79.786Y6.000I4.000J0.000
N8780G01X79.787Y6.000
N8790X96.301Y5.983
N8800Y7.181
N8810G2X99.301Y13.826I3.000J2.646
N8820G2X102.301Y7.181I0.000J-4.000
N8830G01Y5.983
N8840X116.303
N8850Y7.181
N8860G2X119.303Y13.826I3.000J2.646
N8870G2X122.303Y7.181I0.000J-4.000
N8880G01Y5.983
N8890G01Z-0.877F70.0
N8900G01X140.533Y6.000F500.0
N8910X140.534Y6.000
N8920G2X147.180Y3.000I2.646J-3.000
N8930G2X140.534Y0.000I-4.000J0.000
N8940G01X79.786Y0.000
N8950G2X73.140Y3.000I-2.646J3.000
N8960G2X79.786Y6.000I4.000J0.000
N8970G01X79.787Y6.000
N8980X96.301Y5.983
N8990Y7.181
N9000G2X99.301Y13.826I3.000J2.646
N9010G2X102.301Y7.181I0.000J-4.000
N9020G01Y5.983
N9030X116.303
N9040Y7.181
N9050G2X119.303Y13.826I3.000J2.646
N9060G2X122.303Y7.181I0.000J-4.000
N9070G01Y5.983
N9080G01Z-1.023F70.0
N9090G01X140.533Y6.000F500.0
N9100X140.534Y6.000
N9110G2X147.180Y3.000I2.646J-3.000
N9120G2X140.534Y0.000I-4.000J0.000
N9130G01X79.786Y0.000
N9140G2X73.140Y3.000I-2.646J3.000
N9150G2X79.786Y6.000I4.000J0.000
N9160G01X79.787Y6.000
N9170X96.301Y5.983
N9180Y7.181
N9190G2X99.301Y13.826I3.000J2.646
N9200G2X102.301Y7.181I0.000J-4.000
N9210G01Y5.983
N9220X116.303
N9230Y7.181
N9240G2X119.303Y13.826I3.000J2.646
N9250G2X122.303Y7.181I0.000J-4.000
N9260G01Y5.983
N9270G01Z-1.169F70.0
N9280G01X140.533Y6.000F500.0
N9290X140.534Y6.000
N9300G2X147.180Y3.000I2.646J-3.000
N9310G2X140.534Y0.000I-4.000J0.000
N9320G01X79.786Y0.000
N9330G2X73.140Y3.000I-2.646J3.000
N9340G2X79.786Y6.000I4.000J0.000
N9350G01X79.787Y6.000
N9360X96.301Y5.983
N9370Y7.181
N9380G2X99.301Y13.826I3.000J2.646
N9390G2X102.301Y7.181I0.000J-4.000
N9400G01Y5.983
N9410X116.303
N9420Y7.181
N9430G2X119.303Y13.826I3.000J2.646
N9440G2X122.303Y7.181I0.000J-4.000
N9450G01Y5.983
N9460G01Z-1.315F70.0
N9470G01X140.533Y6.000F500.0
N9480X140.534Y6.000
N9490G2X147.180Y3.000I2.646J-3.000
N9500G2X140.534Y0.000I-4.000J0.000
N9510G01X79.786Y0.000
N9520G2X73.140Y3.000I-2.646J3.000
N9530G2X79.786Y6.000I4.000J0.000
N9540G01X79.787Y6.000
N9550X96.301Y5.983
N9560Y7.181
N9570G2X99.301Y13.826I3.000J2.646
N9580G2X102.301Y7.181I0.000J-4.000
N9590G01Y5.983
N9600X116.303
N9610Y7.181
N9620G2X119.303Y13.826I3.000J2.646
N9630G2X122.303Y7.181I0.000J-4.000
N9640G01Y5.983
N9650G01Z-1.462F70.0
N9660G01X140.533Y6.000F500.0
N9670X140.534Y6.000
N9680G2X147.180Y3.000I2.646J-3.000
N9690G2X140.534Y0.000I-4.000J0.000
N9700G01X79.786Y0.000
N9710G2X73.140Y3.000I-2.646J3.000
N9720G2X79.786Y6.000I4.000J0.000
N9730G01X79.787Y6.000
N9740X96.301Y5.983
N9750Y7.181
N9760G2X99.301Y13.826I3.000J2.646
N9770G2X102.301Y7.181I0.000J-4.000
N9780G01Y5.983
N9790X116.303
N9800Y7.181
N9810G2X119.303Y13.826I3.000J2.646
N9820G2X122.303Y7.181I0.000J-4.000
N9830G01Y5.983
N9840G01Z-1.608F70.0
N9850G01X140.533Y6.000F500.0
N9860X140.534Y6.000
N9870G2X147.180Y3.000I2.646J-3.000
N9880G2X140.534Y0.000I-4.000J0.000
N9890G01X79.786Y0.000
N9900G2X73.140Y3.000I-2.646J3.000
N9910G2X79.786Y6.000I4.000J0.000
N9920G01X79.787Y6.000
N9930X96.301Y5.983
N9940Y7.181
N9950G2X99.301Y13.826I3.000J2.646
N9960G2X102.301Y7.181I0.000J-4.000
N9970G01Y5.983
N9980X116.303
N9990Y7.181
N10000G2X119.303Y13.826I3.000J2.646
N10010G2X122.303Y7.181I0.000J-4.000
N10020G01Y5.983
N10030G01Z-1.754F70.0
N10040G01X140.533Y6.000F500.0
N10050X140.534Y6.000
N10060G2X147.180Y3.000I2.646J-3.000
N10070G2X140.534Y0.000I-4.000J0.000
N10080G01X79.786Y0.000
N10090G2X73.140Y3.000I-2.646J3.000
N10100G2X79.786Y6.000I4.000J0.000
N10110G01X79.787Y6.000
N10120X96.301Y5.983
N10130Y7.181
N10140G2X99.301Y13.826I3.000J2.646
N10150G2X102.301Y7.181I0.000J-4.000
N10160G01Y5.983
N10170X116.303
N10180Y7.181
N10190G2X119.303Y13.826I3.000J2.646
N10200G2X122.303Y7.181I0.000J-4.000
N10210G01Y5.983
N10220G01Z-1.900F70.0
N10230G01X140.533Y6.000F500.0
N10240X140.534Y6.000
N10250G2X147.180Y3.000I2.646J-3.000
N10260G2X140.534Y0.000I-4.000J0.000
N10270G01X79.786Y0.000
N10280G2X73.140Y3.000I-2.646J3.000
N10290G2X79.786Y6.000I4.000J0.000
N10300G01X79.787Y6.000
N10310X96.301Y5.983
N10320Y7.181
N10330G2X99.301Y13.826I3.000J2.646
N10340G2X102.301Y7.181I0.000J-4.000
N10350G01Y5.983
N10360X116.303
N10370Y7.181
N10380G2X119.303Y13.826I3.000J2.646
N10390G2X122.303Y7.181I0.000J-4.000
N10400G01Y5.983
N10410G00Z6.000
N10420G00Z20.000
N10430G00X0.000Y0.000
N10440M09
N10450M30
%
