( ÉfÅ[É^2{1.5mm} )
( File created: Thursday September 09 2021 - 02:39 PM)
( USBCNC Postprocessor )
( Material Size)
( X= 20.000, Y= 20.000, Z= 10.000)
()
(Toolpaths used in this file:)
(1.5mm åäÇ†ÇØ)
(Tools used in this file: )
(2 = End Mill {1.5mm} POM)
N100G00G21G17G90G40G49
N110G80
N120 (End Mill {1.5mm} POM)
N130G00G43Z20.000H2
N140S14000M03
N150(Toolpath:- 1.5mm åäÇ†ÇØ)
N160()
N170G94
N180X0.000Y0.000F500.0
N190G00X4.293Y4.343Z6.000
N200G1Z-3.195F150.0
N210G3X4.343Y4.293I0.050J0.000F500.0
N220G3X4.393Y4.343I0.000J0.050
N230G3X4.343Y4.393I-0.050J0.000
N240G3X4.293Y4.343I0.000J-0.050
N250G1Z-3.391F150.0
N260G3X4.343Y4.293I0.050J0.000F500.0
N270G3X4.393Y4.343I0.000J0.050
N280G3X4.343Y4.393I-0.050J0.000
N290G3X4.293Y4.343I0.000J-0.050
N300G1Z-3.587F150.0
N310G3X4.343Y4.293I0.050J0.000F500.0
N320G3X4.393Y4.343I0.000J0.050
N330G3X4.343Y4.393I-0.050J0.000
N340G3X4.293Y4.343I0.000J-0.050
N350G1Z-3.782F150.0
N360G3X4.343Y4.293I0.050J0.000F500.0
N370G3X4.393Y4.343I0.000J0.050
N380G3X4.343Y4.393I-0.050J0.000
N390G3X4.293Y4.343I0.000J-0.050
N400G1Z-3.978F150.0
N410G3X4.343Y4.293I0.050J0.000F500.0
N420G3X4.393Y4.343I0.000J0.050
N430G3X4.343Y4.393I-0.050J0.000
N440G3X4.293Y4.343I0.000J-0.050
N450G1Z-4.173F150.0
N460G3X4.343Y4.293I0.050J0.000F500.0
N470G3X4.393Y4.343I0.000J0.050
N480G3X4.343Y4.393I-0.050J0.000
N490G3X4.293Y4.343I0.000J-0.050
N500G1Z-4.369F150.0
N510G3X4.343Y4.293I0.050J0.000F500.0
N520G3X4.393Y4.343I0.000J0.050
N530G3X4.343Y4.393I-0.050J0.000
N540G3X4.293Y4.343I0.000J-0.050
N550G1Z-4.565F150.0
N560G3X4.343Y4.293I0.050J0.000F500.0
N570G3X4.393Y4.343I0.000J0.050
N580G3X4.343Y4.393I-0.050J0.000
N590G3X4.293Y4.343I0.000J-0.050
N600G1Z-4.760F150.0
N610G3X4.343Y4.293I0.050J0.000F500.0
N620G3X4.393Y4.343I0.000J0.050
N630G3X4.343Y4.393I-0.050J0.000
N640G3X4.293Y4.343I0.000J-0.050
N650G1Z-4.956F150.0
N660G3X4.343Y4.293I0.050J0.000F500.0
N670G3X4.393Y4.343I0.000J0.050
N680G3X4.343Y4.393I-0.050J0.000
N690G3X4.293Y4.343I0.000J-0.050
N700G1Z-5.152F150.0
N710G3X4.343Y4.293I0.050J0.000F500.0
N720G3X4.393Y4.343I0.000J0.050
N730G3X4.343Y4.393I-0.050J0.000
N740G3X4.293Y4.343I0.000J-0.050
N750G1Z-5.347F150.0
N760G3X4.343Y4.293I0.050J0.000F500.0
N770G3X4.393Y4.343I0.000J0.050
N780G3X4.343Y4.393I-0.050J0.000
N790G3X4.293Y4.343I0.000J-0.050
N800G1Z-5.543F150.0
N810G3X4.343Y4.293I0.050J0.000F500.0
N820G3X4.393Y4.343I0.000J0.050
N830G3X4.343Y4.393I-0.050J0.000
N840G3X4.293Y4.343I0.000J-0.050
N850G1Z-5.739F150.0
N860G3X4.343Y4.293I0.050J0.000F500.0
N870G3X4.393Y4.343I0.000J0.050
N880G3X4.343Y4.393I-0.050J0.000
N890G3X4.293Y4.343I0.000J-0.050
N900G1Z-5.934F150.0
N910G3X4.343Y4.293I0.050J0.000F500.0
N920G3X4.393Y4.343I0.000J0.050
N930G3X4.343Y4.393I-0.050J0.000
N940G3X4.293Y4.343I0.000J-0.050
N950G1Z-6.130F150.0
N960G3X4.343Y4.293I0.050J0.000F500.0
N970G3X4.393Y4.343I0.000J0.050
N980G3X4.343Y4.393I-0.050J0.000
N990G3X4.293Y4.343I0.000J-0.050
N1000G1Z-6.326F150.0
N1010G3X4.343Y4.293I0.050J0.000F500.0
N1020G3X4.393Y4.343I0.000J0.050
N1030G3X4.343Y4.393I-0.050J0.000
N1040G3X4.293Y4.343I0.000J-0.050
N1050G1Z-6.521F150.0
N1060G3X4.343Y4.293I0.050J0.000F500.0
N1070G3X4.393Y4.343I0.000J0.050
N1080G3X4.343Y4.393I-0.050J0.000
N1090G3X4.293Y4.343I0.000J-0.050
N1100G1Z-6.717F150.0
N1110G3X4.343Y4.293I0.050J0.000F500.0
N1120G3X4.393Y4.343I0.000J0.050
N1130G3X4.343Y4.393I-0.050J0.000
N1140G3X4.293Y4.343I0.000J-0.050
N1150G1Z-6.913F150.0
N1160G3X4.343Y4.293I0.050J0.000F500.0
N1170G3X4.393Y4.343I0.000J0.050
N1180G3X4.343Y4.393I-0.050J0.000
N1190G3X4.293Y4.343I0.000J-0.050
N1200G1Z-7.108F150.0
N1210G3X4.343Y4.293I0.050J0.000F500.0
N1220G3X4.393Y4.343I0.000J0.050
N1230G3X4.343Y4.393I-0.050J0.000
N1240G3X4.293Y4.343I0.000J-0.050
N1250G1Z-7.304F150.0
N1260G3X4.343Y4.293I0.050J0.000F500.0
N1270G3X4.393Y4.343I0.000J0.050
N1280G3X4.343Y4.393I-0.050J0.000
N1290G3X4.293Y4.343I0.000J-0.050
N1300G1Z-7.500F150.0
N1310G3X4.343Y4.293I0.050J0.000F500.0
N1320G3X4.393Y4.343I0.000J0.050
N1330G3X4.343Y4.393I-0.050J0.000
N1340G3X4.293Y4.343I0.000J-0.050
N1350G00Z6.000
N1360G00X4.343Y15.607
N1370G1Z-3.195F150.0
N1380G3X4.393Y15.657I0.000J0.050F500.0
N1390G3X4.343Y15.707I-0.050J0.000
N1400G3X4.293Y15.657I0.000J-0.050
N1410G3X4.343Y15.607I0.050J0.000
N1420G1Z-3.391F150.0
N1430G3X4.393Y15.657I0.000J0.050F500.0
N1440G3X4.343Y15.707I-0.050J0.000
N1450G3X4.293Y15.657I0.000J-0.050
N1460G3X4.343Y15.607I0.050J0.000
N1470G1Z-3.587F150.0
N1480G3X4.393Y15.657I0.000J0.050F500.0
N1490G3X4.343Y15.707I-0.050J0.000
N1500G3X4.293Y15.657I0.000J-0.050
N1510G3X4.343Y15.607I0.050J0.000
N1520G1Z-3.782F150.0
N1530G3X4.393Y15.657I0.000J0.050F500.0
N1540G3X4.343Y15.707I-0.050J0.000
N1550G3X4.293Y15.657I0.000J-0.050
N1560G3X4.343Y15.607I0.050J0.000
N1570G1Z-3.978F150.0
N1580G3X4.393Y15.657I0.000J0.050F500.0
N1590G3X4.343Y15.707I-0.050J0.000
N1600G3X4.293Y15.657I0.000J-0.050
N1610G3X4.343Y15.607I0.050J0.000
N1620G1Z-4.173F150.0
N1630G3X4.393Y15.657I0.000J0.050F500.0
N1640G3X4.343Y15.707I-0.050J0.000
N1650G3X4.293Y15.657I0.000J-0.050
N1660G3X4.343Y15.607I0.050J0.000
N1670G1Z-4.369F150.0
N1680G3X4.393Y15.657I0.000J0.050F500.0
N1690G3X4.343Y15.707I-0.050J0.000
N1700G3X4.293Y15.657I0.000J-0.050
N1710G3X4.343Y15.607I0.050J0.000
N1720G1Z-4.565F150.0
N1730G3X4.393Y15.657I0.000J0.050F500.0
N1740G3X4.343Y15.707I-0.050J0.000
N1750G3X4.293Y15.657I0.000J-0.050
N1760G3X4.343Y15.607I0.050J0.000
N1770G1Z-4.760F150.0
N1780G3X4.393Y15.657I0.000J0.050F500.0
N1790G3X4.343Y15.707I-0.050J0.000
N1800G3X4.293Y15.657I0.000J-0.050
N1810G3X4.343Y15.607I0.050J0.000
N1820G1Z-4.956F150.0
N1830G3X4.393Y15.657I0.000J0.050F500.0
N1840G3X4.343Y15.707I-0.050J0.000
N1850G3X4.293Y15.657I0.000J-0.050
N1860G3X4.343Y15.607I0.050J0.000
N1870G1Z-5.152F150.0
N1880G3X4.393Y15.657I0.000J0.050F500.0
N1890G3X4.343Y15.707I-0.050J0.000
N1900G3X4.293Y15.657I0.000J-0.050
N1910G3X4.343Y15.607I0.050J0.000
N1920G1Z-5.347F150.0
N1930G3X4.393Y15.657I0.000J0.050F500.0
N1940G3X4.343Y15.707I-0.050J0.000
N1950G3X4.293Y15.657I0.000J-0.050
N1960G3X4.343Y15.607I0.050J0.000
N1970G1Z-5.543F150.0
N1980G3X4.393Y15.657I0.000J0.050F500.0
N1990G3X4.343Y15.707I-0.050J0.000
N2000G3X4.293Y15.657I0.000J-0.050
N2010G3X4.343Y15.607I0.050J0.000
N2020G1Z-5.739F150.0
N2030G3X4.393Y15.657I0.000J0.050F500.0
N2040G3X4.343Y15.707I-0.050J0.000
N2050G3X4.293Y15.657I0.000J-0.050
N2060G3X4.343Y15.607I0.050J0.000
N2070G1Z-5.934F150.0
N2080G3X4.393Y15.657I0.000J0.050F500.0
N2090G3X4.343Y15.707I-0.050J0.000
N2100G3X4.293Y15.657I0.000J-0.050
N2110G3X4.343Y15.607I0.050J0.000
N2120G1Z-6.130F150.0
N2130G3X4.393Y15.657I0.000J0.050F500.0
N2140G3X4.343Y15.707I-0.050J0.000
N2150G3X4.293Y15.657I0.000J-0.050
N2160G3X4.343Y15.607I0.050J0.000
N2170G1Z-6.326F150.0
N2180G3X4.393Y15.657I0.000J0.050F500.0
N2190G3X4.343Y15.707I-0.050J0.000
N2200G3X4.293Y15.657I0.000J-0.050
N2210G3X4.343Y15.607I0.050J0.000
N2220G1Z-6.521F150.0
N2230G3X4.393Y15.657I0.000J0.050F500.0
N2240G3X4.343Y15.707I-0.050J0.000
N2250G3X4.293Y15.657I0.000J-0.050
N2260G3X4.343Y15.607I0.050J0.000
N2270G1Z-6.717F150.0
N2280G3X4.393Y15.657I0.000J0.050F500.0
N2290G3X4.343Y15.707I-0.050J0.000
N2300G3X4.293Y15.657I0.000J-0.050
N2310G3X4.343Y15.607I0.050J0.000
N2320G1Z-6.913F150.0
N2330G3X4.393Y15.657I0.000J0.050F500.0
N2340G3X4.343Y15.707I-0.050J0.000
N2350G3X4.293Y15.657I0.000J-0.050
N2360G3X4.343Y15.607I0.050J0.000
N2370G1Z-7.108F150.0
N2380G3X4.393Y15.657I0.000J0.050F500.0
N2390G3X4.343Y15.707I-0.050J0.000
N2400G3X4.293Y15.657I0.000J-0.050
N2410G3X4.343Y15.607I0.050J0.000
N2420G1Z-7.304F150.0
N2430G3X4.393Y15.657I0.000J0.050F500.0
N2440G3X4.343Y15.707I-0.050J0.000
N2450G3X4.293Y15.657I0.000J-0.050
N2460G3X4.343Y15.607I0.050J0.000
N2470G1Z-7.500F150.0
N2480G3X4.393Y15.657I0.000J0.050F500.0
N2490G3X4.343Y15.707I-0.050J0.000
N2500G3X4.293Y15.657I0.000J-0.050
N2510G3X4.343Y15.607I0.050J0.000
N2520G00Z6.000
N2530G00X15.607Y15.657
N2540G1Z-3.195F150.0
N2550G3X15.657Y15.607I0.050J0.000F500.0
N2560G3X15.707Y15.657I0.000J0.050
N2570G3X15.657Y15.707I-0.050J0.000
N2580G3X15.607Y15.657I0.000J-0.050
N2590G1Z-3.391F150.0
N2600G3X15.657Y15.607I0.050J0.000F500.0
N2610G3X15.707Y15.657I0.000J0.050
N2620G3X15.657Y15.707I-0.050J0.000
N2630G3X15.607Y15.657I0.000J-0.050
N2640G1Z-3.587F150.0
N2650G3X15.657Y15.607I0.050J0.000F500.0
N2660G3X15.707Y15.657I0.000J0.050
N2670G3X15.657Y15.707I-0.050J0.000
N2680G3X15.607Y15.657I0.000J-0.050
N2690G1Z-3.782F150.0
N2700G3X15.657Y15.607I0.050J0.000F500.0
N2710G3X15.707Y15.657I0.000J0.050
N2720G3X15.657Y15.707I-0.050J0.000
N2730G3X15.607Y15.657I0.000J-0.050
N2740G1Z-3.978F150.0
N2750G3X15.657Y15.607I0.050J0.000F500.0
N2760G3X15.707Y15.657I0.000J0.050
N2770G3X15.657Y15.707I-0.050J0.000
N2780G3X15.607Y15.657I0.000J-0.050
N2790G1Z-4.173F150.0
N2800G3X15.657Y15.607I0.050J0.000F500.0
N2810G3X15.707Y15.657I0.000J0.050
N2820G3X15.657Y15.707I-0.050J0.000
N2830G3X15.607Y15.657I0.000J-0.050
N2840G1Z-4.369F150.0
N2850G3X15.657Y15.607I0.050J0.000F500.0
N2860G3X15.707Y15.657I0.000J0.050
N2870G3X15.657Y15.707I-0.050J0.000
N2880G3X15.607Y15.657I0.000J-0.050
N2890G1Z-4.565F150.0
N2900G3X15.657Y15.607I0.050J0.000F500.0
N2910G3X15.707Y15.657I0.000J0.050
N2920G3X15.657Y15.707I-0.050J0.000
N2930G3X15.607Y15.657I0.000J-0.050
N2940G1Z-4.760F150.0
N2950G3X15.657Y15.607I0.050J0.000F500.0
N2960G3X15.707Y15.657I0.000J0.050
N2970G3X15.657Y15.707I-0.050J0.000
N2980G3X15.607Y15.657I0.000J-0.050
N2990G1Z-4.956F150.0
N3000G3X15.657Y15.607I0.050J0.000F500.0
N3010G3X15.707Y15.657I0.000J0.050
N3020G3X15.657Y15.707I-0.050J0.000
N3030G3X15.607Y15.657I0.000J-0.050
N3040G1Z-5.152F150.0
N3050G3X15.657Y15.607I0.050J0.000F500.0
N3060G3X15.707Y15.657I0.000J0.050
N3070G3X15.657Y15.707I-0.050J0.000
N3080G3X15.607Y15.657I0.000J-0.050
N3090G1Z-5.347F150.0
N3100G3X15.657Y15.607I0.050J0.000F500.0
N3110G3X15.707Y15.657I0.000J0.050
N3120G3X15.657Y15.707I-0.050J0.000
N3130G3X15.607Y15.657I0.000J-0.050
N3140G1Z-5.543F150.0
N3150G3X15.657Y15.607I0.050J0.000F500.0
N3160G3X15.707Y15.657I0.000J0.050
N3170G3X15.657Y15.707I-0.050J0.000
N3180G3X15.607Y15.657I0.000J-0.050
N3190G1Z-5.739F150.0
N3200G3X15.657Y15.607I0.050J0.000F500.0
N3210G3X15.707Y15.657I0.000J0.050
N3220G3X15.657Y15.707I-0.050J0.000
N3230G3X15.607Y15.657I0.000J-0.050
N3240G1Z-5.934F150.0
N3250G3X15.657Y15.607I0.050J0.000F500.0
N3260G3X15.707Y15.657I0.000J0.050
N3270G3X15.657Y15.707I-0.050J0.000
N3280G3X15.607Y15.657I0.000J-0.050
N3290G1Z-6.130F150.0
N3300G3X15.657Y15.607I0.050J0.000F500.0
N3310G3X15.707Y15.657I0.000J0.050
N3320G3X15.657Y15.707I-0.050J0.000
N3330G3X15.607Y15.657I0.000J-0.050
N3340G1Z-6.326F150.0
N3350G3X15.657Y15.607I0.050J0.000F500.0
N3360G3X15.707Y15.657I0.000J0.050
N3370G3X15.657Y15.707I-0.050J0.000
N3380G3X15.607Y15.657I0.000J-0.050
N3390G1Z-6.521F150.0
N3400G3X15.657Y15.607I0.050J0.000F500.0
N3410G3X15.707Y15.657I0.000J0.050
N3420G3X15.657Y15.707I-0.050J0.000
N3430G3X15.607Y15.657I0.000J-0.050
N3440G1Z-6.717F150.0
N3450G3X15.657Y15.607I0.050J0.000F500.0
N3460G3X15.707Y15.657I0.000J0.050
N3470G3X15.657Y15.707I-0.050J0.000
N3480G3X15.607Y15.657I0.000J-0.050
N3490G1Z-6.913F150.0
N3500G3X15.657Y15.607I0.050J0.000F500.0
N3510G3X15.707Y15.657I0.000J0.050
N3520G3X15.657Y15.707I-0.050J0.000
N3530G3X15.607Y15.657I0.000J-0.050
N3540G1Z-7.108F150.0
N3550G3X15.657Y15.607I0.050J0.000F500.0
N3560G3X15.707Y15.657I0.000J0.050
N3570G3X15.657Y15.707I-0.050J0.000
N3580G3X15.607Y15.657I0.000J-0.050
N3590G1Z-7.304F150.0
N3600G3X15.657Y15.607I0.050J0.000F500.0
N3610G3X15.707Y15.657I0.000J0.050
N3620G3X15.657Y15.707I-0.050J0.000
N3630G3X15.607Y15.657I0.000J-0.050
N3640G1Z-7.500F150.0
N3650G3X15.657Y15.607I0.050J0.000F500.0
N3660G3X15.707Y15.657I0.000J0.050
N3670G3X15.657Y15.707I-0.050J0.000
N3680G3X15.607Y15.657I0.000J-0.050
N3690G00Z6.000
N3700G00X15.657Y4.393
N3710G1Z-3.195F150.0
N3720G3X15.607Y4.343I0.000J-0.050F500.0
N3730G3X15.657Y4.293I0.050J0.000
N3740G3X15.707Y4.343I0.000J0.050
N3750G3X15.657Y4.393I-0.050J0.000
N3760G1Z-3.391F150.0
N3770G3X15.607Y4.343I0.000J-0.050F500.0
N3780G3X15.657Y4.293I0.050J0.000
N3790G3X15.707Y4.343I0.000J0.050
N3800G3X15.657Y4.393I-0.050J0.000
N3810G1Z-3.587F150.0
N3820G3X15.607Y4.343I0.000J-0.050F500.0
N3830G3X15.657Y4.293I0.050J0.000
N3840G3X15.707Y4.343I0.000J0.050
N3850G3X15.657Y4.393I-0.050J0.000
N3860G1Z-3.782F150.0
N3870G3X15.607Y4.343I0.000J-0.050F500.0
N3880G3X15.657Y4.293I0.050J0.000
N3890G3X15.707Y4.343I0.000J0.050
N3900G3X15.657Y4.393I-0.050J0.000
N3910G1Z-3.978F150.0
N3920G3X15.607Y4.343I0.000J-0.050F500.0
N3930G3X15.657Y4.293I0.050J0.000
N3940G3X15.707Y4.343I0.000J0.050
N3950G3X15.657Y4.393I-0.050J0.000
N3960G1Z-4.173F150.0
N3970G3X15.607Y4.343I0.000J-0.050F500.0
N3980G3X15.657Y4.293I0.050J0.000
N3990G3X15.707Y4.343I0.000J0.050
N4000G3X15.657Y4.393I-0.050J0.000
N4010G1Z-4.369F150.0
N4020G3X15.607Y4.343I0.000J-0.050F500.0
N4030G3X15.657Y4.293I0.050J0.000
N4040G3X15.707Y4.343I0.000J0.050
N4050G3X15.657Y4.393I-0.050J0.000
N4060G1Z-4.565F150.0
N4070G3X15.607Y4.343I0.000J-0.050F500.0
N4080G3X15.657Y4.293I0.050J0.000
N4090G3X15.707Y4.343I0.000J0.050
N4100G3X15.657Y4.393I-0.050J0.000
N4110G1Z-4.760F150.0
N4120G3X15.607Y4.343I0.000J-0.050F500.0
N4130G3X15.657Y4.293I0.050J0.000
N4140G3X15.707Y4.343I0.000J0.050
N4150G3X15.657Y4.393I-0.050J0.000
N4160G1Z-4.956F150.0
N4170G3X15.607Y4.343I0.000J-0.050F500.0
N4180G3X15.657Y4.293I0.050J0.000
N4190G3X15.707Y4.343I0.000J0.050
N4200G3X15.657Y4.393I-0.050J0.000
N4210G1Z-5.152F150.0
N4220G3X15.607Y4.343I0.000J-0.050F500.0
N4230G3X15.657Y4.293I0.050J0.000
N4240G3X15.707Y4.343I0.000J0.050
N4250G3X15.657Y4.393I-0.050J0.000
N4260G1Z-5.347F150.0
N4270G3X15.607Y4.343I0.000J-0.050F500.0
N4280G3X15.657Y4.293I0.050J0.000
N4290G3X15.707Y4.343I0.000J0.050
N4300G3X15.657Y4.393I-0.050J0.000
N4310G1Z-5.543F150.0
N4320G3X15.607Y4.343I0.000J-0.050F500.0
N4330G3X15.657Y4.293I0.050J0.000
N4340G3X15.707Y4.343I0.000J0.050
N4350G3X15.657Y4.393I-0.050J0.000
N4360G1Z-5.739F150.0
N4370G3X15.607Y4.343I0.000J-0.050F500.0
N4380G3X15.657Y4.293I0.050J0.000
N4390G3X15.707Y4.343I0.000J0.050
N4400G3X15.657Y4.393I-0.050J0.000
N4410G1Z-5.934F150.0
N4420G3X15.607Y4.343I0.000J-0.050F500.0
N4430G3X15.657Y4.293I0.050J0.000
N4440G3X15.707Y4.343I0.000J0.050
N4450G3X15.657Y4.393I-0.050J0.000
N4460G1Z-6.130F150.0
N4470G3X15.607Y4.343I0.000J-0.050F500.0
N4480G3X15.657Y4.293I0.050J0.000
N4490G3X15.707Y4.343I0.000J0.050
N4500G3X15.657Y4.393I-0.050J0.000
N4510G1Z-6.326F150.0
N4520G3X15.607Y4.343I0.000J-0.050F500.0
N4530G3X15.657Y4.293I0.050J0.000
N4540G3X15.707Y4.343I0.000J0.050
N4550G3X15.657Y4.393I-0.050J0.000
N4560G1Z-6.521F150.0
N4570G3X15.607Y4.343I0.000J-0.050F500.0
N4580G3X15.657Y4.293I0.050J0.000
N4590G3X15.707Y4.343I0.000J0.050
N4600G3X15.657Y4.393I-0.050J0.000
N4610G1Z-6.717F150.0
N4620G3X15.607Y4.343I0.000J-0.050F500.0
N4630G3X15.657Y4.293I0.050J0.000
N4640G3X15.707Y4.343I0.000J0.050
N4650G3X15.657Y4.393I-0.050J0.000
N4660G1Z-6.913F150.0
N4670G3X15.607Y4.343I0.000J-0.050F500.0
N4680G3X15.657Y4.293I0.050J0.000
N4690G3X15.707Y4.343I0.000J0.050
N4700G3X15.657Y4.393I-0.050J0.000
N4710G1Z-7.108F150.0
N4720G3X15.607Y4.343I0.000J-0.050F500.0
N4730G3X15.657Y4.293I0.050J0.000
N4740G3X15.707Y4.343I0.000J0.050
N4750G3X15.657Y4.393I-0.050J0.000
N4760G1Z-7.304F150.0
N4770G3X15.607Y4.343I0.000J-0.050F500.0
N4780G3X15.657Y4.293I0.050J0.000
N4790G3X15.707Y4.343I0.000J0.050
N4800G3X15.657Y4.393I-0.050J0.000
N4810G1Z-7.500F150.0
N4820G3X15.607Y4.343I0.000J-0.050F500.0
N4830G3X15.657Y4.293I0.050J0.000
N4840G3X15.707Y4.343I0.000J0.050
N4850G3X15.657Y4.393I-0.050J0.000
N4860G00Z6.000
N4870G00Z20.000
N4880G00X0.000Y0.000
N4890M09
N4900M30
%
