( ポケット 2 )
( USBCNC Postprocessor )
N20G00G21G17G90G40G49
N30G80
N40G00G43Z20.000H1
N50S10000M03
N60G94
N70X0.000Y0.000F1010.0
N80G00X2.929Y2.929Z6.000
N90G01Z-0.070F80.0
N100G2X3.000Y3.100I0.071J0.071F1010.0
N110G01X3.106Y3.106
N120X3.100Y3.000
N130G2X2.929Y2.929I-0.100J0.000
N140G00Z6.000
N150G00X5.800Y5.800
N160G01Z-0.070F80.0
N170G01Y6.200F1010.0
N180X16.200
N190Y5.800
N200X5.800
N210G01X5.600Y5.600
N220G01Y6.400
N230X16.400
N240Y5.600
N250X5.600
N260G01X5.400Y5.400
N270G01Y6.600
N280X16.600
N290Y5.400
N300X5.400
N310G01X5.200Y5.200
N320G01Y6.800
N330X16.800
N340Y5.200
N350X5.200
N360G01X5.000Y5.000
N370G01Y7.000
N380X17.000
N390Y5.000
N400X5.000
N410G01X4.800Y4.800
N420G01Y7.200
N430X17.200
N440Y4.800
N450X4.800
N460G01X4.600Y4.600
N470G01Y7.400
N480X17.400
N490Y4.600
N500X4.600
N510G01X4.400Y4.400
N520G01Y7.600
N530X17.600
N540Y4.400
N550X4.400
N560G01X4.200Y4.200
N570G01Y7.800
N580X17.800
N590Y4.200
N600X4.200
N610G01X4.100Y4.000
N620G01X3.994Y3.994
N630Y8.006
N640X18.006
N650Y3.994
N660X4.100Y4.000
N670G00Z6.000
N680G00X3.000Y8.900
N690G01Z-0.070F80.0
N700G2X2.929Y9.071I0.000J0.100F1010.0
N710G2X3.100Y9.000I0.071J-0.071
N720G01X3.106Y8.894
N730X3.000Y8.900
N740G00Z6.000
N750G00X18.894Y8.894
N760G01Z-0.070F80.0
N770G01X18.900Y9.000F1010.0
N780G2X19.071Y9.071I0.100J0.000
N790G2X19.000Y8.900I-0.071J-0.071
N800G01X18.894Y8.894
N810G00Z6.000
N820G00X18.900Y3.000
N830G01Z-0.070F80.0
N840G01X18.894Y3.106F1010.0
N850X19.000Y3.100
N860G2X19.071Y2.929I0.000J-0.100
N870G2X18.900Y3.000I-0.071J0.071
N880G00Z6.000
N890G00X2.929Y2.929
N900G01Z-0.140F80.0
N910G2X3.000Y3.100I0.071J0.071F1010.0
N920G01X3.106Y3.106
N930X3.100Y3.000
N940G2X2.929Y2.929I-0.100J0.000
N950G00Z6.000
N960G00X5.800Y5.800
N970G01Z-0.140F80.0
N980G01Y6.200F1010.0
N990X16.200
N1000Y5.800
N1010X5.800
N1020G01X5.600Y5.600
N1030G01Y6.400
N1040X16.400
N1050Y5.600
N1060X5.600
N1070G01X5.400Y5.400
N1080G01Y6.600
N1090X16.600
N1100Y5.400
N1110X5.400
N1120G01X5.200Y5.200
N1130G01Y6.800
N1140X16.800
N1150Y5.200
N1160X5.200
N1170G01X5.000Y5.000
N1180G01Y7.000
N1190X17.000
N1200Y5.000
N1210X5.000
N1220G01X4.800Y4.800
N1230G01Y7.200
N1240X17.200
N1250Y4.800
N1260X4.800
N1270G01X4.600Y4.600
N1280G01Y7.400
N1290X17.400
N1300Y4.600
N1310X4.600
N1320G01X4.400Y4.400
N1330G01Y7.600
N1340X17.600
N1350Y4.400
N1360X4.400
N1370G01X4.200Y4.200
N1380G01Y7.800
N1390X17.800
N1400Y4.200
N1410X4.200
N1420G01X4.100Y4.000
N1430G01X3.994Y3.994
N1440Y8.006
N1450X18.006
N1460Y3.994
N1470X4.100Y4.000
N1480G00Z6.000
N1490G00X3.000Y8.900
N1500G01Z-0.140F80.0
N1510G2X2.929Y9.071I0.000J0.100F1010.0
N1520G2X3.100Y9.000I0.071J-0.071
N1530G01X3.106Y8.894
N1540X3.000Y8.900
N1550G00Z6.000
N1560G00X18.894Y8.894
N1570G01Z-0.140F80.0
N1580G01X18.900Y9.000F1010.0
N1590G2X19.071Y9.071I0.100J0.000
N1600G2X19.000Y8.900I-0.071J-0.071
N1610G01X18.894Y8.894
N1620G00Z6.000
N1630G00X18.900Y3.000
N1640G01Z-0.140F80.0
N1650G01X18.894Y3.106F1010.0
N1660X19.000Y3.100
N1670G2X19.071Y2.929I0.000J-0.100
N1680G2X18.900Y3.000I-0.071J0.071
N1690G00Z6.000
N1700G00X2.929Y2.929
N1710G01Z-0.209F80.0
N1720G2X3.000Y3.100I0.071J0.071F1010.0
N1730G01X3.106Y3.106
N1740X3.100Y3.000
N1750G2X2.929Y2.929I-0.100J0.000
N1760G00Z6.000
N1770G00X5.800Y5.800
N1780G01Z-0.209F80.0
N1790G01Y6.200F1010.0
N1800X16.200
N1810Y5.800
N1820X5.800
N1830G01X5.600Y5.600
N1840G01Y6.400
N1850X16.400
N1860Y5.600
N1870X5.600
N1880G01X5.400Y5.400
N1890G01Y6.600
N1900X16.600
N1910Y5.400
N1920X5.400
N1930G01X5.200Y5.200
N1940G01Y6.800
N1950X16.800
N1960Y5.200
N1970X5.200
N1980G01X5.000Y5.000
N1990G01Y7.000
N2000X17.000
N2010Y5.000
N2020X5.000
N2030G01X4.800Y4.800
N2040G01Y7.200
N2050X17.200
N2060Y4.800
N2070X4.800
N2080G01X4.600Y4.600
N2090G01Y7.400
N2100X17.400
N2110Y4.600
N2120X4.600
N2130G01X4.400Y4.400
N2140G01Y7.600
N2150X17.600
N2160Y4.400
N2170X4.400
N2180G01X4.200Y4.200
N2190G01Y7.800
N2200X17.800
N2210Y4.200
N2220X4.200
N2230G01X4.100Y4.000
N2240G01X3.994Y3.994
N2250Y8.006
N2260X18.006
N2270Y3.994
N2280X4.100Y4.000
N2290G00Z6.000
N2300G00X3.000Y8.900
N2310G01Z-0.209F80.0
N2320G2X2.929Y9.071I0.000J0.100F1010.0
N2330G2X3.100Y9.000I0.071J-0.071
N2340G01X3.106Y8.894
N2350X3.000Y8.900
N2360G00Z6.000
N2370G00X18.894Y8.894
N2380G01Z-0.209F80.0
N2390G01X18.900Y9.000F1010.0
N2400G2X19.071Y9.071I0.100J0.000
N2410G2X19.000Y8.900I-0.071J-0.071
N2420G01X18.894Y8.894
N2430G00Z6.000
N2440G00X18.900Y3.000
N2450G01Z-0.209F80.0
N2460G01X18.894Y3.106F1010.0
N2470X19.000Y3.100
N2480G2X19.071Y2.929I0.000J-0.100
N2490G2X18.900Y3.000I-0.071J0.071
N2500G00Z6.000
N2510G00X2.929Y2.929
N2520G01Z-0.279F80.0
N2530G2X3.000Y3.100I0.071J0.071F1010.0
N2540G01X3.106Y3.106
N2550X3.100Y3.000
N2560G2X2.929Y2.929I-0.100J0.000
N2570G00Z6.000
N2580G00X5.800Y5.800
N2590G01Z-0.279F80.0
N2600G01Y6.200F1010.0
N2610X16.200
N2620Y5.800
N2630X5.800
N2640G01X5.600Y5.600
N2650G01Y6.400
N2660X16.400
N2670Y5.600
N2680X5.600
N2690G01X5.400Y5.400
N2700G01Y6.600
N2710X16.600
N2720Y5.400
N2730X5.400
N2740G01X5.200Y5.200
N2750G01Y6.800
N2760X16.800
N2770Y5.200
N2780X5.200
N2790G01X5.000Y5.000
N2800G01Y7.000
N2810X17.000
N2820Y5.000
N2830X5.000
N2840G01X4.800Y4.800
N2850G01Y7.200
N2860X17.200
N2870Y4.800
N2880X4.800
N2890G01X4.600Y4.600
N2900G01Y7.400
N2910X17.400
N2920Y4.600
N2930X4.600
N2940G01X4.400Y4.400
N2950G01Y7.600
N2960X17.600
N2970Y4.400
N2980X4.400
N2990G01X4.200Y4.200
N3000G01Y7.800
N3010X17.800
N3020Y4.200
N3030X4.200
N3040G01X4.100Y4.000
N3050G01X3.994Y3.994
N3060Y8.006
N3070X18.006
N3080Y3.994
N3090X4.100Y4.000
N3100G00Z6.000
N3110G00X3.000Y8.900
N3120G01Z-0.279F80.0
N3130G2X2.929Y9.071I0.000J0.100F1010.0
N3140G2X3.100Y9.000I0.071J-0.071
N3150G01X3.106Y8.894
N3160X3.000Y8.900
N3170G00Z6.000
N3180G00X18.894Y8.894
N3190G01Z-0.279F80.0
N3200G01X18.900Y9.000F1010.0
N3210G2X19.071Y9.071I0.100J0.000
N3220G2X19.000Y8.900I-0.071J-0.071
N3230G01X18.894Y8.894
N3240G00Z6.000
N3250G00X18.900Y3.000
N3260G01Z-0.279F80.0
N3270G01X18.894Y3.106F1010.0
N3280X19.000Y3.100
N3290G2X19.071Y2.929I0.000J-0.100
N3300G2X18.900Y3.000I-0.071J0.071
N3310G00Z6.000
N3320G00X2.929Y2.929
N3330G01Z-0.349F80.0
N3340G2X3.000Y3.100I0.071J0.071F1010.0
N3350G01X3.106Y3.106
N3360X3.100Y3.000
N3370G2X2.929Y2.929I-0.100J0.000
N3380G00Z6.000
N3390G00X5.800Y5.800
N3400G01Z-0.349F80.0
N3410G01Y6.200F1010.0
N3420X16.200
N3430Y5.800
N3440X5.800
N3450G01X5.600Y5.600
N3460G01Y6.400
N3470X16.400
N3480Y5.600
N3490X5.600
N3500G01X5.400Y5.400
N3510G01Y6.600
N3520X16.600
N3530Y5.400
N3540X5.400
N3550G01X5.200Y5.200
N3560G01Y6.800
N3570X16.800
N3580Y5.200
N3590X5.200
N3600G01X5.000Y5.000
N3610G01Y7.000
N3620X17.000
N3630Y5.000
N3640X5.000
N3650G01X4.800Y4.800
N3660G01Y7.200
N3670X17.200
N3680Y4.800
N3690X4.800
N3700G01X4.600Y4.600
N3710G01Y7.400
N3720X17.400
N3730Y4.600
N3740X4.600
N3750G01X4.400Y4.400
N3760G01Y7.600
N3770X17.600
N3780Y4.400
N3790X4.400
N3800G01X4.200Y4.200
N3810G01Y7.800
N3820X17.800
N3830Y4.200
N3840X4.200
N3850G01X4.100Y4.000
N3860G01X3.994Y3.994
N3870Y8.006
N3880X18.006
N3890Y3.994
N3900X4.100Y4.000
N3910G00Z6.000
N3920G00X3.000Y8.900
N3930G01Z-0.349F80.0
N3940G2X2.929Y9.071I0.000J0.100F1010.0
N3950G2X3.100Y9.000I0.071J-0.071
N3960G01X3.106Y8.894
N3970X3.000Y8.900
N3980G00Z6.000
N3990G00X18.894Y8.894
N4000G01Z-0.349F80.0
N4010G01X18.900Y9.000F1010.0
N4020G2X19.071Y9.071I0.100J0.000
N4030G2X19.000Y8.900I-0.071J-0.071
N4040G01X18.894Y8.894
N4050G00Z6.000
N4060G00X18.900Y3.000
N4070G01Z-0.349F80.0
N4080G01X18.894Y3.106F1010.0
N4090X19.000Y3.100
N4100G2X19.071Y2.929I0.000J-0.100
N4110G2X18.900Y3.000I-0.071J0.071
N4120G00Z6.000
N4130G00X2.929Y2.929
N4140G01Z-0.419F80.0
N4150G2X3.000Y3.100I0.071J0.071F1010.0
N4160G01X3.106Y3.106
N4170X3.100Y3.000
N4180G2X2.929Y2.929I-0.100J0.000
N4190G00Z6.000
N4200G00X5.800Y5.800
N4210G01Z-0.419F80.0
N4220G01Y6.200F1010.0
N4230X16.200
N4240Y5.800
N4250X5.800
N4260G01X5.600Y5.600
N4270G01Y6.400
N4280X16.400
N4290Y5.600
N4300X5.600
N4310G01X5.400Y5.400
N4320G01Y6.600
N4330X16.600
N4340Y5.400
N4350X5.400
N4360G01X5.200Y5.200
N4370G01Y6.800
N4380X16.800
N4390Y5.200
N4400X5.200
N4410G01X5.000Y5.000
N4420G01Y7.000
N4430X17.000
N4440Y5.000
N4450X5.000
N4460G01X4.800Y4.800
N4470G01Y7.200
N4480X17.200
N4490Y4.800
N4500X4.800
N4510G01X4.600Y4.600
N4520G01Y7.400
N4530X17.400
N4540Y4.600
N4550X4.600
N4560G01X4.400Y4.400
N4570G01Y7.600
N4580X17.600
N4590Y4.400
N4600X4.400
N4610G01X4.200Y4.200
N4620G01Y7.800
N4630X17.800
N4640Y4.200
N4650X4.200
N4660G01X4.100Y4.000
N4670G01X3.994Y3.994
N4680Y8.006
N4690X18.006
N4700Y3.994
N4710X4.100Y4.000
N4720G00Z6.000
N4730G00X3.000Y8.900
N4740G01Z-0.419F80.0
N4750G2X2.929Y9.071I0.000J0.100F1010.0
N4760G2X3.100Y9.000I0.071J-0.071
N4770G01X3.106Y8.894
N4780X3.000Y8.900
N4790G00Z6.000
N4800G00X18.894Y8.894
N4810G01Z-0.419F80.0
N4820G01X18.900Y9.000F1010.0
N4830G2X19.071Y9.071I0.100J0.000
N4840G2X19.000Y8.900I-0.071J-0.071
N4850G01X18.894Y8.894
N4860G00Z6.000
N4870G00X18.900Y3.000
N4880G01Z-0.419F80.0
N4890G01X18.894Y3.106F1010.0
N4900X19.000Y3.100
N4910G2X19.071Y2.929I0.000J-0.100
N4920G2X18.900Y3.000I-0.071J0.071
N4930G00Z6.000
N4940G00X2.929Y2.929
N4950G01Z-0.488F80.0
N4960G2X3.000Y3.100I0.071J0.071F1010.0
N4970G01X3.106Y3.106
N4980X3.100Y3.000
N4990G2X2.929Y2.929I-0.100J0.000
N5000G00Z6.000
N5010G00X5.800Y5.800
N5020G01Z-0.488F80.0
N5030G01Y6.200F1010.0
N5040X16.200
N5050Y5.800
N5060X5.800
N5070G01X5.600Y5.600
N5080G01Y6.400
N5090X16.400
N5100Y5.600
N5110X5.600
N5120G01X5.400Y5.400
N5130G01Y6.600
N5140X16.600
N5150Y5.400
N5160X5.400
N5170G01X5.200Y5.200
N5180G01Y6.800
N5190X16.800
N5200Y5.200
N5210X5.200
N5220G01X5.000Y5.000
N5230G01Y7.000
N5240X17.000
N5250Y5.000
N5260X5.000
N5270G01X4.800Y4.800
N5280G01Y7.200
N5290X17.200
N5300Y4.800
N5310X4.800
N5320G01X4.600Y4.600
N5330G01Y7.400
N5340X17.400
N5350Y4.600
N5360X4.600
N5370G01X4.400Y4.400
N5380G01Y7.600
N5390X17.600
N5400Y4.400
N5410X4.400
N5420G01X4.200Y4.200
N5430G01Y7.800
N5440X17.800
N5450Y4.200
N5460X4.200
N5470G01X4.100Y4.000
N5480G01X3.994Y3.994
N5490Y8.006
N5500X18.006
N5510Y3.994
N5520X4.100Y4.000
N5530G00Z6.000
N5540G00X3.000Y8.900
N5550G01Z-0.488F80.0
N5560G2X2.929Y9.071I0.000J0.100F1010.0
N5570G2X3.100Y9.000I0.071J-0.071
N5580G01X3.106Y8.894
N5590X3.000Y8.900
N5600G00Z6.000
N5610G00X18.894Y8.894
N5620G01Z-0.488F80.0
N5630G01X18.900Y9.000F1010.0
N5640G2X19.071Y9.071I0.100J0.000
N5650G2X19.000Y8.900I-0.071J-0.071
N5660G01X18.894Y8.894
N5670G00Z6.000
N5680G00X18.900Y3.000
N5690G01Z-0.488F80.0
N5700G01X18.894Y3.106F1010.0
N5710X19.000Y3.100
N5720G2X19.071Y2.929I0.000J-0.100
N5730G2X18.900Y3.000I-0.071J0.071
N5740G00Z6.000
N5750G00X2.929Y2.929
N5760G01Z-0.558F80.0
N5770G2X3.000Y3.100I0.071J0.071F1010.0
N5780G01X3.106Y3.106
N5790X3.100Y3.000
N5800G2X2.929Y2.929I-0.100J0.000
N5810G00Z6.000
N5820G00X5.800Y5.800
N5830G01Z-0.558F80.0
N5840G01Y6.200F1010.0
N5850X16.200
N5860Y5.800
N5870X5.800
N5880G01X5.600Y5.600
N5890G01Y6.400
N5900X16.400
N5910Y5.600
N5920X5.600
N5930G01X5.400Y5.400
N5940G01Y6.600
N5950X16.600
N5960Y5.400
N5970X5.400
N5980G01X5.200Y5.200
N5990G01Y6.800
N6000X16.800
N6010Y5.200
N6020X5.200
N6030G01X5.000Y5.000
N6040G01Y7.000
N6050X17.000
N6060Y5.000
N6070X5.000
N6080G01X4.800Y4.800
N6090G01Y7.200
N6100X17.200
N6110Y4.800
N6120X4.800
N6130G01X4.600Y4.600
N6140G01Y7.400
N6150X17.400
N6160Y4.600
N6170X4.600
N6180G01X4.400Y4.400
N6190G01Y7.600
N6200X17.600
N6210Y4.400
N6220X4.400
N6230G01X4.200Y4.200
N6240G01Y7.800
N6250X17.800
N6260Y4.200
N6270X4.200
N6280G01X4.100Y4.000
N6290G01X3.994Y3.994
N6300Y8.006
N6310X18.006
N6320Y3.994
N6330X4.100Y4.000
N6340G00Z6.000
N6350G00X3.000Y8.900
N6360G01Z-0.558F80.0
N6370G2X2.929Y9.071I0.000J0.100F1010.0
N6380G2X3.100Y9.000I0.071J-0.071
N6390G01X3.106Y8.894
N6400X3.000Y8.900
N6410G00Z6.000
N6420G00X18.894Y8.894
N6430G01Z-0.558F80.0
N6440G01X18.900Y9.000F1010.0
N6450G2X19.071Y9.071I0.100J0.000
N6460G2X19.000Y8.900I-0.071J-0.071
N6470G01X18.894Y8.894
N6480G00Z6.000
N6490G00X18.900Y3.000
N6500G01Z-0.558F80.0
N6510G01X18.894Y3.106F1010.0
N6520X19.000Y3.100
N6530G2X19.071Y2.929I0.000J-0.100
N6540G2X18.900Y3.000I-0.071J0.071
N6550G00Z6.000
N6560G00X2.929Y2.929
N6570G01Z-0.628F80.0
N6580G2X3.000Y3.100I0.071J0.071F1010.0
N6590G01X3.106Y3.106
N6600X3.100Y3.000
N6610G2X2.929Y2.929I-0.100J0.000
N6620G00Z6.000
N6630G00X5.800Y5.800
N6640G01Z-0.628F80.0
N6650G01Y6.200F1010.0
N6660X16.200
N6670Y5.800
N6680X5.800
N6690G01X5.600Y5.600
N6700G01Y6.400
N6710X16.400
N6720Y5.600
N6730X5.600
N6740G01X5.400Y5.400
N6750G01Y6.600
N6760X16.600
N6770Y5.400
N6780X5.400
N6790G01X5.200Y5.200
N6800G01Y6.800
N6810X16.800
N6820Y5.200
N6830X5.200
N6840G01X5.000Y5.000
N6850G01Y7.000
N6860X17.000
N6870Y5.000
N6880X5.000
N6890G01X4.800Y4.800
N6900G01Y7.200
N6910X17.200
N6920Y4.800
N6930X4.800
N6940G01X4.600Y4.600
N6950G01Y7.400
N6960X17.400
N6970Y4.600
N6980X4.600
N6990G01X4.400Y4.400
N7000G01Y7.600
N7010X17.600
N7020Y4.400
N7030X4.400
N7040G01X4.200Y4.200
N7050G01Y7.800
N7060X17.800
N7070Y4.200
N7080X4.200
N7090G01X4.100Y4.000
N7100G01X3.994Y3.994
N7110Y8.006
N7120X18.006
N7130Y3.994
N7140X4.100Y4.000
N7150G00Z6.000
N7160G00X3.000Y8.900
N7170G01Z-0.628F80.0
N7180G2X2.929Y9.071I0.000J0.100F1010.0
N7190G2X3.100Y9.000I0.071J-0.071
N7200G01X3.106Y8.894
N7210X3.000Y8.900
N7220G00Z6.000
N7230G00X18.894Y8.894
N7240G01Z-0.628F80.0
N7250G01X18.900Y9.000F1010.0
N7260G2X19.071Y9.071I0.100J0.000
N7270G2X19.000Y8.900I-0.071J-0.071
N7280G01X18.894Y8.894
N7290G00Z6.000
N7300G00X18.900Y3.000
N7310G01Z-0.628F80.0
N7320G01X18.894Y3.106F1010.0
N7330X19.000Y3.100
N7340G2X19.071Y2.929I0.000J-0.100
N7350G2X18.900Y3.000I-0.071J0.071
N7360G00Z6.000
N7370G00X2.929Y2.929
N7380G01Z-0.698F80.0
N7390G2X3.000Y3.100I0.071J0.071F1010.0
N7400G01X3.106Y3.106
N7410X3.100Y3.000
N7420G2X2.929Y2.929I-0.100J0.000
N7430G00Z6.000
N7440G00X5.800Y5.800
N7450G01Z-0.698F80.0
N7460G01Y6.200F1010.0
N7470X16.200
N7480Y5.800
N7490X5.800
N7500G01X5.600Y5.600
N7510G01Y6.400
N7520X16.400
N7530Y5.600
N7540X5.600
N7550G01X5.400Y5.400
N7560G01Y6.600
N7570X16.600
N7580Y5.400
N7590X5.400
N7600G01X5.200Y5.200
N7610G01Y6.800
N7620X16.800
N7630Y5.200
N7640X5.200
N7650G01X5.000Y5.000
N7660G01Y7.000
N7670X17.000
N7680Y5.000
N7690X5.000
N7700G01X4.800Y4.800
N7710G01Y7.200
N7720X17.200
N7730Y4.800
N7740X4.800
N7750G01X4.600Y4.600
N7760G01Y7.400
N7770X17.400
N7780Y4.600
N7790X4.600
N7800G01X4.400Y4.400
N7810G01Y7.600
N7820X17.600
N7830Y4.400
N7840X4.400
N7850G01X4.200Y4.200
N7860G01Y7.800
N7870X17.800
N7880Y4.200
N7890X4.200
N7900G01X4.100Y4.000
N7910G01X3.994Y3.994
N7920Y8.006
N7930X18.006
N7940Y3.994
N7950X4.100Y4.000
N7960G00Z6.000
N7970G00X3.000Y8.900
N7980G01Z-0.698F80.0
N7990G2X2.929Y9.071I0.000J0.100F1010.0
N8000G2X3.100Y9.000I0.071J-0.071
N8010G01X3.106Y8.894
N8020X3.000Y8.900
N8030G00Z6.000
N8040G00X18.894Y8.894
N8050G01Z-0.698F80.0
N8060G01X18.900Y9.000F1010.0
N8070G2X19.071Y9.071I0.100J0.000
N8080G2X19.000Y8.900I-0.071J-0.071
N8090G01X18.894Y8.894
N8100G00Z6.000
N8110G00X18.900Y3.000
N8120G01Z-0.698F80.0
N8130G01X18.894Y3.106F1010.0
N8140X19.000Y3.100
N8150G2X19.071Y2.929I0.000J-0.100
N8160G2X18.900Y3.000I-0.071J0.071
N8170G00Z6.000
N8180G00X2.929Y2.929
N8190G01Z-0.767F80.0
N8200G2X3.000Y3.100I0.071J0.071F1010.0
N8210G01X3.106Y3.106
N8220X3.100Y3.000
N8230G2X2.929Y2.929I-0.100J0.000
N8240G00Z6.000
N8250G00X5.800Y5.800
N8260G01Z-0.767F80.0
N8270G01Y6.200F1010.0
N8280X16.200
N8290Y5.800
N8300X5.800
N8310G01X5.600Y5.600
N8320G01Y6.400
N8330X16.400
N8340Y5.600
N8350X5.600
N8360G01X5.400Y5.400
N8370G01Y6.600
N8380X16.600
N8390Y5.400
N8400X5.400
N8410G01X5.200Y5.200
N8420G01Y6.800
N8430X16.800
N8440Y5.200
N8450X5.200
N8460G01X5.000Y5.000
N8470G01Y7.000
N8480X17.000
N8490Y5.000
N8500X5.000
N8510G01X4.800Y4.800
N8520G01Y7.200
N8530X17.200
N8540Y4.800
N8550X4.800
N8560G01X4.600Y4.600
N8570G01Y7.400
N8580X17.400
N8590Y4.600
N8600X4.600
N8610G01X4.400Y4.400
N8620G01Y7.600
N8630X17.600
N8640Y4.400
N8650X4.400
N8660G01X4.200Y4.200
N8670G01Y7.800
N8680X17.800
N8690Y4.200
N8700X4.200
N8710G01X4.100Y4.000
N8720G01X3.994Y3.994
N8730Y8.006
N8740X18.006
N8750Y3.994
N8760X4.100Y4.000
N8770G00Z6.000
N8780G00X3.000Y8.900
N8790G01Z-0.767F80.0
N8800G2X2.929Y9.071I0.000J0.100F1010.0
N8810G2X3.100Y9.000I0.071J-0.071
N8820G01X3.106Y8.894
N8830X3.000Y8.900
N8840G00Z6.000
N8850G00X18.894Y8.894
N8860G01Z-0.767F80.0
N8870G01X18.900Y9.000F1010.0
N8880G2X19.071Y9.071I0.100J0.000
N8890G2X19.000Y8.900I-0.071J-0.071
N8900G01X18.894Y8.894
N8910G00Z6.000
N8920G00X18.900Y3.000
N8930G01Z-0.767F80.0
N8940G01X18.894Y3.106F1010.0
N8950X19.000Y3.100
N8960G2X19.071Y2.929I0.000J-0.100
N8970G2X18.900Y3.000I-0.071J0.071
N8980G00Z6.000
N8990G00X2.929Y2.929
N9000G01Z-0.837F80.0
N9010G2X3.000Y3.100I0.071J0.071F1010.0
N9020G01X3.106Y3.106
N9030X3.100Y3.000
N9040G2X2.929Y2.929I-0.100J0.000
N9050G00Z6.000
N9060G00X5.800Y5.800
N9070G01Z-0.837F80.0
N9080G01Y6.200F1010.0
N9090X16.200
N9100Y5.800
N9110X5.800
N9120G01X5.600Y5.600
N9130G01Y6.400
N9140X16.400
N9150Y5.600
N9160X5.600
N9170G01X5.400Y5.400
N9180G01Y6.600
N9190X16.600
N9200Y5.400
N9210X5.400
N9220G01X5.200Y5.200
N9230G01Y6.800
N9240X16.800
N9250Y5.200
N9260X5.200
N9270G01X5.000Y5.000
N9280G01Y7.000
N9290X17.000
N9300Y5.000
N9310X5.000
N9320G01X4.800Y4.800
N9330G01Y7.200
N9340X17.200
N9350Y4.800
N9360X4.800
N9370G01X4.600Y4.600
N9380G01Y7.400
N9390X17.400
N9400Y4.600
N9410X4.600
N9420G01X4.400Y4.400
N9430G01Y7.600
N9440X17.600
N9450Y4.400
N9460X4.400
N9470G01X4.200Y4.200
N9480G01Y7.800
N9490X17.800
N9500Y4.200
N9510X4.200
N9520G01X4.100Y4.000
N9530G01X3.994Y3.994
N9540Y8.006
N9550X18.006
N9560Y3.994
N9570X4.100Y4.000
N9580G00Z6.000
N9590G00X3.000Y8.900
N9600G01Z-0.837F80.0
N9610G2X2.929Y9.071I0.000J0.100F1010.0
N9620G2X3.100Y9.000I0.071J-0.071
N9630G01X3.106Y8.894
N9640X3.000Y8.900
N9650G00Z6.000
N9660G00X18.894Y8.894
N9670G01Z-0.837F80.0
N9680G01X18.900Y9.000F1010.0
N9690G2X19.071Y9.071I0.100J0.000
N9700G2X19.000Y8.900I-0.071J-0.071
N9710G01X18.894Y8.894
N9720G00Z6.000
N9730G00X18.900Y3.000
N9740G01Z-0.837F80.0
N9750G01X18.894Y3.106F1010.0
N9760X19.000Y3.100
N9770G2X19.071Y2.929I0.000J-0.100
N9780G2X18.900Y3.000I-0.071J0.071
N9790G00Z6.000
N9800G00X2.929Y2.929
N9810G01Z-0.907F80.0
N9820G2X3.000Y3.100I0.071J0.071F1010.0
N9830G01X3.106Y3.106
N9840X3.100Y3.000
N9850G2X2.929Y2.929I-0.100J0.000
N9860G00Z6.000
N9870G00X5.800Y5.800
N9880G01Z-0.907F80.0
N9890G01Y6.200F1010.0
N9900X16.200
N9910Y5.800
N9920X5.800
N9930G01X5.600Y5.600
N9940G01Y6.400
N9950X16.400
N9960Y5.600
N9970X5.600
N9980G01X5.400Y5.400
N9990G01Y6.600
N10000X16.600
N10010Y5.400
N10020X5.400
N10030G01X5.200Y5.200
N10040G01Y6.800
N10050X16.800
N10060Y5.200
N10070X5.200
N10080G01X5.000Y5.000
N10090G01Y7.000
N10100X17.000
N10110Y5.000
N10120X5.000
N10130G01X4.800Y4.800
N10140G01Y7.200
N10150X17.200
N10160Y4.800
N10170X4.800
N10180G01X4.600Y4.600
N10190G01Y7.400
N10200X17.400
N10210Y4.600
N10220X4.600
N10230G01X4.400Y4.400
N10240G01Y7.600
N10250X17.600
N10260Y4.400
N10270X4.400
N10280G01X4.200Y4.200
N10290G01Y7.800
N10300X17.800
N10310Y4.200
N10320X4.200
N10330G01X4.100Y4.000
N10340G01X3.994Y3.994
N10350Y8.006
N10360X18.006
N10370Y3.994
N10380X4.100Y4.000
N10390G00Z6.000
N10400G00X3.000Y8.900
N10410G01Z-0.907F80.0
N10420G2X2.929Y9.071I0.000J0.100F1010.0
N10430G2X3.100Y9.000I0.071J-0.071
N10440G01X3.106Y8.894
N10450X3.000Y8.900
N10460G00Z6.000
N10470G00X18.894Y8.894
N10480G01Z-0.907F80.0
N10490G01X18.900Y9.000F1010.0
N10500G2X19.071Y9.071I0.100J0.000
N10510G2X19.000Y8.900I-0.071J-0.071
N10520G01X18.894Y8.894
N10530G00Z6.000
N10540G00X18.900Y3.000
N10550G01Z-0.907F80.0
N10560G01X18.894Y3.106F1010.0
N10570X19.000Y3.100
N10580G2X19.071Y2.929I0.000J-0.100
N10590G2X18.900Y3.000I-0.071J0.071
N10600G00Z6.000
N10610G00X2.929Y2.929
N10620G01Z-0.977F80.0
N10630G2X3.000Y3.100I0.071J0.071F1010.0
N10640G01X3.106Y3.106
N10650X3.100Y3.000
N10660G2X2.929Y2.929I-0.100J0.000
N10670G00Z6.000
N10680G00X5.800Y5.800
N10690G01Z-0.977F80.0
N10700G01Y6.200F1010.0
N10710X16.200
N10720Y5.800
N10730X5.800
N10740G01X5.600Y5.600
N10750G01Y6.400
N10760X16.400
N10770Y5.600
N10780X5.600
N10790G01X5.400Y5.400
N10800G01Y6.600
N10810X16.600
N10820Y5.400
N10830X5.400
N10840G01X5.200Y5.200
N10850G01Y6.800
N10860X16.800
N10870Y5.200
N10880X5.200
N10890G01X5.000Y5.000
N10900G01Y7.000
N10910X17.000
N10920Y5.000
N10930X5.000
N10940G01X4.800Y4.800
N10950G01Y7.200
N10960X17.200
N10970Y4.800
N10980X4.800
N10990G01X4.600Y4.600
N11000G01Y7.400
N11010X17.400
N11020Y4.600
N11030X4.600
N11040G01X4.400Y4.400
N11050G01Y7.600
N11060X17.600
N11070Y4.400
N11080X4.400
N11090G01X4.200Y4.200
N11100G01Y7.800
N11110X17.800
N11120Y4.200
N11130X4.200
N11140G01X4.100Y4.000
N11150G01X3.994Y3.994
N11160Y8.006
N11170X18.006
N11180Y3.994
N11190X4.100Y4.000
N11200G00Z6.000
N11210G00X3.000Y8.900
N11220G01Z-0.977F80.0
N11230G2X2.929Y9.071I0.000J0.100F1010.0
N11240G2X3.100Y9.000I0.071J-0.071
N11250G01X3.106Y8.894
N11260X3.000Y8.900
N11270G00Z6.000
N11280G00X18.894Y8.894
N11290G01Z-0.977F80.0
N11300G01X18.900Y9.000F1010.0
N11310G2X19.071Y9.071I0.100J0.000
N11320G2X19.000Y8.900I-0.071J-0.071
N11330G01X18.894Y8.894
N11340G00Z6.000
N11350G00X18.900Y3.000
N11360G01Z-0.977F80.0
N11370G01X18.894Y3.106F1010.0
N11380X19.000Y3.100
N11390G2X19.071Y2.929I0.000J-0.100
N11400G2X18.900Y3.000I-0.071J0.071
N11410G00Z6.000
N11420G00X2.929Y2.929
N11430G01Z-1.047F80.0
N11440G2X3.000Y3.100I0.071J0.071F1010.0
N11450G01X3.106Y3.106
N11460X3.100Y3.000
N11470G2X2.929Y2.929I-0.100J0.000
N11480G00Z6.000
N11490G00X5.800Y5.800
N11500G01Z-1.047F80.0
N11510G01Y6.200F1010.0
N11520X16.200
N11530Y5.800
N11540X5.800
N11550G01X5.600Y5.600
N11560G01Y6.400
N11570X16.400
N11580Y5.600
N11590X5.600
N11600G01X5.400Y5.400
N11610G01Y6.600
N11620X16.600
N11630Y5.400
N11640X5.400
N11650G01X5.200Y5.200
N11660G01Y6.800
N11670X16.800
N11680Y5.200
N11690X5.200
N11700G01X5.000Y5.000
N11710G01Y7.000
N11720X17.000
N11730Y5.000
N11740X5.000
N11750G01X4.800Y4.800
N11760G01Y7.200
N11770X17.200
N11780Y4.800
N11790X4.800
N11800G01X4.600Y4.600
N11810G01Y7.400
N11820X17.400
N11830Y4.600
N11840X4.600
N11850G01X4.400Y4.400
N11860G01Y7.600
N11870X17.600
N11880Y4.400
N11890X4.400
N11900G01X4.200Y4.200
N11910G01Y7.800
N11920X17.800
N11930Y4.200
N11940X4.200
N11950G01X4.100Y4.000
N11960G01X3.994Y3.994
N11970Y8.006
N11980X18.006
N11990Y3.994
N12000X4.100Y4.000
N12010G00Z6.000
N12020G00X3.000Y8.900
N12030G01Z-1.047F80.0
N12040G2X2.929Y9.071I0.000J0.100F1010.0
N12050G2X3.100Y9.000I0.071J-0.071
N12060G01X3.106Y8.894
N12070X3.000Y8.900
N12080G00Z6.000
N12090G00X18.894Y8.894
N12100G01Z-1.047F80.0
N12110G01X18.900Y9.000F1010.0
N12120G2X19.071Y9.071I0.100J0.000
N12130G2X19.000Y8.900I-0.071J-0.071
N12140G01X18.894Y8.894
N12150G00Z6.000
N12160G00X18.900Y3.000
N12170G01Z-1.047F80.0
N12180G01X18.894Y3.106F1010.0
N12190X19.000Y3.100
N12200G2X19.071Y2.929I0.000J-0.100
N12210G2X18.900Y3.000I-0.071J0.071
N12220G00Z6.000
N12230G00X2.929Y2.929
N12240G01Z-1.116F80.0
N12250G2X3.000Y3.100I0.071J0.071F1010.0
N12260G01X3.106Y3.106
N12270X3.100Y3.000
N12280G2X2.929Y2.929I-0.100J0.000
N12290G00Z6.000
N12300G00X5.800Y5.800
N12310G01Z-1.116F80.0
N12320G01Y6.200F1010.0
N12330X16.200
N12340Y5.800
N12350X5.800
N12360G01X5.600Y5.600
N12370G01Y6.400
N12380X16.400
N12390Y5.600
N12400X5.600
N12410G01X5.400Y5.400
N12420G01Y6.600
N12430X16.600
N12440Y5.400
N12450X5.400
N12460G01X5.200Y5.200
N12470G01Y6.800
N12480X16.800
N12490Y5.200
N12500X5.200
N12510G01X5.000Y5.000
N12520G01Y7.000
N12530X17.000
N12540Y5.000
N12550X5.000
N12560G01X4.800Y4.800
N12570G01Y7.200
N12580X17.200
N12590Y4.800
N12600X4.800
N12610G01X4.600Y4.600
N12620G01Y7.400
N12630X17.400
N12640Y4.600
N12650X4.600
N12660G01X4.400Y4.400
N12670G01Y7.600
N12680X17.600
N12690Y4.400
N12700X4.400
N12710G01X4.200Y4.200
N12720G01Y7.800
N12730X17.800
N12740Y4.200
N12750X4.200
N12760G01X4.100Y4.000
N12770G01X3.994Y3.994
N12780Y8.006
N12790X18.006
N12800Y3.994
N12810X4.100Y4.000
N12820G00Z6.000
N12830G00X3.000Y8.900
N12840G01Z-1.116F80.0
N12850G2X2.929Y9.071I0.000J0.100F1010.0
N12860G2X3.100Y9.000I0.071J-0.071
N12870G01X3.106Y8.894
N12880X3.000Y8.900
N12890G00Z6.000
N12900G00X18.894Y8.894
N12910G01Z-1.116F80.0
N12920G01X18.900Y9.000F1010.0
N12930G2X19.071Y9.071I0.100J0.000
N12940G2X19.000Y8.900I-0.071J-0.071
N12950G01X18.894Y8.894
N12960G00Z6.000
N12970G00X18.900Y3.000
N12980G01Z-1.116F80.0
N12990G01X18.894Y3.106F1010.0
N13000X19.000Y3.100
N13010G2X19.071Y2.929I0.000J-0.100
N13020G2X18.900Y3.000I-0.071J0.071
N13030G00Z6.000
N13040G00X2.929Y2.929
N13050G01Z-1.186F80.0
N13060G2X3.000Y3.100I0.071J0.071F1010.0
N13070G01X3.106Y3.106
N13080X3.100Y3.000
N13090G2X2.929Y2.929I-0.100J0.000
N13100G00Z6.000
N13110G00X5.800Y5.800
N13120G01Z-1.186F80.0
N13130G01Y6.200F1010.0
N13140X16.200
N13150Y5.800
N13160X5.800
N13170G01X5.600Y5.600
N13180G01Y6.400
N13190X16.400
N13200Y5.600
N13210X5.600
N13220G01X5.400Y5.400
N13230G01Y6.600
N13240X16.600
N13250Y5.400
N13260X5.400
N13270G01X5.200Y5.200
N13280G01Y6.800
N13290X16.800
N13300Y5.200
N13310X5.200
N13320G01X5.000Y5.000
N13330G01Y7.000
N13340X17.000
N13350Y5.000
N13360X5.000
N13370G01X4.800Y4.800
N13380G01Y7.200
N13390X17.200
N13400Y4.800
N13410X4.800
N13420G01X4.600Y4.600
N13430G01Y7.400
N13440X17.400
N13450Y4.600
N13460X4.600
N13470G01X4.400Y4.400
N13480G01Y7.600
N13490X17.600
N13500Y4.400
N13510X4.400
N13520G01X4.200Y4.200
N13530G01Y7.800
N13540X17.800
N13550Y4.200
N13560X4.200
N13570G01X4.100Y4.000
N13580G01X3.994Y3.994
N13590Y8.006
N13600X18.006
N13610Y3.994
N13620X4.100Y4.000
N13630G00Z6.000
N13640G00X3.000Y8.900
N13650G01Z-1.186F80.0
N13660G2X2.929Y9.071I0.000J0.100F1010.0
N13670G2X3.100Y9.000I0.071J-0.071
N13680G01X3.106Y8.894
N13690X3.000Y8.900
N13700G00Z6.000
N13710G00X18.894Y8.894
N13720G01Z-1.186F80.0
N13730G01X18.900Y9.000F1010.0
N13740G2X19.071Y9.071I0.100J0.000
N13750G2X19.000Y8.900I-0.071J-0.071
N13760G01X18.894Y8.894
N13770G00Z6.000
N13780G00X18.900Y3.000
N13790G01Z-1.186F80.0
N13800G01X18.894Y3.106F1010.0
N13810X19.000Y3.100
N13820G2X19.071Y2.929I0.000J-0.100
N13830G2X18.900Y3.000I-0.071J0.071
N13840G00Z6.000
N13850G00X2.929Y2.929
N13860G01Z-1.256F80.0
N13870G2X3.000Y3.100I0.071J0.071F1010.0
N13880G01X3.106Y3.106
N13890X3.100Y3.000
N13900G2X2.929Y2.929I-0.100J0.000
N13910G00Z6.000
N13920G00X5.800Y5.800
N13930G01Z-1.256F80.0
N13940G01Y6.200F1010.0
N13950X16.200
N13960Y5.800
N13970X5.800
N13980G01X5.600Y5.600
N13990G01Y6.400
N14000X16.400
N14010Y5.600
N14020X5.600
N14030G01X5.400Y5.400
N14040G01Y6.600
N14050X16.600
N14060Y5.400
N14070X5.400
N14080G01X5.200Y5.200
N14090G01Y6.800
N14100X16.800
N14110Y5.200
N14120X5.200
N14130G01X5.000Y5.000
N14140G01Y7.000
N14150X17.000
N14160Y5.000
N14170X5.000
N14180G01X4.800Y4.800
N14190G01Y7.200
N14200X17.200
N14210Y4.800
N14220X4.800
N14230G01X4.600Y4.600
N14240G01Y7.400
N14250X17.400
N14260Y4.600
N14270X4.600
N14280G01X4.400Y4.400
N14290G01Y7.600
N14300X17.600
N14310Y4.400
N14320X4.400
N14330G01X4.200Y4.200
N14340G01Y7.800
N14350X17.800
N14360Y4.200
N14370X4.200
N14380G01X4.100Y4.000
N14390G01X3.994Y3.994
N14400Y8.006
N14410X18.006
N14420Y3.994
N14430X4.100Y4.000
N14440G00Z6.000
N14450G00X3.000Y8.900
N14460G01Z-1.256F80.0
N14470G2X2.929Y9.071I0.000J0.100F1010.0
N14480G2X3.100Y9.000I0.071J-0.071
N14490G01X3.106Y8.894
N14500X3.000Y8.900
N14510G00Z6.000
N14520G00X18.894Y8.894
N14530G01Z-1.256F80.0
N14540G01X18.900Y9.000F1010.0
N14550G2X19.071Y9.071I0.100J0.000
N14560G2X19.000Y8.900I-0.071J-0.071
N14570G01X18.894Y8.894
N14580G00Z6.000
N14590G00X18.900Y3.000
N14600G01Z-1.256F80.0
N14610G01X18.894Y3.106F1010.0
N14620X19.000Y3.100
N14630G2X19.071Y2.929I0.000J-0.100
N14640G2X18.900Y3.000I-0.071J0.071
N14650G00Z6.000
N14660G00X2.929Y2.929
N14670G01Z-1.326F80.0
N14680G2X3.000Y3.100I0.071J0.071F1010.0
N14690G01X3.106Y3.106
N14700X3.100Y3.000
N14710G2X2.929Y2.929I-0.100J0.000
N14720G00Z6.000
N14730G00X5.800Y5.800
N14740G01Z-1.326F80.0
N14750G01Y6.200F1010.0
N14760X16.200
N14770Y5.800
N14780X5.800
N14790G01X5.600Y5.600
N14800G01Y6.400
N14810X16.400
N14820Y5.600
N14830X5.600
N14840G01X5.400Y5.400
N14850G01Y6.600
N14860X16.600
N14870Y5.400
N14880X5.400
N14890G01X5.200Y5.200
N14900G01Y6.800
N14910X16.800
N14920Y5.200
N14930X5.200
N14940G01X5.000Y5.000
N14950G01Y7.000
N14960X17.000
N14970Y5.000
N14980X5.000
N14990G01X4.800Y4.800
N15000G01Y7.200
N15010X17.200
N15020Y4.800
N15030X4.800
N15040G01X4.600Y4.600
N15050G01Y7.400
N15060X17.400
N15070Y4.600
N15080X4.600
N15090G01X4.400Y4.400
N15100G01Y7.600
N15110X17.600
N15120Y4.400
N15130X4.400
N15140G01X4.200Y4.200
N15150G01Y7.800
N15160X17.800
N15170Y4.200
N15180X4.200
N15190G01X4.100Y4.000
N15200G01X3.994Y3.994
N15210Y8.006
N15220X18.006
N15230Y3.994
N15240X4.100Y4.000
N15250G00Z6.000
N15260G00X3.000Y8.900
N15270G01Z-1.326F80.0
N15280G2X2.929Y9.071I0.000J0.100F1010.0
N15290G2X3.100Y9.000I0.071J-0.071
N15300G01X3.106Y8.894
N15310X3.000Y8.900
N15320G00Z6.000
N15330G00X18.894Y8.894
N15340G01Z-1.326F80.0
N15350G01X18.900Y9.000F1010.0
N15360G2X19.071Y9.071I0.100J0.000
N15370G2X19.000Y8.900I-0.071J-0.071
N15380G01X18.894Y8.894
N15390G00Z6.000
N15400G00X18.900Y3.000
N15410G01Z-1.326F80.0
N15420G01X18.894Y3.106F1010.0
N15430X19.000Y3.100
N15440G2X19.071Y2.929I0.000J-0.100
N15450G2X18.900Y3.000I-0.071J0.071
N15460G00Z6.000
N15470G00X2.929Y2.929
N15480G01Z-1.395F80.0
N15490G2X3.000Y3.100I0.071J0.071F1010.0
N15500G01X3.106Y3.106
N15510X3.100Y3.000
N15520G2X2.929Y2.929I-0.100J0.000
N15530G00Z6.000
N15540G00X5.800Y5.800
N15550G01Z-1.395F80.0
N15560G01Y6.200F1010.0
N15570X16.200
N15580Y5.800
N15590X5.800
N15600G01X5.600Y5.600
N15610G01Y6.400
N15620X16.400
N15630Y5.600
N15640X5.600
N15650G01X5.400Y5.400
N15660G01Y6.600
N15670X16.600
N15680Y5.400
N15690X5.400
N15700G01X5.200Y5.200
N15710G01Y6.800
N15720X16.800
N15730Y5.200
N15740X5.200
N15750G01X5.000Y5.000
N15760G01Y7.000
N15770X17.000
N15780Y5.000
N15790X5.000
N15800G01X4.800Y4.800
N15810G01Y7.200
N15820X17.200
N15830Y4.800
N15840X4.800
N15850G01X4.600Y4.600
N15860G01Y7.400
N15870X17.400
N15880Y4.600
N15890X4.600
N15900G01X4.400Y4.400
N15910G01Y7.600
N15920X17.600
N15930Y4.400
N15940X4.400
N15950G01X4.200Y4.200
N15960G01Y7.800
N15970X17.800
N15980Y4.200
N15990X4.200
N16000G01X4.100Y4.000
N16010G01X3.994Y3.994
N16020Y8.006
N16030X18.006
N16040Y3.994
N16050X4.100Y4.000
N16060G00Z6.000
N16070G00X3.000Y8.900
N16080G01Z-1.395F80.0
N16090G2X2.929Y9.071I0.000J0.100F1010.0
N16100G2X3.100Y9.000I0.071J-0.071
N16110G01X3.106Y8.894
N16120X3.000Y8.900
N16130G00Z6.000
N16140G00X18.894Y8.894
N16150G01Z-1.395F80.0
N16160G01X18.900Y9.000F1010.0
N16170G2X19.071Y9.071I0.100J0.000
N16180G2X19.000Y8.900I-0.071J-0.071
N16190G01X18.894Y8.894
N16200G00Z6.000
N16210G00X18.900Y3.000
N16220G01Z-1.395F80.0
N16230G01X18.894Y3.106F1010.0
N16240X19.000Y3.100
N16250G2X19.071Y2.929I0.000J-0.100
N16260G2X18.900Y3.000I-0.071J0.071
N16270G00Z6.000
N16280G00X2.929Y2.929
N16290G01Z-1.465F80.0
N16300G2X3.000Y3.100I0.071J0.071F1010.0
N16310G01X3.106Y3.106
N16320X3.100Y3.000
N16330G2X2.929Y2.929I-0.100J0.000
N16340G00Z6.000
N16350G00X5.800Y5.800
N16360G01Z-1.465F80.0
N16370G01Y6.200F1010.0
N16380X16.200
N16390Y5.800
N16400X5.800
N16410G01X5.600Y5.600
N16420G01Y6.400
N16430X16.400
N16440Y5.600
N16450X5.600
N16460G01X5.400Y5.400
N16470G01Y6.600
N16480X16.600
N16490Y5.400
N16500X5.400
N16510G01X5.200Y5.200
N16520G01Y6.800
N16530X16.800
N16540Y5.200
N16550X5.200
N16560G01X5.000Y5.000
N16570G01Y7.000
N16580X17.000
N16590Y5.000
N16600X5.000
N16610G01X4.800Y4.800
N16620G01Y7.200
N16630X17.200
N16640Y4.800
N16650X4.800
N16660G01X4.600Y4.600
N16670G01Y7.400
N16680X17.400
N16690Y4.600
N16700X4.600
N16710G01X4.400Y4.400
N16720G01Y7.600
N16730X17.600
N16740Y4.400
N16750X4.400
N16760G01X4.200Y4.200
N16770G01Y7.800
N16780X17.800
N16790Y4.200
N16800X4.200
N16810G01X4.100Y4.000
N16820G01X3.994Y3.994
N16830Y8.006
N16840X18.006
N16850Y3.994
N16860X4.100Y4.000
N16870G00Z6.000
N16880G00X3.000Y8.900
N16890G01Z-1.465F80.0
N16900G2X2.929Y9.071I0.000J0.100F1010.0
N16910G2X3.100Y9.000I0.071J-0.071
N16920G01X3.106Y8.894
N16930X3.000Y8.900
N16940G00Z6.000
N16950G00X18.894Y8.894
N16960G01Z-1.465F80.0
N16970G01X18.900Y9.000F1010.0
N16980G2X19.071Y9.071I0.100J0.000
N16990G2X19.000Y8.900I-0.071J-0.071
N17000G01X18.894Y8.894
N17010G00Z6.000
N17020G00X18.900Y3.000
N17030G01Z-1.465F80.0
N17040G01X18.894Y3.106F1010.0
N17050X19.000Y3.100
N17060G2X19.071Y2.929I0.000J-0.100
N17070G2X18.900Y3.000I-0.071J0.071
N17080G00Z6.000
N17090G00X2.929Y2.929
N17100G01Z-1.535F80.0
N17110G2X3.000Y3.100I0.071J0.071F1010.0
N17120G01X3.106Y3.106
N17130X3.100Y3.000
N17140G2X2.929Y2.929I-0.100J0.000
N17150G00Z6.000
N17160G00X5.800Y5.800
N17170G01Z-1.535F80.0
N17180G01Y6.200F1010.0
N17190X16.200
N17200Y5.800
N17210X5.800
N17220G01X5.600Y5.600
N17230G01Y6.400
N17240X16.400
N17250Y5.600
N17260X5.600
N17270G01X5.400Y5.400
N17280G01Y6.600
N17290X16.600
N17300Y5.400
N17310X5.400
N17320G01X5.200Y5.200
N17330G01Y6.800
N17340X16.800
N17350Y5.200
N17360X5.200
N17370G01X5.000Y5.000
N17380G01Y7.000
N17390X17.000
N17400Y5.000
N17410X5.000
N17420G01X4.800Y4.800
N17430G01Y7.200
N17440X17.200
N17450Y4.800
N17460X4.800
N17470G01X4.600Y4.600
N17480G01Y7.400
N17490X17.400
N17500Y4.600
N17510X4.600
N17520G01X4.400Y4.400
N17530G01Y7.600
N17540X17.600
N17550Y4.400
N17560X4.400
N17570G01X4.200Y4.200
N17580G01Y7.800
N17590X17.800
N17600Y4.200
N17610X4.200
N17620G01X4.100Y4.000
N17630G01X3.994Y3.994
N17640Y8.006
N17650X18.006
N17660Y3.994
N17670X4.100Y4.000
N17680G00Z6.000
N17690G00X3.000Y8.900
N17700G01Z-1.535F80.0
N17710G2X2.929Y9.071I0.000J0.100F1010.0
N17720G2X3.100Y9.000I0.071J-0.071
N17730G01X3.106Y8.894
N17740X3.000Y8.900
N17750G00Z6.000
N17760G00X18.894Y8.894
N17770G01Z-1.535F80.0
N17780G01X18.900Y9.000F1010.0
N17790G2X19.071Y9.071I0.100J0.000
N17800G2X19.000Y8.900I-0.071J-0.071
N17810G01X18.894Y8.894
N17820G00Z6.000
N17830G00X18.900Y3.000
N17840G01Z-1.535F80.0
N17850G01X18.894Y3.106F1010.0
N17860X19.000Y3.100
N17870G2X19.071Y2.929I0.000J-0.100
N17880G2X18.900Y3.000I-0.071J0.071
N17890G00Z6.000
N17900G00X2.929Y2.929
N17910G01Z-1.605F80.0
N17920G2X3.000Y3.100I0.071J0.071F1010.0
N17930G01X3.106Y3.106
N17940X3.100Y3.000
N17950G2X2.929Y2.929I-0.100J0.000
N17960G00Z6.000
N17970G00X5.800Y5.800
N17980G01Z-1.605F80.0
N17990G01Y6.200F1010.0
N18000X16.200
N18010Y5.800
N18020X5.800
N18030G01X5.600Y5.600
N18040G01Y6.400
N18050X16.400
N18060Y5.600
N18070X5.600
N18080G01X5.400Y5.400
N18090G01Y6.600
N18100X16.600
N18110Y5.400
N18120X5.400
N18130G01X5.200Y5.200
N18140G01Y6.800
N18150X16.800
N18160Y5.200
N18170X5.200
N18180G01X5.000Y5.000
N18190G01Y7.000
N18200X17.000
N18210Y5.000
N18220X5.000
N18230G01X4.800Y4.800
N18240G01Y7.200
N18250X17.200
N18260Y4.800
N18270X4.800
N18280G01X4.600Y4.600
N18290G01Y7.400
N18300X17.400
N18310Y4.600
N18320X4.600
N18330G01X4.400Y4.400
N18340G01Y7.600
N18350X17.600
N18360Y4.400
N18370X4.400
N18380G01X4.200Y4.200
N18390G01Y7.800
N18400X17.800
N18410Y4.200
N18420X4.200
N18430G01X4.100Y4.000
N18440G01X3.994Y3.994
N18450Y8.006
N18460X18.006
N18470Y3.994
N18480X4.100Y4.000
N18490G00Z6.000
N18500G00X3.000Y8.900
N18510G01Z-1.605F80.0
N18520G2X2.929Y9.071I0.000J0.100F1010.0
N18530G2X3.100Y9.000I0.071J-0.071
N18540G01X3.106Y8.894
N18550X3.000Y8.900
N18560G00Z6.000
N18570G00X18.894Y8.894
N18580G01Z-1.605F80.0
N18590G01X18.900Y9.000F1010.0
N18600G2X19.071Y9.071I0.100J0.000
N18610G2X19.000Y8.900I-0.071J-0.071
N18620G01X18.894Y8.894
N18630G00Z6.000
N18640G00X18.900Y3.000
N18650G01Z-1.605F80.0
N18660G01X18.894Y3.106F1010.0
N18670X19.000Y3.100
N18680G2X19.071Y2.929I0.000J-0.100
N18690G2X18.900Y3.000I-0.071J0.071
N18700G00Z6.000
N18710G00X2.929Y2.929
N18720G01Z-1.674F80.0
N18730G2X3.000Y3.100I0.071J0.071F1010.0
N18740G01X3.106Y3.106
N18750X3.100Y3.000
N18760G2X2.929Y2.929I-0.100J0.000
N18770G00Z6.000
N18780G00X5.800Y5.800
N18790G01Z-1.674F80.0
N18800G01Y6.200F1010.0
N18810X16.200
N18820Y5.800
N18830X5.800
N18840G01X5.600Y5.600
N18850G01Y6.400
N18860X16.400
N18870Y5.600
N18880X5.600
N18890G01X5.400Y5.400
N18900G01Y6.600
N18910X16.600
N18920Y5.400
N18930X5.400
N18940G01X5.200Y5.200
N18950G01Y6.800
N18960X16.800
N18970Y5.200
N18980X5.200
N18990G01X5.000Y5.000
N19000G01Y7.000
N19010X17.000
N19020Y5.000
N19030X5.000
N19040G01X4.800Y4.800
N19050G01Y7.200
N19060X17.200
N19070Y4.800
N19080X4.800
N19090G01X4.600Y4.600
N19100G01Y7.400
N19110X17.400
N19120Y4.600
N19130X4.600
N19140G01X4.400Y4.400
N19150G01Y7.600
N19160X17.600
N19170Y4.400
N19180X4.400
N19190G01X4.200Y4.200
N19200G01Y7.800
N19210X17.800
N19220Y4.200
N19230X4.200
N19240G01X4.100Y4.000
N19250G01X3.994Y3.994
N19260Y8.006
N19270X18.006
N19280Y3.994
N19290X4.100Y4.000
N19300G00Z6.000
N19310G00X3.000Y8.900
N19320G01Z-1.674F80.0
N19330G2X2.929Y9.071I0.000J0.100F1010.0
N19340G2X3.100Y9.000I0.071J-0.071
N19350G01X3.106Y8.894
N19360X3.000Y8.900
N19370G00Z6.000
N19380G00X18.894Y8.894
N19390G01Z-1.674F80.0
N19400G01X18.900Y9.000F1010.0
N19410G2X19.071Y9.071I0.100J0.000
N19420G2X19.000Y8.900I-0.071J-0.071
N19430G01X18.894Y8.894
N19440G00Z6.000
N19450G00X18.900Y3.000
N19460G01Z-1.674F80.0
N19470G01X18.894Y3.106F1010.0
N19480X19.000Y3.100
N19490G2X19.071Y2.929I0.000J-0.100
N19500G2X18.900Y3.000I-0.071J0.071
N19510G00Z6.000
N19520G00X2.929Y2.929
N19530G01Z-1.744F80.0
N19540G2X3.000Y3.100I0.071J0.071F1010.0
N19550G01X3.106Y3.106
N19560X3.100Y3.000
N19570G2X2.929Y2.929I-0.100J0.000
N19580G00Z6.000
N19590G00X5.800Y5.800
N19600G01Z-1.744F80.0
N19610G01Y6.200F1010.0
N19620X16.200
N19630Y5.800
N19640X5.800
N19650G01X5.600Y5.600
N19660G01Y6.400
N19670X16.400
N19680Y5.600
N19690X5.600
N19700G01X5.400Y5.400
N19710G01Y6.600
N19720X16.600
N19730Y5.400
N19740X5.400
N19750G01X5.200Y5.200
N19760G01Y6.800
N19770X16.800
N19780Y5.200
N19790X5.200
N19800G01X5.000Y5.000
N19810G01Y7.000
N19820X17.000
N19830Y5.000
N19840X5.000
N19850G01X4.800Y4.800
N19860G01Y7.200
N19870X17.200
N19880Y4.800
N19890X4.800
N19900G01X4.600Y4.600
N19910G01Y7.400
N19920X17.400
N19930Y4.600
N19940X4.600
N19950G01X4.400Y4.400
N19960G01Y7.600
N19970X17.600
N19980Y4.400
N19990X4.400
N20000G01X4.200Y4.200
N20010G01Y7.800
N20020X17.800
N20030Y4.200
N20040X4.200
N20050G01X4.100Y4.000
N20060G01X3.994Y3.994
N20070Y8.006
N20080X18.006
N20090Y3.994
N20100X4.100Y4.000
N20110G00Z6.000
N20120G00X3.000Y8.900
N20130G01Z-1.744F80.0
N20140G2X2.929Y9.071I0.000J0.100F1010.0
N20150G2X3.100Y9.000I0.071J-0.071
N20160G01X3.106Y8.894
N20170X3.000Y8.900
N20180G00Z6.000
N20190G00X18.894Y8.894
N20200G01Z-1.744F80.0
N20210G01X18.900Y9.000F1010.0
N20220G2X19.071Y9.071I0.100J0.000
N20230G2X19.000Y8.900I-0.071J-0.071
N20240G01X18.894Y8.894
N20250G00Z6.000
N20260G00X18.900Y3.000
N20270G01Z-1.744F80.0
N20280G01X18.894Y3.106F1010.0
N20290X19.000Y3.100
N20300G2X19.071Y2.929I0.000J-0.100
N20310G2X18.900Y3.000I-0.071J0.071
N20320G00Z6.000
N20330G00X2.929Y2.929
N20340G01Z-1.814F80.0
N20350G2X3.000Y3.100I0.071J0.071F1010.0
N20360G01X3.106Y3.106
N20370X3.100Y3.000
N20380G2X2.929Y2.929I-0.100J0.000
N20390G00Z6.000
N20400G00X5.800Y5.800
N20410G01Z-1.814F80.0
N20420G01Y6.200F1010.0
N20430X16.200
N20440Y5.800
N20450X5.800
N20460G01X5.600Y5.600
N20470G01Y6.400
N20480X16.400
N20490Y5.600
N20500X5.600
N20510G01X5.400Y5.400
N20520G01Y6.600
N20530X16.600
N20540Y5.400
N20550X5.400
N20560G01X5.200Y5.200
N20570G01Y6.800
N20580X16.800
N20590Y5.200
N20600X5.200
N20610G01X5.000Y5.000
N20620G01Y7.000
N20630X17.000
N20640Y5.000
N20650X5.000
N20660G01X4.800Y4.800
N20670G01Y7.200
N20680X17.200
N20690Y4.800
N20700X4.800
N20710G01X4.600Y4.600
N20720G01Y7.400
N20730X17.400
N20740Y4.600
N20750X4.600
N20760G01X4.400Y4.400
N20770G01Y7.600
N20780X17.600
N20790Y4.400
N20800X4.400
N20810G01X4.200Y4.200
N20820G01Y7.800
N20830X17.800
N20840Y4.200
N20850X4.200
N20860G01X4.100Y4.000
N20870G01X3.994Y3.994
N20880Y8.006
N20890X18.006
N20900Y3.994
N20910X4.100Y4.000
N20920G00Z6.000
N20930G00X3.000Y8.900
N20940G01Z-1.814F80.0
N20950G2X2.929Y9.071I0.000J0.100F1010.0
N20960G2X3.100Y9.000I0.071J-0.071
N20970G01X3.106Y8.894
N20980X3.000Y8.900
N20990G00Z6.000
N21000G00X18.894Y8.894
N21010G01Z-1.814F80.0
N21020G01X18.900Y9.000F1010.0
N21030G2X19.071Y9.071I0.100J0.000
N21040G2X19.000Y8.900I-0.071J-0.071
N21050G01X18.894Y8.894
N21060G00Z6.000
N21070G00X18.900Y3.000
N21080G01Z-1.814F80.0
N21090G01X18.894Y3.106F1010.0
N21100X19.000Y3.100
N21110G2X19.071Y2.929I0.000J-0.100
N21120G2X18.900Y3.000I-0.071J0.071
N21130G00Z6.000
N21140G00X2.929Y2.929
N21150G01Z-1.884F80.0
N21160G2X3.000Y3.100I0.071J0.071F1010.0
N21170G01X3.106Y3.106
N21180X3.100Y3.000
N21190G2X2.929Y2.929I-0.100J0.000
N21200G00Z6.000
N21210G00X5.800Y5.800
N21220G01Z-1.884F80.0
N21230G01Y6.200F1010.0
N21240X16.200
N21250Y5.800
N21260X5.800
N21270G01X5.600Y5.600
N21280G01Y6.400
N21290X16.400
N21300Y5.600
N21310X5.600
N21320G01X5.400Y5.400
N21330G01Y6.600
N21340X16.600
N21350Y5.400
N21360X5.400
N21370G01X5.200Y5.200
N21380G01Y6.800
N21390X16.800
N21400Y5.200
N21410X5.200
N21420G01X5.000Y5.000
N21430G01Y7.000
N21440X17.000
N21450Y5.000
N21460X5.000
N21470G01X4.800Y4.800
N21480G01Y7.200
N21490X17.200
N21500Y4.800
N21510X4.800
N21520G01X4.600Y4.600
N21530G01Y7.400
N21540X17.400
N21550Y4.600
N21560X4.600
N21570G01X4.400Y4.400
N21580G01Y7.600
N21590X17.600
N21600Y4.400
N21610X4.400
N21620G01X4.200Y4.200
N21630G01Y7.800
N21640X17.800
N21650Y4.200
N21660X4.200
N21670G01X4.100Y4.000
N21680G01X3.994Y3.994
N21690Y8.006
N21700X18.006
N21710Y3.994
N21720X4.100Y4.000
N21730G00Z6.000
N21740G00X3.000Y8.900
N21750G01Z-1.884F80.0
N21760G2X2.929Y9.071I0.000J0.100F1010.0
N21770G2X3.100Y9.000I0.071J-0.071
N21780G01X3.106Y8.894
N21790X3.000Y8.900
N21800G00Z6.000
N21810G00X18.894Y8.894
N21820G01Z-1.884F80.0
N21830G01X18.900Y9.000F1010.0
N21840G2X19.071Y9.071I0.100J0.000
N21850G2X19.000Y8.900I-0.071J-0.071
N21860G01X18.894Y8.894
N21870G00Z6.000
N21880G00X18.900Y3.000
N21890G01Z-1.884F80.0
N21900G01X18.894Y3.106F1010.0
N21910X19.000Y3.100
N21920G2X19.071Y2.929I0.000J-0.100
N21930G2X18.900Y3.000I-0.071J0.071
N21940G00Z6.000
N21950G00X2.929Y2.929
N21960G01Z-1.953F80.0
N21970G2X3.000Y3.100I0.071J0.071F1010.0
N21980G01X3.106Y3.106
N21990X3.100Y3.000
N22000G2X2.929Y2.929I-0.100J0.000
N22010G00Z6.000
N22020G00X5.800Y5.800
N22030G01Z-1.953F80.0
N22040G01Y6.200F1010.0
N22050X16.200
N22060Y5.800
N22070X5.800
N22080G01X5.600Y5.600
N22090G01Y6.400
N22100X16.400
N22110Y5.600
N22120X5.600
N22130G01X5.400Y5.400
N22140G01Y6.600
N22150X16.600
N22160Y5.400
N22170X5.400
N22180G01X5.200Y5.200
N22190G01Y6.800
N22200X16.800
N22210Y5.200
N22220X5.200
N22230G01X5.000Y5.000
N22240G01Y7.000
N22250X17.000
N22260Y5.000
N22270X5.000
N22280G01X4.800Y4.800
N22290G01Y7.200
N22300X17.200
N22310Y4.800
N22320X4.800
N22330G01X4.600Y4.600
N22340G01Y7.400
N22350X17.400
N22360Y4.600
N22370X4.600
N22380G01X4.400Y4.400
N22390G01Y7.600
N22400X17.600
N22410Y4.400
N22420X4.400
N22430G01X4.200Y4.200
N22440G01Y7.800
N22450X17.800
N22460Y4.200
N22470X4.200
N22480G01X4.100Y4.000
N22490G01X3.994Y3.994
N22500Y8.006
N22510X18.006
N22520Y3.994
N22530X4.100Y4.000
N22540G00Z6.000
N22550G00X3.000Y8.900
N22560G01Z-1.953F80.0
N22570G2X2.929Y9.071I0.000J0.100F1010.0
N22580G2X3.100Y9.000I0.071J-0.071
N22590G01X3.106Y8.894
N22600X3.000Y8.900
N22610G00Z6.000
N22620G00X18.894Y8.894
N22630G01Z-1.953F80.0
N22640G01X18.900Y9.000F1010.0
N22650G2X19.071Y9.071I0.100J0.000
N22660G2X19.000Y8.900I-0.071J-0.071
N22670G01X18.894Y8.894
N22680G00Z6.000
N22690G00X18.900Y3.000
N22700G01Z-1.953F80.0
N22710G01X18.894Y3.106F1010.0
N22720X19.000Y3.100
N22730G2X19.071Y2.929I0.000J-0.100
N22740G2X18.900Y3.000I-0.071J0.071
N22750G00Z6.000
N22760G00X2.929Y2.929
N22770G01Z-2.023F80.0
N22780G2X3.000Y3.100I0.071J0.071F1010.0
N22790G01X3.106Y3.106
N22800X3.100Y3.000
N22810G2X2.929Y2.929I-0.100J0.000
N22820G00Z6.000
N22830G00X5.800Y5.800
N22840G01Z-2.023F80.0
N22850G01Y6.200F1010.0
N22860X16.200
N22870Y5.800
N22880X5.800
N22890G01X5.600Y5.600
N22900G01Y6.400
N22910X16.400
N22920Y5.600
N22930X5.600
N22940G01X5.400Y5.400
N22950G01Y6.600
N22960X16.600
N22970Y5.400
N22980X5.400
N22990G01X5.200Y5.200
N23000G01Y6.800
N23010X16.800
N23020Y5.200
N23030X5.200
N23040G01X5.000Y5.000
N23050G01Y7.000
N23060X17.000
N23070Y5.000
N23080X5.000
N23090G01X4.800Y4.800
N23100G01Y7.200
N23110X17.200
N23120Y4.800
N23130X4.800
N23140G01X4.600Y4.600
N23150G01Y7.400
N23160X17.400
N23170Y4.600
N23180X4.600
N23190G01X4.400Y4.400
N23200G01Y7.600
N23210X17.600
N23220Y4.400
N23230X4.400
N23240G01X4.200Y4.200
N23250G01Y7.800
N23260X17.800
N23270Y4.200
N23280X4.200
N23290G01X4.100Y4.000
N23300G01X3.994Y3.994
N23310Y8.006
N23320X18.006
N23330Y3.994
N23340X4.100Y4.000
N23350G00Z6.000
N23360G00X3.000Y8.900
N23370G01Z-2.023F80.0
N23380G2X2.929Y9.071I0.000J0.100F1010.0
N23390G2X3.100Y9.000I0.071J-0.071
N23400G01X3.106Y8.894
N23410X3.000Y8.900
N23420G00Z6.000
N23430G00X18.894Y8.894
N23440G01Z-2.023F80.0
N23450G01X18.900Y9.000F1010.0
N23460G2X19.071Y9.071I0.100J0.000
N23470G2X19.000Y8.900I-0.071J-0.071
N23480G01X18.894Y8.894
N23490G00Z6.000
N23500G00X18.900Y3.000
N23510G01Z-2.023F80.0
N23520G01X18.894Y3.106F1010.0
N23530X19.000Y3.100
N23540G2X19.071Y2.929I0.000J-0.100
N23550G2X18.900Y3.000I-0.071J0.071
N23560G00Z6.000
N23570G00X2.929Y2.929
N23580G01Z-2.093F80.0
N23590G2X3.000Y3.100I0.071J0.071F1010.0
N23600G01X3.106Y3.106
N23610X3.100Y3.000
N23620G2X2.929Y2.929I-0.100J0.000
N23630G00Z6.000
N23640G00X5.800Y5.800
N23650G01Z-2.093F80.0
N23660G01Y6.200F1010.0
N23670X16.200
N23680Y5.800
N23690X5.800
N23700G01X5.600Y5.600
N23710G01Y6.400
N23720X16.400
N23730Y5.600
N23740X5.600
N23750G01X5.400Y5.400
N23760G01Y6.600
N23770X16.600
N23780Y5.400
N23790X5.400
N23800G01X5.200Y5.200
N23810G01Y6.800
N23820X16.800
N23830Y5.200
N23840X5.200
N23850G01X5.000Y5.000
N23860G01Y7.000
N23870X17.000
N23880Y5.000
N23890X5.000
N23900G01X4.800Y4.800
N23910G01Y7.200
N23920X17.200
N23930Y4.800
N23940X4.800
N23950G01X4.600Y4.600
N23960G01Y7.400
N23970X17.400
N23980Y4.600
N23990X4.600
N24000G01X4.400Y4.400
N24010G01Y7.600
N24020X17.600
N24030Y4.400
N24040X4.400
N24050G01X4.200Y4.200
N24060G01Y7.800
N24070X17.800
N24080Y4.200
N24090X4.200
N24100G01X4.100Y4.000
N24110G01X3.994Y3.994
N24120Y8.006
N24130X18.006
N24140Y3.994
N24150X4.100Y4.000
N24160G00Z6.000
N24170G00X3.000Y8.900
N24180G01Z-2.093F80.0
N24190G2X2.929Y9.071I0.000J0.100F1010.0
N24200G2X3.100Y9.000I0.071J-0.071
N24210G01X3.106Y8.894
N24220X3.000Y8.900
N24230G00Z6.000
N24240G00X18.894Y8.894
N24250G01Z-2.093F80.0
N24260G01X18.900Y9.000F1010.0
N24270G2X19.071Y9.071I0.100J0.000
N24280G2X19.000Y8.900I-0.071J-0.071
N24290G01X18.894Y8.894
N24300G00Z6.000
N24310G00X18.900Y3.000
N24320G01Z-2.093F80.0
N24330G01X18.894Y3.106F1010.0
N24340X19.000Y3.100
N24350G2X19.071Y2.929I0.000J-0.100
N24360G2X18.900Y3.000I-0.071J0.071
N24370G00Z6.000
N24380G00X2.929Y2.929
N24390G01Z-2.163F80.0
N24400G2X3.000Y3.100I0.071J0.071F1010.0
N24410G01X3.106Y3.106
N24420X3.100Y3.000
N24430G2X2.929Y2.929I-0.100J0.000
N24440G00Z6.000
N24450G00X5.800Y5.800
N24460G01Z-2.163F80.0
N24470G01Y6.200F1010.0
N24480X16.200
N24490Y5.800
N24500X5.800
N24510G01X5.600Y5.600
N24520G01Y6.400
N24530X16.400
N24540Y5.600
N24550X5.600
N24560G01X5.400Y5.400
N24570G01Y6.600
N24580X16.600
N24590Y5.400
N24600X5.400
N24610G01X5.200Y5.200
N24620G01Y6.800
N24630X16.800
N24640Y5.200
N24650X5.200
N24660G01X5.000Y5.000
N24670G01Y7.000
N24680X17.000
N24690Y5.000
N24700X5.000
N24710G01X4.800Y4.800
N24720G01Y7.200
N24730X17.200
N24740Y4.800
N24750X4.800
N24760G01X4.600Y4.600
N24770G01Y7.400
N24780X17.400
N24790Y4.600
N24800X4.600
N24810G01X4.400Y4.400
N24820G01Y7.600
N24830X17.600
N24840Y4.400
N24850X4.400
N24860G01X4.200Y4.200
N24870G01Y7.800
N24880X17.800
N24890Y4.200
N24900X4.200
N24910G01X4.100Y4.000
N24920G01X3.994Y3.994
N24930Y8.006
N24940X18.006
N24950Y3.994
N24960X4.100Y4.000
N24970G00Z6.000
N24980G00X3.000Y8.900
N24990G01Z-2.163F80.0
N25000G2X2.929Y9.071I0.000J0.100F1010.0
N25010G2X3.100Y9.000I0.071J-0.071
N25020G01X3.106Y8.894
N25030X3.000Y8.900
N25040G00Z6.000
N25050G00X18.894Y8.894
N25060G01Z-2.163F80.0
N25070G01X18.900Y9.000F1010.0
N25080G2X19.071Y9.071I0.100J0.000
N25090G2X19.000Y8.900I-0.071J-0.071
N25100G01X18.894Y8.894
N25110G00Z6.000
N25120G00X18.900Y3.000
N25130G01Z-2.163F80.0
N25140G01X18.894Y3.106F1010.0
N25150X19.000Y3.100
N25160G2X19.071Y2.929I0.000J-0.100
N25170G2X18.900Y3.000I-0.071J0.071
N25180G00Z6.000
N25190G00X2.929Y2.929
N25200G01Z-2.233F80.0
N25210G2X3.000Y3.100I0.071J0.071F1010.0
N25220G01X3.106Y3.106
N25230X3.100Y3.000
N25240G2X2.929Y2.929I-0.100J0.000
N25250G00Z6.000
N25260G00X5.800Y5.800
N25270G01Z-2.233F80.0
N25280G01Y6.200F1010.0
N25290X16.200
N25300Y5.800
N25310X5.800
N25320G01X5.600Y5.600
N25330G01Y6.400
N25340X16.400
N25350Y5.600
N25360X5.600
N25370G01X5.400Y5.400
N25380G01Y6.600
N25390X16.600
N25400Y5.400
N25410X5.400
N25420G01X5.200Y5.200
N25430G01Y6.800
N25440X16.800
N25450Y5.200
N25460X5.200
N25470G01X5.000Y5.000
N25480G01Y7.000
N25490X17.000
N25500Y5.000
N25510X5.000
N25520G01X4.800Y4.800
N25530G01Y7.200
N25540X17.200
N25550Y4.800
N25560X4.800
N25570G01X4.600Y4.600
N25580G01Y7.400
N25590X17.400
N25600Y4.600
N25610X4.600
N25620G01X4.400Y4.400
N25630G01Y7.600
N25640X17.600
N25650Y4.400
N25660X4.400
N25670G01X4.200Y4.200
N25680G01Y7.800
N25690X17.800
N25700Y4.200
N25710X4.200
N25720G01X4.100Y4.000
N25730G01X3.994Y3.994
N25740Y8.006
N25750X18.006
N25760Y3.994
N25770X4.100Y4.000
N25780G00Z6.000
N25790G00X3.000Y8.900
N25800G01Z-2.233F80.0
N25810G2X2.929Y9.071I0.000J0.100F1010.0
N25820G2X3.100Y9.000I0.071J-0.071
N25830G01X3.106Y8.894
N25840X3.000Y8.900
N25850G00Z6.000
N25860G00X18.894Y8.894
N25870G01Z-2.233F80.0
N25880G01X18.900Y9.000F1010.0
N25890G2X19.071Y9.071I0.100J0.000
N25900G2X19.000Y8.900I-0.071J-0.071
N25910G01X18.894Y8.894
N25920G00Z6.000
N25930G00X18.900Y3.000
N25940G01Z-2.233F80.0
N25950G01X18.894Y3.106F1010.0
N25960X19.000Y3.100
N25970G2X19.071Y2.929I0.000J-0.100
N25980G2X18.900Y3.000I-0.071J0.071
N25990G00Z6.000
N26000G00X2.929Y2.929
N26010G01Z-2.302F80.0
N26020G2X3.000Y3.100I0.071J0.071F1010.0
N26030G01X3.106Y3.106
N26040X3.100Y3.000
N26050G2X2.929Y2.929I-0.100J0.000
N26060G00Z6.000
N26070G00X5.800Y5.800
N26080G01Z-2.302F80.0
N26090G01Y6.200F1010.0
N26100X16.200
N26110Y5.800
N26120X5.800
N26130G01X5.600Y5.600
N26140G01Y6.400
N26150X16.400
N26160Y5.600
N26170X5.600
N26180G01X5.400Y5.400
N26190G01Y6.600
N26200X16.600
N26210Y5.400
N26220X5.400
N26230G01X5.200Y5.200
N26240G01Y6.800
N26250X16.800
N26260Y5.200
N26270X5.200
N26280G01X5.000Y5.000
N26290G01Y7.000
N26300X17.000
N26310Y5.000
N26320X5.000
N26330G01X4.800Y4.800
N26340G01Y7.200
N26350X17.200
N26360Y4.800
N26370X4.800
N26380G01X4.600Y4.600
N26390G01Y7.400
N26400X17.400
N26410Y4.600
N26420X4.600
N26430G01X4.400Y4.400
N26440G01Y7.600
N26450X17.600
N26460Y4.400
N26470X4.400
N26480G01X4.200Y4.200
N26490G01Y7.800
N26500X17.800
N26510Y4.200
N26520X4.200
N26530G01X4.100Y4.000
N26540G01X3.994Y3.994
N26550Y8.006
N26560X18.006
N26570Y3.994
N26580X4.100Y4.000
N26590G00Z6.000
N26600G00X3.000Y8.900
N26610G01Z-2.302F80.0
N26620G2X2.929Y9.071I0.000J0.100F1010.0
N26630G2X3.100Y9.000I0.071J-0.071
N26640G01X3.106Y8.894
N26650X3.000Y8.900
N26660G00Z6.000
N26670G00X18.894Y8.894
N26680G01Z-2.302F80.0
N26690G01X18.900Y9.000F1010.0
N26700G2X19.071Y9.071I0.100J0.000
N26710G2X19.000Y8.900I-0.071J-0.071
N26720G01X18.894Y8.894
N26730G00Z6.000
N26740G00X18.900Y3.000
N26750G01Z-2.302F80.0
N26760G01X18.894Y3.106F1010.0
N26770X19.000Y3.100
N26780G2X19.071Y2.929I0.000J-0.100
N26790G2X18.900Y3.000I-0.071J0.071
N26800G00Z6.000
N26810G00X2.929Y2.929
N26820G01Z-2.372F80.0
N26830G2X3.000Y3.100I0.071J0.071F1010.0
N26840G01X3.106Y3.106
N26850X3.100Y3.000
N26860G2X2.929Y2.929I-0.100J0.000
N26870G00Z6.000
N26880G00X5.800Y5.800
N26890G01Z-2.372F80.0
N26900G01Y6.200F1010.0
N26910X16.200
N26920Y5.800
N26930X5.800
N26940G01X5.600Y5.600
N26950G01Y6.400
N26960X16.400
N26970Y5.600
N26980X5.600
N26990G01X5.400Y5.400
N27000G01Y6.600
N27010X16.600
N27020Y5.400
N27030X5.400
N27040G01X5.200Y5.200
N27050G01Y6.800
N27060X16.800
N27070Y5.200
N27080X5.200
N27090G01X5.000Y5.000
N27100G01Y7.000
N27110X17.000
N27120Y5.000
N27130X5.000
N27140G01X4.800Y4.800
N27150G01Y7.200
N27160X17.200
N27170Y4.800
N27180X4.800
N27190G01X4.600Y4.600
N27200G01Y7.400
N27210X17.400
N27220Y4.600
N27230X4.600
N27240G01X4.400Y4.400
N27250G01Y7.600
N27260X17.600
N27270Y4.400
N27280X4.400
N27290G01X4.200Y4.200
N27300G01Y7.800
N27310X17.800
N27320Y4.200
N27330X4.200
N27340G01X4.100Y4.000
N27350G01X3.994Y3.994
N27360Y8.006
N27370X18.006
N27380Y3.994
N27390X4.100Y4.000
N27400G00Z6.000
N27410G00X3.000Y8.900
N27420G01Z-2.372F80.0
N27430G2X2.929Y9.071I0.000J0.100F1010.0
N27440G2X3.100Y9.000I0.071J-0.071
N27450G01X3.106Y8.894
N27460X3.000Y8.900
N27470G00Z6.000
N27480G00X18.894Y8.894
N27490G01Z-2.372F80.0
N27500G01X18.900Y9.000F1010.0
N27510G2X19.071Y9.071I0.100J0.000
N27520G2X19.000Y8.900I-0.071J-0.071
N27530G01X18.894Y8.894
N27540G00Z6.000
N27550G00X18.900Y3.000
N27560G01Z-2.372F80.0
N27570G01X18.894Y3.106F1010.0
N27580X19.000Y3.100
N27590G2X19.071Y2.929I0.000J-0.100
N27600G2X18.900Y3.000I-0.071J0.071
N27610G00Z6.000
N27620G00X2.929Y2.929
N27630G01Z-2.442F80.0
N27640G2X3.000Y3.100I0.071J0.071F1010.0
N27650G01X3.106Y3.106
N27660X3.100Y3.000
N27670G2X2.929Y2.929I-0.100J0.000
N27680G00Z6.000
N27690G00X5.800Y5.800
N27700G01Z-2.442F80.0
N27710G01Y6.200F1010.0
N27720X16.200
N27730Y5.800
N27740X5.800
N27750G01X5.600Y5.600
N27760G01Y6.400
N27770X16.400
N27780Y5.600
N27790X5.600
N27800G01X5.400Y5.400
N27810G01Y6.600
N27820X16.600
N27830Y5.400
N27840X5.400
N27850G01X5.200Y5.200
N27860G01Y6.800
N27870X16.800
N27880Y5.200
N27890X5.200
N27900G01X5.000Y5.000
N27910G01Y7.000
N27920X17.000
N27930Y5.000
N27940X5.000
N27950G01X4.800Y4.800
N27960G01Y7.200
N27970X17.200
N27980Y4.800
N27990X4.800
N28000G01X4.600Y4.600
N28010G01Y7.400
N28020X17.400
N28030Y4.600
N28040X4.600
N28050G01X4.400Y4.400
N28060G01Y7.600
N28070X17.600
N28080Y4.400
N28090X4.400
N28100G01X4.200Y4.200
N28110G01Y7.800
N28120X17.800
N28130Y4.200
N28140X4.200
N28150G01X4.100Y4.000
N28160G01X3.994Y3.994
N28170Y8.006
N28180X18.006
N28190Y3.994
N28200X4.100Y4.000
N28210G00Z6.000
N28220G00X3.000Y8.900
N28230G01Z-2.442F80.0
N28240G2X2.929Y9.071I0.000J0.100F1010.0
N28250G2X3.100Y9.000I0.071J-0.071
N28260G01X3.106Y8.894
N28270X3.000Y8.900
N28280G00Z6.000
N28290G00X18.894Y8.894
N28300G01Z-2.442F80.0
N28310G01X18.900Y9.000F1010.0
N28320G2X19.071Y9.071I0.100J0.000
N28330G2X19.000Y8.900I-0.071J-0.071
N28340G01X18.894Y8.894
N28350G00Z6.000
N28360G00X18.900Y3.000
N28370G01Z-2.442F80.0
N28380G01X18.894Y3.106F1010.0
N28390X19.000Y3.100
N28400G2X19.071Y2.929I0.000J-0.100
N28410G2X18.900Y3.000I-0.071J0.071
N28420G00Z6.000
N28430G00X2.929Y2.929
N28440G01Z-2.512F80.0
N28450G2X3.000Y3.100I0.071J0.071F1010.0
N28460G01X3.106Y3.106
N28470X3.100Y3.000
N28480G2X2.929Y2.929I-0.100J0.000
N28490G00Z6.000
N28500G00X5.800Y5.800
N28510G01Z-2.512F80.0
N28520G01Y6.200F1010.0
N28530X16.200
N28540Y5.800
N28550X5.800
N28560G01X5.600Y5.600
N28570G01Y6.400
N28580X16.400
N28590Y5.600
N28600X5.600
N28610G01X5.400Y5.400
N28620G01Y6.600
N28630X16.600
N28640Y5.400
N28650X5.400
N28660G01X5.200Y5.200
N28670G01Y6.800
N28680X16.800
N28690Y5.200
N28700X5.200
N28710G01X5.000Y5.000
N28720G01Y7.000
N28730X17.000
N28740Y5.000
N28750X5.000
N28760G01X4.800Y4.800
N28770G01Y7.200
N28780X17.200
N28790Y4.800
N28800X4.800
N28810G01X4.600Y4.600
N28820G01Y7.400
N28830X17.400
N28840Y4.600
N28850X4.600
N28860G01X4.400Y4.400
N28870G01Y7.600
N28880X17.600
N28890Y4.400
N28900X4.400
N28910G01X4.200Y4.200
N28920G01Y7.800
N28930X17.800
N28940Y4.200
N28950X4.200
N28960G01X4.100Y4.000
N28970G01X3.994Y3.994
N28980Y8.006
N28990X18.006
N29000Y3.994
N29010X4.100Y4.000
N29020G00Z6.000
N29030G00X3.000Y8.900
N29040G01Z-2.512F80.0
N29050G2X2.929Y9.071I0.000J0.100F1010.0
N29060G2X3.100Y9.000I0.071J-0.071
N29070G01X3.106Y8.894
N29080X3.000Y8.900
N29090G00Z6.000
N29100G00X18.894Y8.894
N29110G01Z-2.512F80.0
N29120G01X18.900Y9.000F1010.0
N29130G2X19.071Y9.071I0.100J0.000
N29140G2X19.000Y8.900I-0.071J-0.071
N29150G01X18.894Y8.894
N29160G00Z6.000
N29170G00X18.900Y3.000
N29180G01Z-2.512F80.0
N29190G01X18.894Y3.106F1010.0
N29200X19.000Y3.100
N29210G2X19.071Y2.929I0.000J-0.100
N29220G2X18.900Y3.000I-0.071J0.071
N29230G00Z6.000
N29240G00X2.929Y2.929
N29250G01Z-2.581F80.0
N29260G2X3.000Y3.100I0.071J0.071F1010.0
N29270G01X3.106Y3.106
N29280X3.100Y3.000
N29290G2X2.929Y2.929I-0.100J0.000
N29300G00Z6.000
N29310G00X5.800Y5.800
N29320G01Z-2.581F80.0
N29330G01Y6.200F1010.0
N29340X16.200
N29350Y5.800
N29360X5.800
N29370G01X5.600Y5.600
N29380G01Y6.400
N29390X16.400
N29400Y5.600
N29410X5.600
N29420G01X5.400Y5.400
N29430G01Y6.600
N29440X16.600
N29450Y5.400
N29460X5.400
N29470G01X5.200Y5.200
N29480G01Y6.800
N29490X16.800
N29500Y5.200
N29510X5.200
N29520G01X5.000Y5.000
N29530G01Y7.000
N29540X17.000
N29550Y5.000
N29560X5.000
N29570G01X4.800Y4.800
N29580G01Y7.200
N29590X17.200
N29600Y4.800
N29610X4.800
N29620G01X4.600Y4.600
N29630G01Y7.400
N29640X17.400
N29650Y4.600
N29660X4.600
N29670G01X4.400Y4.400
N29680G01Y7.600
N29690X17.600
N29700Y4.400
N29710X4.400
N29720G01X4.200Y4.200
N29730G01Y7.800
N29740X17.800
N29750Y4.200
N29760X4.200
N29770G01X4.100Y4.000
N29780G01X3.994Y3.994
N29790Y8.006
N29800X18.006
N29810Y3.994
N29820X4.100Y4.000
N29830G00Z6.000
N29840G00X3.000Y8.900
N29850G01Z-2.581F80.0
N29860G2X2.929Y9.071I0.000J0.100F1010.0
N29870G2X3.100Y9.000I0.071J-0.071
N29880G01X3.106Y8.894
N29890X3.000Y8.900
N29900G00Z6.000
N29910G00X18.894Y8.894
N29920G01Z-2.581F80.0
N29930G01X18.900Y9.000F1010.0
N29940G2X19.071Y9.071I0.100J0.000
N29950G2X19.000Y8.900I-0.071J-0.071
N29960G01X18.894Y8.894
N29970G00Z6.000
N29980G00X18.900Y3.000
N29990G01Z-2.581F80.0
N30000G01X18.894Y3.106F1010.0
N30010X19.000Y3.100
N30020G2X19.071Y2.929I0.000J-0.100
N30030G2X18.900Y3.000I-0.071J0.071
N30040G00Z6.000
N30050G00X2.929Y2.929
N30060G01Z-2.651F80.0
N30070G2X3.000Y3.100I0.071J0.071F1010.0
N30080G01X3.106Y3.106
N30090X3.100Y3.000
N30100G2X2.929Y2.929I-0.100J0.000
N30110G00Z6.000
N30120G00X5.800Y5.800
N30130G01Z-2.651F80.0
N30140G01Y6.200F1010.0
N30150X16.200
N30160Y5.800
N30170X5.800
N30180G01X5.600Y5.600
N30190G01Y6.400
N30200X16.400
N30210Y5.600
N30220X5.600
N30230G01X5.400Y5.400
N30240G01Y6.600
N30250X16.600
N30260Y5.400
N30270X5.400
N30280G01X5.200Y5.200
N30290G01Y6.800
N30300X16.800
N30310Y5.200
N30320X5.200
N30330G01X5.000Y5.000
N30340G01Y7.000
N30350X17.000
N30360Y5.000
N30370X5.000
N30380G01X4.800Y4.800
N30390G01Y7.200
N30400X17.200
N30410Y4.800
N30420X4.800
N30430G01X4.600Y4.600
N30440G01Y7.400
N30450X17.400
N30460Y4.600
N30470X4.600
N30480G01X4.400Y4.400
N30490G01Y7.600
N30500X17.600
N30510Y4.400
N30520X4.400
N30530G01X4.200Y4.200
N30540G01Y7.800
N30550X17.800
N30560Y4.200
N30570X4.200
N30580G01X4.100Y4.000
N30590G01X3.994Y3.994
N30600Y8.006
N30610X18.006
N30620Y3.994
N30630X4.100Y4.000
N30640G00Z6.000
N30650G00X3.000Y8.900
N30660G01Z-2.651F80.0
N30670G2X2.929Y9.071I0.000J0.100F1010.0
N30680G2X3.100Y9.000I0.071J-0.071
N30690G01X3.106Y8.894
N30700X3.000Y8.900
N30710G00Z6.000
N30720G00X18.894Y8.894
N30730G01Z-2.651F80.0
N30740G01X18.900Y9.000F1010.0
N30750G2X19.071Y9.071I0.100J0.000
N30760G2X19.000Y8.900I-0.071J-0.071
N30770G01X18.894Y8.894
N30780G00Z6.000
N30790G00X18.900Y3.000
N30800G01Z-2.651F80.0
N30810G01X18.894Y3.106F1010.0
N30820X19.000Y3.100
N30830G2X19.071Y2.929I0.000J-0.100
N30840G2X18.900Y3.000I-0.071J0.071
N30850G00Z6.000
N30860G00X2.929Y2.929
N30870G01Z-2.721F80.0
N30880G2X3.000Y3.100I0.071J0.071F1010.0
N30890G01X3.106Y3.106
N30900X3.100Y3.000
N30910G2X2.929Y2.929I-0.100J0.000
N30920G00Z6.000
N30930G00X5.800Y5.800
N30940G01Z-2.721F80.0
N30950G01Y6.200F1010.0
N30960X16.200
N30970Y5.800
N30980X5.800
N30990G01X5.600Y5.600
N31000G01Y6.400
N31010X16.400
N31020Y5.600
N31030X5.600
N31040G01X5.400Y5.400
N31050G01Y6.600
N31060X16.600
N31070Y5.400
N31080X5.400
N31090G01X5.200Y5.200
N31100G01Y6.800
N31110X16.800
N31120Y5.200
N31130X5.200
N31140G01X5.000Y5.000
N31150G01Y7.000
N31160X17.000
N31170Y5.000
N31180X5.000
N31190G01X4.800Y4.800
N31200G01Y7.200
N31210X17.200
N31220Y4.800
N31230X4.800
N31240G01X4.600Y4.600
N31250G01Y7.400
N31260X17.400
N31270Y4.600
N31280X4.600
N31290G01X4.400Y4.400
N31300G01Y7.600
N31310X17.600
N31320Y4.400
N31330X4.400
N31340G01X4.200Y4.200
N31350G01Y7.800
N31360X17.800
N31370Y4.200
N31380X4.200
N31390G01X4.100Y4.000
N31400G01X3.994Y3.994
N31410Y8.006
N31420X18.006
N31430Y3.994
N31440X4.100Y4.000
N31450G00Z6.000
N31460G00X3.000Y8.900
N31470G01Z-2.721F80.0
N31480G2X2.929Y9.071I0.000J0.100F1010.0
N31490G2X3.100Y9.000I0.071J-0.071
N31500G01X3.106Y8.894
N31510X3.000Y8.900
N31520G00Z6.000
N31530G00X18.894Y8.894
N31540G01Z-2.721F80.0
N31550G01X18.900Y9.000F1010.0
N31560G2X19.071Y9.071I0.100J0.000
N31570G2X19.000Y8.900I-0.071J-0.071
N31580G01X18.894Y8.894
N31590G00Z6.000
N31600G00X18.900Y3.000
N31610G01Z-2.721F80.0
N31620G01X18.894Y3.106F1010.0
N31630X19.000Y3.100
N31640G2X19.071Y2.929I0.000J-0.100
N31650G2X18.900Y3.000I-0.071J0.071
N31660G00Z6.000
N31670G00X2.929Y2.929
N31680G01Z-2.791F80.0
N31690G2X3.000Y3.100I0.071J0.071F1010.0
N31700G01X3.106Y3.106
N31710X3.100Y3.000
N31720G2X2.929Y2.929I-0.100J0.000
N31730G00Z6.000
N31740G00X5.800Y5.800
N31750G01Z-2.791F80.0
N31760G01Y6.200F1010.0
N31770X16.200
N31780Y5.800
N31790X5.800
N31800G01X5.600Y5.600
N31810G01Y6.400
N31820X16.400
N31830Y5.600
N31840X5.600
N31850G01X5.400Y5.400
N31860G01Y6.600
N31870X16.600
N31880Y5.400
N31890X5.400
N31900G01X5.200Y5.200
N31910G01Y6.800
N31920X16.800
N31930Y5.200
N31940X5.200
N31950G01X5.000Y5.000
N31960G01Y7.000
N31970X17.000
N31980Y5.000
N31990X5.000
N32000G01X4.800Y4.800
N32010G01Y7.200
N32020X17.200
N32030Y4.800
N32040X4.800
N32050G01X4.600Y4.600
N32060G01Y7.400
N32070X17.400
N32080Y4.600
N32090X4.600
N32100G01X4.400Y4.400
N32110G01Y7.600
N32120X17.600
N32130Y4.400
N32140X4.400
N32150G01X4.200Y4.200
N32160G01Y7.800
N32170X17.800
N32180Y4.200
N32190X4.200
N32200G01X4.100Y4.000
N32210G01X3.994Y3.994
N32220Y8.006
N32230X18.006
N32240Y3.994
N32250X4.100Y4.000
N32260G00Z6.000
N32270G00X3.000Y8.900
N32280G01Z-2.791F80.0
N32290G2X2.929Y9.071I0.000J0.100F1010.0
N32300G2X3.100Y9.000I0.071J-0.071
N32310G01X3.106Y8.894
N32320X3.000Y8.900
N32330G00Z6.000
N32340G00X18.894Y8.894
N32350G01Z-2.791F80.0
N32360G01X18.900Y9.000F1010.0
N32370G2X19.071Y9.071I0.100J0.000
N32380G2X19.000Y8.900I-0.071J-0.071
N32390G01X18.894Y8.894
N32400G00Z6.000
N32410G00X18.900Y3.000
N32420G01Z-2.791F80.0
N32430G01X18.894Y3.106F1010.0
N32440X19.000Y3.100
N32450G2X19.071Y2.929I0.000J-0.100
N32460G2X18.900Y3.000I-0.071J0.071
N32470G00Z6.000
N32480G00X2.929Y2.929
N32490G01Z-2.860F80.0
N32500G2X3.000Y3.100I0.071J0.071F1010.0
N32510G01X3.106Y3.106
N32520X3.100Y3.000
N32530G2X2.929Y2.929I-0.100J0.000
N32540G00Z6.000
N32550G00X5.800Y5.800
N32560G01Z-2.860F80.0
N32570G01Y6.200F1010.0
N32580X16.200
N32590Y5.800
N32600X5.800
N32610G01X5.600Y5.600
N32620G01Y6.400
N32630X16.400
N32640Y5.600
N32650X5.600
N32660G01X5.400Y5.400
N32670G01Y6.600
N32680X16.600
N32690Y5.400
N32700X5.400
N32710G01X5.200Y5.200
N32720G01Y6.800
N32730X16.800
N32740Y5.200
N32750X5.200
N32760G01X5.000Y5.000
N32770G01Y7.000
N32780X17.000
N32790Y5.000
N32800X5.000
N32810G01X4.800Y4.800
N32820G01Y7.200
N32830X17.200
N32840Y4.800
N32850X4.800
N32860G01X4.600Y4.600
N32870G01Y7.400
N32880X17.400
N32890Y4.600
N32900X4.600
N32910G01X4.400Y4.400
N32920G01Y7.600
N32930X17.600
N32940Y4.400
N32950X4.400
N32960G01X4.200Y4.200
N32970G01Y7.800
N32980X17.800
N32990Y4.200
N33000X4.200
N33010G01X4.100Y4.000
N33020G01X3.994Y3.994
N33030Y8.006
N33040X18.006
N33050Y3.994
N33060X4.100Y4.000
N33070G00Z6.000
N33080G00X3.000Y8.900
N33090G01Z-2.860F80.0
N33100G2X2.929Y9.071I0.000J0.100F1010.0
N33110G2X3.100Y9.000I0.071J-0.071
N33120G01X3.106Y8.894
N33130X3.000Y8.900
N33140G00Z6.000
N33150G00X18.894Y8.894
N33160G01Z-2.860F80.0
N33170G01X18.900Y9.000F1010.0
N33180G2X19.071Y9.071I0.100J0.000
N33190G2X19.000Y8.900I-0.071J-0.071
N33200G01X18.894Y8.894
N33210G00Z6.000
N33220G00X18.900Y3.000
N33230G01Z-2.860F80.0
N33240G01X18.894Y3.106F1010.0
N33250X19.000Y3.100
N33260G2X19.071Y2.929I0.000J-0.100
N33270G2X18.900Y3.000I-0.071J0.071
N33280G00Z6.000
N33290G00X2.929Y2.929
N33300G01Z-2.930F80.0
N33310G2X3.000Y3.100I0.071J0.071F1010.0
N33320G01X3.106Y3.106
N33330X3.100Y3.000
N33340G2X2.929Y2.929I-0.100J0.000
N33350G00Z6.000
N33360G00X5.800Y5.800
N33370G01Z-2.930F80.0
N33380G01Y6.200F1010.0
N33390X16.200
N33400Y5.800
N33410X5.800
N33420G01X5.600Y5.600
N33430G01Y6.400
N33440X16.400
N33450Y5.600
N33460X5.600
N33470G01X5.400Y5.400
N33480G01Y6.600
N33490X16.600
N33500Y5.400
N33510X5.400
N33520G01X5.200Y5.200
N33530G01Y6.800
N33540X16.800
N33550Y5.200
N33560X5.200
N33570G01X5.000Y5.000
N33580G01Y7.000
N33590X17.000
N33600Y5.000
N33610X5.000
N33620G01X4.800Y4.800
N33630G01Y7.200
N33640X17.200
N33650Y4.800
N33660X4.800
N33670G01X4.600Y4.600
N33680G01Y7.400
N33690X17.400
N33700Y4.600
N33710X4.600
N33720G01X4.400Y4.400
N33730G01Y7.600
N33740X17.600
N33750Y4.400
N33760X4.400
N33770G01X4.200Y4.200
N33780G01Y7.800
N33790X17.800
N33800Y4.200
N33810X4.200
N33820G01X4.100Y4.000
N33830G01X3.994Y3.994
N33840Y8.006
N33850X18.006
N33860Y3.994
N33870X4.100Y4.000
N33880G00Z6.000
N33890G00X3.000Y8.900
N33900G01Z-2.930F80.0
N33910G2X2.929Y9.071I0.000J0.100F1010.0
N33920G2X3.100Y9.000I0.071J-0.071
N33930G01X3.106Y8.894
N33940X3.000Y8.900
N33950G00Z6.000
N33960G00X18.894Y8.894
N33970G01Z-2.930F80.0
N33980G01X18.900Y9.000F1010.0
N33990G2X19.071Y9.071I0.100J0.000
N34000G2X19.000Y8.900I-0.071J-0.071
N34010G01X18.894Y8.894
N34020G00Z6.000
N34030G00X18.900Y3.000
N34040G01Z-2.930F80.0
N34050G01X18.894Y3.106F1010.0
N34060X19.000Y3.100
N34070G2X19.071Y2.929I0.000J-0.100
N34080G2X18.900Y3.000I-0.071J0.071
N34090G00Z6.000
N34100G00X2.929Y2.929
N34110G01Z-3.000F80.0
N34120G2X3.000Y3.100I0.071J0.071F1010.0
N34130G01X3.106Y3.106
N34140X3.100Y3.000
N34150G2X2.929Y2.929I-0.100J0.000
N34160G00Z6.000
N34170G00X5.800Y5.800
N34180G01Z-3.000F80.0
N34190G01Y6.200F1010.0
N34200X16.200
N34210Y5.800
N34220X5.800
N34230G01X5.600Y5.600
N34240G01Y6.400
N34250X16.400
N34260Y5.600
N34270X5.600
N34280G01X5.400Y5.400
N34290G01Y6.600
N34300X16.600
N34310Y5.400
N34320X5.400
N34330G01X5.200Y5.200
N34340G01Y6.800
N34350X16.800
N34360Y5.200
N34370X5.200
N34380G01X5.000Y5.000
N34390G01Y7.000
N34400X17.000
N34410Y5.000
N34420X5.000
N34430G01X4.800Y4.800
N34440G01Y7.200
N34450X17.200
N34460Y4.800
N34470X4.800
N34480G01X4.600Y4.600
N34490G01Y7.400
N34500X17.400
N34510Y4.600
N34520X4.600
N34530G01X4.400Y4.400
N34540G01Y7.600
N34550X17.600
N34560Y4.400
N34570X4.400
N34580G01X4.200Y4.200
N34590G01Y7.800
N34600X17.800
N34610Y4.200
N34620X4.200
N34630G01X4.100Y4.000
N34640G01X3.994Y3.994
N34650Y8.006
N34660X18.006
N34670Y3.994
N34680X4.100Y4.000
N34690G00Z6.000
N34700G00X3.000Y8.900
N34710G01Z-3.000F80.0
N34720G2X2.929Y9.071I0.000J0.100F1010.0
N34730G2X3.100Y9.000I0.071J-0.071
N34740G01X3.106Y8.894
N34750X3.000Y8.900
N34760G00Z6.000
N34770G00X18.894Y8.894
N34780G01Z-3.000F80.0
N34790G01X18.900Y9.000F1010.0
N34800G2X19.071Y9.071I0.100J0.000
N34810G2X19.000Y8.900I-0.071J-0.071
N34820G01X18.894Y8.894
N34830G00Z6.000
N34840G00X18.900Y3.000
N34850G01Z-3.000F80.0
N34860G01X18.894Y3.106F1010.0
N34870X19.000Y3.100
N34880G2X19.071Y2.929I0.000J-0.100
N34890G2X18.900Y3.000I-0.071J0.071
N34900G00Z6.000
N34910G00X6.000Y6.400Z6.000
N34920G01Z-3.069F80.0
N34930G3X5.600Y6.000I0.000J-0.400F1010.0
N34940G3X6.000Y5.600I0.400J0.000
N34950G3X6.400Y6.000I0.000J0.400
N34960G3X6.000Y6.400I-0.400J0.000
N34970G01Z-3.138F80.0
N34980G3X5.600Y6.000I0.000J-0.400F1010.0
N34990G3X6.000Y5.600I0.400J0.000
N35000G3X6.400Y6.000I0.000J0.400
N35010G3X6.000Y6.400I-0.400J0.000
N35020G01Z-3.206F80.0
N35030G3X5.600Y6.000I0.000J-0.400F1010.0
N35040G3X6.000Y5.600I0.400J0.000
N35050G3X6.400Y6.000I0.000J0.400
N35060G3X6.000Y6.400I-0.400J0.000
N35070G01Z-3.275F80.0
N35080G3X5.600Y6.000I0.000J-0.400F1010.0
N35090G3X6.000Y5.600I0.400J0.000
N35100G3X6.400Y6.000I0.000J0.400
N35110G3X6.000Y6.400I-0.400J0.000
N35120G01Z-3.344F80.0
N35130G3X5.600Y6.000I0.000J-0.400F1010.0
N35140G3X6.000Y5.600I0.400J0.000
N35150G3X6.400Y6.000I0.000J0.400
N35160G3X6.000Y6.400I-0.400J0.000
N35170G01Z-3.412F80.0
N35180G3X5.600Y6.000I0.000J-0.400F1010.0
N35190G3X6.000Y5.600I0.400J0.000
N35200G3X6.400Y6.000I0.000J0.400
N35210G3X6.000Y6.400I-0.400J0.000
N35220G01Z-3.481F80.0
N35230G3X5.600Y6.000I0.000J-0.400F1010.0
N35240G3X6.000Y5.600I0.400J0.000
N35250G3X6.400Y6.000I0.000J0.400
N35260G3X6.000Y6.400I-0.400J0.000
N35270G01Z-3.550F80.0
N35280G3X5.600Y6.000I0.000J-0.400F1010.0
N35290G3X6.000Y5.600I0.400J0.000
N35300G3X6.400Y6.000I0.000J0.400
N35310G3X6.000Y6.400I-0.400J0.000
N35320G01Z-3.619F80.0
N35330G3X5.600Y6.000I0.000J-0.400F1010.0
N35340G3X6.000Y5.600I0.400J0.000
N35350G3X6.400Y6.000I0.000J0.400
N35360G3X6.000Y6.400I-0.400J0.000
N35370G01Z-3.688F80.0
N35380G3X5.600Y6.000I0.000J-0.400F1010.0
N35390G3X6.000Y5.600I0.400J0.000
N35400G3X6.400Y6.000I0.000J0.400
N35410G3X6.000Y6.400I-0.400J0.000
N35420G01Z-3.756F80.0
N35430G3X5.600Y6.000I0.000J-0.400F1010.0
N35440G3X6.000Y5.600I0.400J0.000
N35450G3X6.400Y6.000I0.000J0.400
N35460G3X6.000Y6.400I-0.400J0.000
N35470G01Z-3.825F80.0
N35480G3X5.600Y6.000I0.000J-0.400F1010.0
N35490G3X6.000Y5.600I0.400J0.000
N35500G3X6.400Y6.000I0.000J0.400
N35510G3X6.000Y6.400I-0.400J0.000
N35520G01Z-3.894F80.0
N35530G3X5.600Y6.000I0.000J-0.400F1010.0
N35540G3X6.000Y5.600I0.400J0.000
N35550G3X6.400Y6.000I0.000J0.400
N35560G3X6.000Y6.400I-0.400J0.000
N35570G01Z-3.963F80.0
N35580G3X5.600Y6.000I0.000J-0.400F1010.0
N35590G3X6.000Y5.600I0.400J0.000
N35600G3X6.400Y6.000I0.000J0.400
N35610G3X6.000Y6.400I-0.400J0.000
N35620G01Z-4.031F80.0
N35630G3X5.600Y6.000I0.000J-0.400F1010.0
N35640G3X6.000Y5.600I0.400J0.000
N35650G3X6.400Y6.000I0.000J0.400
N35660G3X6.000Y6.400I-0.400J0.000
N35670G01Z-4.100F80.0
N35680G3X5.600Y6.000I0.000J-0.400F1010.0
N35690G3X6.000Y5.600I0.400J0.000
N35700G3X6.400Y6.000I0.000J0.400
N35710G3X6.000Y6.400I-0.400J0.000
N35720G01Z-4.169F80.0
N35730G3X5.600Y6.000I0.000J-0.400F1010.0
N35740G3X6.000Y5.600I0.400J0.000
N35750G3X6.400Y6.000I0.000J0.400
N35760G3X6.000Y6.400I-0.400J0.000
N35770G01Z-4.238F80.0
N35780G3X5.600Y6.000I0.000J-0.400F1010.0
N35790G3X6.000Y5.600I0.400J0.000
N35800G3X6.400Y6.000I0.000J0.400
N35810G3X6.000Y6.400I-0.400J0.000
N35820G01Z-4.306F80.0
N35830G3X5.600Y6.000I0.000J-0.400F1010.0
N35840G3X6.000Y5.600I0.400J0.000
N35850G3X6.400Y6.000I0.000J0.400
N35860G3X6.000Y6.400I-0.400J0.000
N35870G01Z-4.375F80.0
N35880G3X5.600Y6.000I0.000J-0.400F1010.0
N35890G3X6.000Y5.600I0.400J0.000
N35900G3X6.400Y6.000I0.000J0.400
N35910G3X6.000Y6.400I-0.400J0.000
N35920G01Z-4.444F80.0
N35930G3X5.600Y6.000I0.000J-0.400F1010.0
N35940G3X6.000Y5.600I0.400J0.000
N35950G3X6.400Y6.000I0.000J0.400
N35960G3X6.000Y6.400I-0.400J0.000
N35970G01Z-4.512F80.0
N35980G3X5.600Y6.000I0.000J-0.400F1010.0
N35990G3X6.000Y5.600I0.400J0.000
N36000G3X6.400Y6.000I0.000J0.400
N36010G3X6.000Y6.400I-0.400J0.000
N36020G01Z-4.581F80.0
N36030G3X5.600Y6.000I0.000J-0.400F1010.0
N36040G3X6.000Y5.600I0.400J0.000
N36050G3X6.400Y6.000I0.000J0.400
N36060G3X6.000Y6.400I-0.400J0.000
N36070G01Z-4.650F80.0
N36080G3X5.600Y6.000I0.000J-0.400F1010.0
N36090G3X6.000Y5.600I0.400J0.000
N36100G3X6.400Y6.000I0.000J0.400
N36110G3X6.000Y6.400I-0.400J0.000
N36120G01Z-4.719F80.0
N36130G3X5.600Y6.000I0.000J-0.400F1010.0
N36140G3X6.000Y5.600I0.400J0.000
N36150G3X6.400Y6.000I0.000J0.400
N36160G3X6.000Y6.400I-0.400J0.000
N36170G01Z-4.787F80.0
N36180G3X5.600Y6.000I0.000J-0.400F1010.0
N36190G3X6.000Y5.600I0.400J0.000
N36200G3X6.400Y6.000I0.000J0.400
N36210G3X6.000Y6.400I-0.400J0.000
N36220G01Z-4.856F80.0
N36230G3X5.600Y6.000I0.000J-0.400F1010.0
N36240G3X6.000Y5.600I0.400J0.000
N36250G3X6.400Y6.000I0.000J0.400
N36260G3X6.000Y6.400I-0.400J0.000
N36270G01Z-4.925F80.0
N36280G3X5.600Y6.000I0.000J-0.400F1010.0
N36290G3X6.000Y5.600I0.400J0.000
N36300G3X6.400Y6.000I0.000J0.400
N36310G3X6.000Y6.400I-0.400J0.000
N36320G01Z-4.994F80.0
N36330G3X5.600Y6.000I0.000J-0.400F1010.0
N36340G3X6.000Y5.600I0.400J0.000
N36350G3X6.400Y6.000I0.000J0.400
N36360G3X6.000Y6.400I-0.400J0.000
N36370G01Z-5.063F80.0
N36380G3X5.600Y6.000I0.000J-0.400F1010.0
N36390G3X6.000Y5.600I0.400J0.000
N36400G3X6.400Y6.000I0.000J0.400
N36410G3X6.000Y6.400I-0.400J0.000
N36420G01Z-5.131F80.0
N36430G3X5.600Y6.000I0.000J-0.400F1010.0
N36440G3X6.000Y5.600I0.400J0.000
N36450G3X6.400Y6.000I0.000J0.400
N36460G3X6.000Y6.400I-0.400J0.000
N36470G01Z-5.200F80.0
N36480G3X5.600Y6.000I0.000J-0.400F1010.0
N36490G3X6.000Y5.600I0.400J0.000
N36500G3X6.400Y6.000I0.000J0.400
N36510G3X6.000Y6.400I-0.400J0.000
N36520G00Z6.000
N36530G00X16.000
N36540G01Z-3.069F80.0
N36550G3X15.600Y6.000I0.000J-0.400F1010.0
N36560G3X16.000Y5.600I0.400J0.000
N36570G3X16.400Y6.000I0.000J0.400
N36580G3X16.000Y6.400I-0.400J0.000
N36590G01Z-3.138F80.0
N36600G3X15.600Y6.000I0.000J-0.400F1010.0
N36610G3X16.000Y5.600I0.400J0.000
N36620G3X16.400Y6.000I0.000J0.400
N36630G3X16.000Y6.400I-0.400J0.000
N36640G01Z-3.206F80.0
N36650G3X15.600Y6.000I0.000J-0.400F1010.0
N36660G3X16.000Y5.600I0.400J0.000
N36670G3X16.400Y6.000I0.000J0.400
N36680G3X16.000Y6.400I-0.400J0.000
N36690G01Z-3.275F80.0
N36700G3X15.600Y6.000I0.000J-0.400F1010.0
N36710G3X16.000Y5.600I0.400J0.000
N36720G3X16.400Y6.000I0.000J0.400
N36730G3X16.000Y6.400I-0.400J0.000
N36740G01Z-3.344F80.0
N36750G3X15.600Y6.000I0.000J-0.400F1010.0
N36760G3X16.000Y5.600I0.400J0.000
N36770G3X16.400Y6.000I0.000J0.400
N36780G3X16.000Y6.400I-0.400J0.000
N36790G01Z-3.412F80.0
N36800G3X15.600Y6.000I0.000J-0.400F1010.0
N36810G3X16.000Y5.600I0.400J0.000
N36820G3X16.400Y6.000I0.000J0.400
N36830G3X16.000Y6.400I-0.400J0.000
N36840G01Z-3.481F80.0
N36850G3X15.600Y6.000I0.000J-0.400F1010.0
N36860G3X16.000Y5.600I0.400J0.000
N36870G3X16.400Y6.000I0.000J0.400
N36880G3X16.000Y6.400I-0.400J0.000
N36890G01Z-3.550F80.0
N36900G3X15.600Y6.000I0.000J-0.400F1010.0
N36910G3X16.000Y5.600I0.400J0.000
N36920G3X16.400Y6.000I0.000J0.400
N36930G3X16.000Y6.400I-0.400J0.000
N36940G01Z-3.619F80.0
N36950G3X15.600Y6.000I0.000J-0.400F1010.0
N36960G3X16.000Y5.600I0.400J0.000
N36970G3X16.400Y6.000I0.000J0.400
N36980G3X16.000Y6.400I-0.400J0.000
N36990G01Z-3.688F80.0
N37000G3X15.600Y6.000I0.000J-0.400F1010.0
N37010G3X16.000Y5.600I0.400J0.000
N37020G3X16.400Y6.000I0.000J0.400
N37030G3X16.000Y6.400I-0.400J0.000
N37040G01Z-3.756F80.0
N37050G3X15.600Y6.000I0.000J-0.400F1010.0
N37060G3X16.000Y5.600I0.400J0.000
N37070G3X16.400Y6.000I0.000J0.400
N37080G3X16.000Y6.400I-0.400J0.000
N37090G01Z-3.825F80.0
N37100G3X15.600Y6.000I0.000J-0.400F1010.0
N37110G3X16.000Y5.600I0.400J0.000
N37120G3X16.400Y6.000I0.000J0.400
N37130G3X16.000Y6.400I-0.400J0.000
N37140G01Z-3.894F80.0
N37150G3X15.600Y6.000I0.000J-0.400F1010.0
N37160G3X16.000Y5.600I0.400J0.000
N37170G3X16.400Y6.000I0.000J0.400
N37180G3X16.000Y6.400I-0.400J0.000
N37190G01Z-3.963F80.0
N37200G3X15.600Y6.000I0.000J-0.400F1010.0
N37210G3X16.000Y5.600I0.400J0.000
N37220G3X16.400Y6.000I0.000J0.400
N37230G3X16.000Y6.400I-0.400J0.000
N37240G01Z-4.031F80.0
N37250G3X15.600Y6.000I0.000J-0.400F1010.0
N37260G3X16.000Y5.600I0.400J0.000
N37270G3X16.400Y6.000I0.000J0.400
N37280G3X16.000Y6.400I-0.400J0.000
N37290G01Z-4.100F80.0
N37300G3X15.600Y6.000I0.000J-0.400F1010.0
N37310G3X16.000Y5.600I0.400J0.000
N37320G3X16.400Y6.000I0.000J0.400
N37330G3X16.000Y6.400I-0.400J0.000
N37340G01Z-4.169F80.0
N37350G3X15.600Y6.000I0.000J-0.400F1010.0
N37360G3X16.000Y5.600I0.400J0.000
N37370G3X16.400Y6.000I0.000J0.400
N37380G3X16.000Y6.400I-0.400J0.000
N37390G01Z-4.238F80.0
N37400G3X15.600Y6.000I0.000J-0.400F1010.0
N37410G3X16.000Y5.600I0.400J0.000
N37420G3X16.400Y6.000I0.000J0.400
N37430G3X16.000Y6.400I-0.400J0.000
N37440G01Z-4.306F80.0
N37450G3X15.600Y6.000I0.000J-0.400F1010.0
N37460G3X16.000Y5.600I0.400J0.000
N37470G3X16.400Y6.000I0.000J0.400
N37480G3X16.000Y6.400I-0.400J0.000
N37490G01Z-4.375F80.0
N37500G3X15.600Y6.000I0.000J-0.400F1010.0
N37510G3X16.000Y5.600I0.400J0.000
N37520G3X16.400Y6.000I0.000J0.400
N37530G3X16.000Y6.400I-0.400J0.000
N37540G01Z-4.444F80.0
N37550G3X15.600Y6.000I0.000J-0.400F1010.0
N37560G3X16.000Y5.600I0.400J0.000
N37570G3X16.400Y6.000I0.000J0.400
N37580G3X16.000Y6.400I-0.400J0.000
N37590G01Z-4.512F80.0
N37600G3X15.600Y6.000I0.000J-0.400F1010.0
N37610G3X16.000Y5.600I0.400J0.000
N37620G3X16.400Y6.000I0.000J0.400
N37630G3X16.000Y6.400I-0.400J0.000
N37640G01Z-4.581F80.0
N37650G3X15.600Y6.000I0.000J-0.400F1010.0
N37660G3X16.000Y5.600I0.400J0.000
N37670G3X16.400Y6.000I0.000J0.400
N37680G3X16.000Y6.400I-0.400J0.000
N37690G01Z-4.650F80.0
N37700G3X15.600Y6.000I0.000J-0.400F1010.0
N37710G3X16.000Y5.600I0.400J0.000
N37720G3X16.400Y6.000I0.000J0.400
N37730G3X16.000Y6.400I-0.400J0.000
N37740G01Z-4.719F80.0
N37750G3X15.600Y6.000I0.000J-0.400F1010.0
N37760G3X16.000Y5.600I0.400J0.000
N37770G3X16.400Y6.000I0.000J0.400
N37780G3X16.000Y6.400I-0.400J0.000
N37790G01Z-4.787F80.0
N37800G3X15.600Y6.000I0.000J-0.400F1010.0
N37810G3X16.000Y5.600I0.400J0.000
N37820G3X16.400Y6.000I0.000J0.400
N37830G3X16.000Y6.400I-0.400J0.000
N37840G01Z-4.856F80.0
N37850G3X15.600Y6.000I0.000J-0.400F1010.0
N37860G3X16.000Y5.600I0.400J0.000
N37870G3X16.400Y6.000I0.000J0.400
N37880G3X16.000Y6.400I-0.400J0.000
N37890G01Z-4.925F80.0
N37900G3X15.600Y6.000I0.000J-0.400F1010.0
N37910G3X16.000Y5.600I0.400J0.000
N37920G3X16.400Y6.000I0.000J0.400
N37930G3X16.000Y6.400I-0.400J0.000
N37940G01Z-4.994F80.0
N37950G3X15.600Y6.000I0.000J-0.400F1010.0
N37960G3X16.000Y5.600I0.400J0.000
N37970G3X16.400Y6.000I0.000J0.400
N37980G3X16.000Y6.400I-0.400J0.000
N37990G01Z-5.063F80.0
N38000G3X15.600Y6.000I0.000J-0.400F1010.0
N38010G3X16.000Y5.600I0.400J0.000
N38020G3X16.400Y6.000I0.000J0.400
N38030G3X16.000Y6.400I-0.400J0.000
N38040G01Z-5.131F80.0
N38050G3X15.600Y6.000I0.000J-0.400F1010.0
N38060G3X16.000Y5.600I0.400J0.000
N38070G3X16.400Y6.000I0.000J0.400
N38080G3X16.000Y6.400I-0.400J0.000
N38090G01Z-5.200F80.0
N38100G3X15.600Y6.000I0.000J-0.400F1010.0
N38110G3X16.000Y5.600I0.400J0.000
N38120G3X16.400Y6.000I0.000J0.400
N38130G3X16.000Y6.400I-0.400J0.000
N38140G00Z6.000
N38150G00X-1.000Y12.000Z6.000
N38160G01Z-0.088F80.0
N38170G2X0.000Y13.000I1.000J0.000F590.0
N38180G01X22.000
N38190G2X23.000Y12.000I0.000J-1.000
N38200G01Y0.000
N38210G2X22.000Y-1.000I-1.000J0.000
N38220G01X0.000
N38230G2X-1.000Y0.000I0.000J1.000
N38240G01Y12.000
N38250G01Z-0.176F80.0
N38260G2X0.000Y13.000I1.000J0.000F590.0
N38270G01X22.000
N38280G2X23.000Y12.000I0.000J-1.000
N38290G01Y0.000
N38300G2X22.000Y-1.000I-1.000J0.000
N38310G01X0.000
N38320G2X-1.000Y0.000I0.000J1.000
N38330G01Y12.000
N38340G01Z-0.264F80.0
N38350G2X0.000Y13.000I1.000J0.000F590.0
N38360G01X22.000
N38370G2X23.000Y12.000I0.000J-1.000
N38380G01Y0.000
N38390G2X22.000Y-1.000I-1.000J0.000
N38400G01X0.000
N38410G2X-1.000Y0.000I0.000J1.000
N38420G01Y12.000
N38430G01Z-0.352F80.0
N38440G2X0.000Y13.000I1.000J0.000F590.0
N38450G01X22.000
N38460G2X23.000Y12.000I0.000J-1.000
N38470G01Y0.000
N38480G2X22.000Y-1.000I-1.000J0.000
N38490G01X0.000
N38500G2X-1.000Y0.000I0.000J1.000
N38510G01Y12.000
N38520G01Z-0.440F80.0
N38530G2X0.000Y13.000I1.000J0.000F590.0
N38540G01X22.000
N38550G2X23.000Y12.000I0.000J-1.000
N38560G01Y0.000
N38570G2X22.000Y-1.000I-1.000J0.000
N38580G01X0.000
N38590G2X-1.000Y0.000I0.000J1.000
N38600G01Y12.000
N38610G01Z-0.528F80.0
N38620G2X0.000Y13.000I1.000J0.000F590.0
N38630G01X22.000
N38640G2X23.000Y12.000I0.000J-1.000
N38650G01Y0.000
N38660G2X22.000Y-1.000I-1.000J0.000
N38670G01X0.000
N38680G2X-1.000Y0.000I0.000J1.000
N38690G01Y12.000
N38700G01Z-0.616F80.0
N38710G2X0.000Y13.000I1.000J0.000F590.0
N38720G01X22.000
N38730G2X23.000Y12.000I0.000J-1.000
N38740G01Y0.000
N38750G2X22.000Y-1.000I-1.000J0.000
N38760G01X0.000
N38770G2X-1.000Y0.000I0.000J1.000
N38780G01Y12.000
N38790G01Z-0.704F80.0
N38800G2X0.000Y13.000I1.000J0.000F590.0
N38810G01X22.000
N38820G2X23.000Y12.000I0.000J-1.000
N38830G01Y0.000
N38840G2X22.000Y-1.000I-1.000J0.000
N38850G01X0.000
N38860G2X-1.000Y0.000I0.000J1.000
N38870G01Y12.000
N38880G01Z-0.792F80.0
N38890G2X0.000Y13.000I1.000J0.000F590.0
N38900G01X22.000
N38910G2X23.000Y12.000I0.000J-1.000
N38920G01Y0.000
N38930G2X22.000Y-1.000I-1.000J0.000
N38940G01X0.000
N38950G2X-1.000Y0.000I0.000J1.000
N38960G01Y12.000
N38970G01Z-0.880F80.0
N38980G2X0.000Y13.000I1.000J0.000F590.0
N38990G01X22.000
N39000G2X23.000Y12.000I0.000J-1.000
N39010G01Y0.000
N39020G2X22.000Y-1.000I-1.000J0.000
N39030G01X0.000
N39040G2X-1.000Y0.000I0.000J1.000
N39050G01Y12.000
N39060G01Z-0.968F80.0
N39070G2X0.000Y13.000I1.000J0.000F590.0
N39080G01X22.000
N39090G2X23.000Y12.000I0.000J-1.000
N39100G01Y0.000
N39110G2X22.000Y-1.000I-1.000J0.000
N39120G01X0.000
N39130G2X-1.000Y0.000I0.000J1.000
N39140G01Y12.000
N39150G01Z-1.056F80.0
N39160G2X0.000Y13.000I1.000J0.000F590.0
N39170G01X22.000
N39180G2X23.000Y12.000I0.000J-1.000
N39190G01Y0.000
N39200G2X22.000Y-1.000I-1.000J0.000
N39210G01X0.000
N39220G2X-1.000Y0.000I0.000J1.000
N39230G01Y12.000
N39240G01Z-1.144F80.0
N39250G2X0.000Y13.000I1.000J0.000F590.0
N39260G01X22.000
N39270G2X23.000Y12.000I0.000J-1.000
N39280G01Y0.000
N39290G2X22.000Y-1.000I-1.000J0.000
N39300G01X0.000
N39310G2X-1.000Y0.000I0.000J1.000
N39320G01Y12.000
N39330G01Z-1.232F80.0
N39340G2X0.000Y13.000I1.000J0.000F590.0
N39350G01X22.000
N39360G2X23.000Y12.000I0.000J-1.000
N39370G01Y0.000
N39380G2X22.000Y-1.000I-1.000J0.000
N39390G01X0.000
N39400G2X-1.000Y0.000I0.000J1.000
N39410G01Y12.000
N39420G01Z-1.320F80.0
N39430G2X0.000Y13.000I1.000J0.000F590.0
N39440G01X22.000
N39450G2X23.000Y12.000I0.000J-1.000
N39460G01Y0.000
N39470G2X22.000Y-1.000I-1.000J0.000
N39480G01X0.000
N39490G2X-1.000Y0.000I0.000J1.000
N39500G01Y12.000
N39510G01Z-1.408F80.0
N39520G2X0.000Y13.000I1.000J0.000F590.0
N39530G01X22.000
N39540G2X23.000Y12.000I0.000J-1.000
N39550G01Y0.000
N39560G2X22.000Y-1.000I-1.000J0.000
N39570G01X0.000
N39580G2X-1.000Y0.000I0.000J1.000
N39590G01Y12.000
N39600G01Z-1.496F80.0
N39610G2X0.000Y13.000I1.000J0.000F590.0
N39620G01X22.000
N39630G2X23.000Y12.000I0.000J-1.000
N39640G01Y0.000
N39650G2X22.000Y-1.000I-1.000J0.000
N39660G01X0.000
N39670G2X-1.000Y0.000I0.000J1.000
N39680G01Y12.000
N39690G01Z-1.584F80.0
N39700G2X0.000Y13.000I1.000J0.000F590.0
N39710G01X22.000
N39720G2X23.000Y12.000I0.000J-1.000
N39730G01Y0.000
N39740G2X22.000Y-1.000I-1.000J0.000
N39750G01X0.000
N39760G2X-1.000Y0.000I0.000J1.000
N39770G01Y12.000
N39780G01Z-1.672F80.0
N39790G2X0.000Y13.000I1.000J0.000F590.0
N39800G01X22.000
N39810G2X23.000Y12.000I0.000J-1.000
N39820G01Y0.000
N39830G2X22.000Y-1.000I-1.000J0.000
N39840G01X0.000
N39850G2X-1.000Y0.000I0.000J1.000
N39860G01Y12.000
N39870G01Z-1.760F80.0
N39880G2X0.000Y13.000I1.000J0.000F590.0
N39890G01X22.000
N39900G2X23.000Y12.000I0.000J-1.000
N39910G01Y0.000
N39920G2X22.000Y-1.000I-1.000J0.000
N39930G01X0.000
N39940G2X-1.000Y0.000I0.000J1.000
N39950G01Y12.000
N39960G01Z-1.848F80.0
N39970G2X0.000Y13.000I1.000J0.000F590.0
N39980G01X22.000
N39990G2X23.000Y12.000I0.000J-1.000
N40000G01Y0.000
N40010G2X22.000Y-1.000I-1.000J0.000
N40020G01X0.000
N40030G2X-1.000Y0.000I0.000J1.000
N40040G01Y12.000
N40050G01Z-1.936F80.0
N40060G2X0.000Y13.000I1.000J0.000F590.0
N40070G01X22.000
N40080G2X23.000Y12.000I0.000J-1.000
N40090G01Y0.000
N40100G2X22.000Y-1.000I-1.000J0.000
N40110G01X0.000
N40120G2X-1.000Y0.000I0.000J1.000
N40130G01Y12.000
N40140G01Z-2.024F80.0
N40150G2X0.000Y13.000I1.000J0.000F590.0
N40160G01X22.000
N40170G2X23.000Y12.000I0.000J-1.000
N40180G01Y0.000
N40190G2X22.000Y-1.000I-1.000J0.000
N40200G01X0.000
N40210G2X-1.000Y0.000I0.000J1.000
N40220G01Y12.000
N40230G01Z-2.112F80.0
N40240G2X0.000Y13.000I1.000J0.000F590.0
N40250G01X22.000
N40260G2X23.000Y12.000I0.000J-1.000
N40270G01Y0.000
N40280G2X22.000Y-1.000I-1.000J0.000
N40290G01X0.000
N40300G2X-1.000Y0.000I0.000J1.000
N40310G01Y12.000
N40320G01Z-2.200F80.0
N40330G2X0.000Y13.000I1.000J0.000F590.0
N40340G01X22.000
N40350G2X23.000Y12.000I0.000J-1.000
N40360G01Y0.000
N40370G2X22.000Y-1.000I-1.000J0.000
N40380G01X0.000
N40390G2X-1.000Y0.000I0.000J1.000
N40400G01Y12.000
N40410G00Z6.000
N40420G00Z20.000
N40430G00X0.000Y0.000
N40440M09
N40450M30
%
