( データ3 )
( File created: Thursday September 09 2021 - 02:39 PM)
( USBCNC Postprocessor )
( Material Size)
( X= 20.000, Y= 20.000, Z= 10.000)
()
(Toolpaths used in this file:)
(センター穴あけ)
(輪郭)
(Tools used in this file: )
(1 = End Mill {2mm} POM)
N110G00G21G17G90G40G49
N120G80
N130 (End Mill {2mm} POM)
N140G00G43Z20.000H1
N150S14000M03
N160(Toolpath:- センター穴あけ)
N170()
N180G94
N190X0.000Y0.000F800.0
N200G00X9.350Y10.000Z6.000
N210G1Z-6.592F120.0
N220G3X10.000Y9.350I0.650J0.000F800.0
N230G3X10.650Y10.000I0.000J0.650
N240G3X10.000Y10.650I-0.650J0.000
N250G3X9.350Y10.000I0.000J-0.650
N260G1Z-6.884F120.0
N270G3X10.000Y9.350I0.650J0.000F800.0
N280G3X10.650Y10.000I0.000J0.650
N290G3X10.000Y10.650I-0.650J0.000
N300G3X9.350Y10.000I0.000J-0.650
N310G1Z-7.176F120.0
N320G3X10.000Y9.350I0.650J0.000F800.0
N330G3X10.650Y10.000I0.000J0.650
N340G3X10.000Y10.650I-0.650J0.000
N350G3X9.350Y10.000I0.000J-0.650
N360G1Z-7.469F120.0
N370G3X10.000Y9.350I0.650J0.000F800.0
N380G3X10.650Y10.000I0.000J0.650
N390G3X10.000Y10.650I-0.650J0.000
N400G3X9.350Y10.000I0.000J-0.650
N410G1Z-7.761F120.0
N420G3X10.000Y9.350I0.650J0.000F800.0
N430G3X10.650Y10.000I0.000J0.650
N440G3X10.000Y10.650I-0.650J0.000
N450G3X9.350Y10.000I0.000J-0.650
N460G1Z-8.053F120.0
N470G3X10.000Y9.350I0.650J0.000F800.0
N480G3X10.650Y10.000I0.000J0.650
N490G3X10.000Y10.650I-0.650J0.000
N500G3X9.350Y10.000I0.000J-0.650
N510G1Z-8.346F120.0
N520G3X10.000Y9.350I0.650J0.000F800.0
N530G3X10.650Y10.000I0.000J0.650
N540G3X10.000Y10.650I-0.650J0.000
N550G3X9.350Y10.000I0.000J-0.650
N560G1Z-8.638F120.0
N570G3X10.000Y9.350I0.650J0.000F800.0
N580G3X10.650Y10.000I0.000J0.650
N590G3X10.000Y10.650I-0.650J0.000
N600G3X9.350Y10.000I0.000J-0.650
N610G1Z-8.930F120.0
N620G3X10.000Y9.350I0.650J0.000F800.0
N630G3X10.650Y10.000I0.000J0.650
N640G3X10.000Y10.650I-0.650J0.000
N650G3X9.350Y10.000I0.000J-0.650
N660G1Z-9.223F120.0
N670G3X10.000Y9.350I0.650J0.000F800.0
N680G3X10.650Y10.000I0.000J0.650
N690G3X10.000Y10.650I-0.650J0.000
N700G3X9.350Y10.000I0.000J-0.650
N710G1Z-9.515F120.0
N720G3X10.000Y9.350I0.650J0.000F800.0
N730G3X10.650Y10.000I0.000J0.650
N740G3X10.000Y10.650I-0.650J0.000
N750G3X9.350Y10.000I0.000J-0.650
N760G1Z-9.807F120.0
N770G3X10.000Y9.350I0.650J0.000F800.0
N780G3X10.650Y10.000I0.000J0.650
N790G3X10.000Y10.650I-0.650J0.000
N800G3X9.350Y10.000I0.000J-0.650
N810G1Z-10.100F120.0
N820G3X10.000Y9.350I0.650J0.000F800.0
N830G3X10.650Y10.000I0.000J0.650
N840G3X10.000Y10.650I-0.650J0.000
N850G3X9.350Y10.000I0.000J-0.650
N860G00Z6.000
N870S14000M03
(輪郭)
()
N900G00X10.000Y-1.000Z6.000
N910G1Z-6.592F120.0
N920G2X-1.000Y10.000I0.000J11.000F800.0
N930G2X10.000Y21.000I11.000J0.000
N940G2X21.000Y10.000I0.000J-11.000
N950G2X10.000Y-1.000I-11.000J0.000
N960G1Z-6.884F120.0
N970G2X-1.000Y10.000I0.000J11.000F800.0
N980G2X10.000Y21.000I11.000J0.000
N990G2X21.000Y10.000I0.000J-11.000
N1000G2X10.000Y-1.000I-11.000J0.000
N1010G1Z-7.176F120.0
N1020G2X-1.000Y10.000I0.000J11.000F800.0
N1030G2X10.000Y21.000I11.000J0.000
N1040G2X21.000Y10.000I0.000J-11.000
N1050G2X10.000Y-1.000I-11.000J0.000
N1060G1Z-7.469F120.0
N1070G2X-1.000Y10.000I0.000J11.000F800.0
N1080G2X10.000Y21.000I11.000J0.000
N1090G2X21.000Y10.000I0.000J-11.000
N1100G2X10.000Y-1.000I-11.000J0.000
N1110G1Z-7.761F120.0
N1120G2X-1.000Y10.000I0.000J11.000F800.0
N1130G2X10.000Y21.000I11.000J0.000
N1140G2X21.000Y10.000I0.000J-11.000
N1150G2X10.000Y-1.000I-11.000J0.000
N1160G1Z-8.053F120.0
N1170G2X-1.000Y10.000I0.000J11.000F800.0
N1180G2X10.000Y21.000I11.000J0.000
N1190G2X21.000Y10.000I0.000J-11.000
N1200G2X10.000Y-1.000I-11.000J0.000
N1210G1Z-8.346F120.0
N1220G2X-1.000Y10.000I0.000J11.000F800.0
N1230G2X10.000Y21.000I11.000J0.000
N1240G2X21.000Y10.000I0.000J-11.000
N1250G2X10.000Y-1.000I-11.000J0.000
N1260G1Z-8.638F120.0
N1270G2X-1.000Y10.000I0.000J11.000F800.0
N1280G2X10.000Y21.000I11.000J0.000
N1290G2X21.000Y10.000I0.000J-11.000
N1300G2X10.000Y-1.000I-11.000J0.000
N1310G1Z-8.930F120.0
N1320G2X-1.000Y10.000I0.000J11.000F800.0
N1330G2X10.000Y21.000I11.000J0.000
N1340G2X21.000Y10.000I0.000J-11.000
N1350G2X10.000Y-1.000I-11.000J0.000
N1360G1Z-9.223F120.0
N1370G2X-1.000Y10.000I0.000J11.000F800.0
N1380G2X10.000Y21.000I11.000J0.000
N1390G2X21.000Y10.000I0.000J-11.000
N1400G2X10.000Y-1.000I-11.000J0.000
N1410G1Z-9.515F120.0
N1420G2X-1.000Y10.000I0.000J11.000F800.0
N1430G2X10.000Y21.000I11.000J0.000
N1440G2X21.000Y10.000I0.000J-11.000
N1450G2X10.000Y-1.000I-11.000J0.000
N1460G1Z-9.807F120.0
N1470G2X-1.000Y10.000I0.000J11.000F800.0
N1480G2X10.000Y21.000I11.000J0.000
N1490G2X21.000Y10.000I0.000J-11.000
N1500G2X10.000Y-1.000I-11.000J0.000
N1510G1Z-10.100F120.0
N1520G2X-1.000Y10.000I0.000J11.000F800.0
N1530G2X10.000Y21.000I11.000J0.000
N1540G2X21.000Y10.000I0.000J-11.000
N1550G2X10.000Y-1.000I-11.000J0.000
N1560G00Z6.000
N1570G00Z20.000
N1580G00X0.000Y0.000
N1590M09
N1600M30
%
