( データ1 )
( File created: Thursday September 09 2021 - 02:38 PM)
( USBCNC Postprocessor )
( Material Size)
( X= 20.000, Y= 20.000, Z= 10.000)
()
(Toolpaths used in this file:)
(ポケット 1)
(ポケット 2)
(軸輪郭)
(Tools used in this file: )
(1 = End Mill {2mm} POM)
N120G00G21G17G90G40G49
N130G80
N140 (End Mill {2mm} POM)
N150G00G43Z20.000H1
N160S14000M03
N170(Toolpath:- ポケット 1)
N180()
N190G94
N200X0.000Y0.000F800.0
N210G00X2.044Y2.046Z6.000
N220G1Z-0.300F120.0
N230G1X2.301Y1.815F800.0
N240G1X2.581Y1.612
N250G1X2.883Y1.439
N260G1X3.347Y1.235
N270G1X4.172Y0.670
N280G1X4.932Y0.236
N290G1X5.723Y-0.135
N300G1X6.540Y-0.442
N310G1X7.380Y-0.684
N320G1X8.240Y-0.859
N330G1X9.114Y-0.965
N340G1X10.000Y-1.001
N350G1X10.887Y-0.965
N360G1X11.763Y-0.859
N370G1X12.622Y-0.684
N380G1X13.462Y-0.442
N390G1X14.279Y-0.134
N400G1X15.068Y0.237
N410G1X15.827Y0.670
N420G1X16.650Y1.234
N430G1X17.116Y1.438
N440G1X17.418Y1.611
N450G1X17.700Y1.815
N460G1X17.958Y2.047
N470G1X18.189Y2.306
N480G1X18.393Y2.587
N490G1X18.566Y2.890
N500G1X18.770Y3.356
N510G1X19.335Y4.182
N520G1X19.768Y4.942
N530G1X20.139Y5.732
N540G1X20.445Y6.548
N550G1X20.686Y7.387
N560G1X20.860Y8.245
N570G1X20.965Y9.117
N580G1X21.001Y10.000
N590G1X20.965Y10.889
N600G1X20.858Y11.765
N610G1X20.683Y12.626
N620G1X20.440Y13.466
N630G1X20.133Y14.284
N640G1X19.761Y15.074
N650G1X19.328Y15.832
N660G1X18.763Y16.656
N670G1X18.560Y17.118
N680G1X18.389Y17.417
N690G1X18.187Y17.696
N700G1X17.958Y17.952
N710G1X17.703Y18.181
N720G1X17.425Y18.383
N730G1X17.126Y18.555
N740G1X16.665Y18.758
N750G1X15.837Y19.326
N760G1X15.075Y19.761
N770G1X14.282Y20.134
N780G1X13.462Y20.442
N790G1X12.621Y20.684
N800G1X11.760Y20.859
N810G1X10.886Y20.965
N820G1X10.000Y21.001
N830G1X9.115Y20.965
N840G1X8.242Y20.859
N850G1X7.383Y20.685
N860G1X6.543Y20.443
N870G1X5.726Y20.136
N880G1X4.935Y19.765
N890G1X4.175Y19.332
N900G1X3.350Y18.766
N910G1X2.884Y18.562
N920G1X2.582Y18.389
N930G1X2.301Y18.185
N940G1X2.043Y17.953
N950G1X1.811Y17.695
N960G1X1.607Y17.413
N970G1X1.434Y17.111
N980G1X1.231Y16.645
N990G1X0.667Y15.821
N1000G1X0.234Y15.062
N1010G1X-0.136Y14.273
N1020G1X-0.443Y13.457
N1030G1X-0.685Y12.618
N1040G1X-0.859Y11.760
N1050G1X-0.965Y10.886
N1060G1X-1.001Y10.000
N1070G1X-0.965Y9.114
N1080G1X-0.859Y8.240
N1090G1X-0.685Y7.381
N1100G1X-0.443Y6.541
N1110G1X-0.136Y5.724
N1120G1X0.235Y4.934
N1130G1X0.669Y4.175
N1140G1X1.234Y3.350
N1150G1X1.437Y2.885
N1160G1X1.610Y2.584
N1170G1X1.813Y2.303
N1180G1X2.044Y2.046
N1190G00Z6.000
N1200G00X14.635Y8.904
N1210G1Z-0.300F120.0
N1220G1X14.325Y9.565F800.0
N1230G1X14.073Y10.000
N1240G1X14.401Y10.583
N1250G1X14.635Y11.096
N1260G1X14.325Y10.435
N1270G1X14.073Y10.000
N1280G1X12.014
N1290G1X14.073
N1300G1X14.401Y9.417
N1310G1X14.635Y8.904
N1320G1X15.614Y8.628
N1330G1X15.738Y9.306
N1340G1X15.780Y10.000
N1350G1X15.737Y10.698
N1360G1X15.613Y11.379
N1370G1X15.409Y12.038
N1380G1X15.128Y12.666
N1390G1X15.104Y12.710
N1400G1X15.211Y13.502
N1410G1X15.234Y13.859
N1420G1X15.168Y13.113
N1430G1X15.104Y12.710
N1440G2X10.000Y10.781I-5.104J5.790
N1450G2X4.896Y12.709I0.000J7.719
N1460G1X4.786Y13.543
N1470G1X4.767Y13.858
N1480G1X4.833Y13.114
N1490G1X4.896Y12.709
N1500G1X4.674Y12.244
N1510G1X4.445Y11.597
N1520G1X4.295Y10.924
N1530G1X4.225Y10.234
N1540G1X4.239Y9.534
N1550G1X4.336Y8.849
N1560G1X4.513Y8.183
N1570G1X4.768Y7.545
N1580G1X4.896Y7.291
N1590G1X4.790Y6.498
N1600G1X4.766Y6.141
N1610G1X4.833Y6.887
N1620G1X4.896Y7.291
N1630G2X10.000Y9.219I5.104J-5.790
N1640G2X15.104Y7.291I0.000J-7.719
N1650G1X15.213Y6.459
N1660G1X15.233Y6.142
N1670G1X15.167Y6.886
N1680G1X15.104Y7.291
N1690G1X15.327Y7.759
N1700G1X15.556Y8.406
N1710G1X15.614Y8.628
N1720G1X17.305Y8.214
N1730G1X17.424Y8.800
N1740G1X17.496Y9.396
N1750G1X17.520Y10.000
N1760G1X17.496Y10.608
N1770G1X17.423Y11.207
N1780G1X17.303Y11.795
N1790G1X17.137Y12.370
N1800G1X16.927Y12.928
N1810G1X16.673Y13.469
N1820G1X16.376Y13.987
N1830G1X15.987Y14.555
N1840G2X15.534Y15.353I3.650J2.597
N1850G1X15.480Y15.478
N1860G1X15.656Y15.653
N1870G1X15.480Y15.478
N1880G1X15.224Y15.593
N1890G1X14.909Y16.624
N1900G1X15.224Y15.593
N1910G2X10.000Y12.521I-5.224J2.907
N1920G2X4.775Y15.593I0.000J5.979
N1930G1X5.091Y16.622
N1940G1X4.775Y15.593
N1950G1X4.519Y15.479
N1960G1X4.358Y15.640
N1970G1X4.519Y15.479
N1980G1X4.461Y15.347
N1990G2X4.007Y14.544I-4.105J1.793
N2000G1X3.619Y13.977
N2010G1X3.324Y13.459
N2020G1X3.071Y12.920
N2030G1X2.861Y12.363
N2040G1X2.696Y11.789
N2050G1X2.577Y11.203
N2060G1X2.504Y10.606
N2070G1X2.480Y10.000
N2080G1X2.504Y9.394
N2090G1X2.577Y8.797
N2100G1X2.696Y8.210
N2110G1X2.861Y7.636
N2120G1X3.071Y7.077
N2130G1X3.325Y6.537
N2140G1X3.621Y6.019
N2150G1X4.010Y5.450
N2160G2X4.464Y4.650I-3.650J-2.596
N2170G1X4.520Y4.521
N2180G1X4.354Y4.355
N2190G1X4.520Y4.521
N2200G1X4.775Y4.407
N2210G1X5.091Y3.377
N2220G1X4.775Y4.407
N2230G2X10.000Y7.479I5.225J-2.907
N2240G2X15.225Y4.407I0.000J-5.979
N2250G1X14.909Y3.378
N2260G1X15.225Y4.407
N2270G1X15.481Y4.521
N2280G1X15.642Y4.360
N2290G1X15.481Y4.521
N2300G1X15.539Y4.653
N2310G2X15.993Y5.457I4.105J-1.791
N2320G1X16.382Y6.025
N2330G1X16.678Y6.544
N2340G1X16.931Y7.083
N2350G1X17.140Y7.641
N2360G1X17.305Y8.214
N2370G1X18.995Y7.801
N2380G1X19.142Y8.523
N2390G1X19.231Y9.257
N2400G1X19.260Y10.000
N2410G1X19.230Y10.748
N2420G1X19.141Y11.486
N2430G1X18.993Y12.210
N2440G1X18.789Y12.918
N2450G1X18.530Y13.606
N2460G1X18.217Y14.271
N2470G1X17.852Y14.910
N2480G1X17.405Y15.564
N2490G2X17.128Y16.052I2.232J1.588
N2500G1X17.004Y16.334
N2510G1X16.831Y16.602
N2520G1X16.606Y16.828
N2530G1X16.339Y17.000
N2540G1X16.058Y17.124
N2550G2X15.572Y17.400I1.103J2.507
N2560G1X14.915Y17.850
N2570G1X14.231Y18.237
N2580G1X13.864Y18.811
N2590G1X13.431Y19.354
N2600G1X13.402Y19.385
N2610G1X13.844Y18.840
N2620G1X14.211Y18.271
N2630G1X14.231Y18.237
N2640G2X10.000Y14.261I-4.231J0.263
N2650G2X5.769Y18.236I0.000J4.239
N2660G1X6.136Y18.811
N2670G1X6.569Y19.354
N2680G1X6.598Y19.385
N2690G1X6.157Y18.840
N2700G1X5.790Y18.271
N2710G1X5.769Y18.236
N2720G1X5.097Y17.856
N2730G1X4.442Y17.408
N2740G2X3.953Y17.131I-1.587J2.232
N2750G1X3.668Y17.006
N2760G1X3.397Y16.831
N2770G1X3.167Y16.601
N2780G1X2.991Y16.328
N2790G1X2.867Y16.043
N2800G2X2.589Y15.552I-2.510J1.096
N2810G1X2.143Y14.899
N2820G1X1.779Y14.261
N2830G1X1.467Y13.597
N2840G1X1.209Y12.910
N2850G1X1.006Y12.204
N2860G1X0.859Y11.481
N2870G1X0.770Y10.746
N2880G1X0.740Y10.000
N2890G1X0.770Y9.254
N2900G1X0.859Y8.519
N2910G1X1.006Y7.796
N2920G1X1.209Y7.089
N2930G1X1.468Y6.401
N2940G1X1.780Y5.736
N2950G1X2.145Y5.097
N2960G1X2.592Y4.442
N2970G2X2.869Y3.953I-2.232J-1.587
N2980G1X2.994Y3.668
N2990G1X3.168Y3.398
N3000G1X3.397Y3.170
N3010G1X3.667Y2.995
N3020G1X3.951Y2.870
N3030G2X4.439Y2.594I-1.099J-2.509
N3040G1X5.094Y2.146
N3050G1X5.769Y1.763
N3060G1X6.136Y1.189
N3070G1X6.569Y0.646
N3080G1X6.598Y0.615
N3090G1X6.157Y1.160
N3100G1X5.789Y1.729
N3110G1X5.769Y1.763
N3120G2X10.000Y5.739I4.231J-0.263
N3130G2X14.231Y1.764I0.000J-4.239
N3140G1X13.864Y1.189
N3150G1X13.431Y0.646
N3160G1X13.402Y0.615
N3170G1X13.843Y1.160
N3180G1X14.210Y1.729
N3190G1X14.231Y1.764
N3200G1X14.905Y2.146
N3210G1X15.558Y2.592
N3220G2X16.047Y2.869I1.587J-2.232
N3230G1X16.332Y2.994
N3240G1X16.604Y3.170
N3250G1X16.833Y3.400
N3260G1X17.009Y3.672
N3270G1X17.133Y3.957
N3280G2X17.411Y4.449I2.510J-1.095
N3290G1X17.859Y5.104
N3300G1X18.223Y5.743
N3310G1X18.535Y6.408
N3320G1X18.793Y7.095
N3330G1X18.995Y7.801
N3340G00Z6.000
N3350G00X5.365Y8.904
N3360G1Z-0.300F120.0
N3370G1X5.675Y9.565F800.0
N3380G1X5.927Y10.000
N3390G1X7.986
N3400G1X5.927Y10.000
N3410G1X5.599Y10.583
N3420G1X5.365Y11.096
N3430G1X5.675Y10.435
N3440G1X5.927Y10.000
N3450G1X5.599Y9.417
N3460G1X5.365Y8.904
N3470G00Z6.000
N3480G00X7.501Y18.500
N3490G1Z-0.300F120.0
N3500G2X10.000Y20.999I2.499J0.000F800.0
N3510G2X12.499Y18.500I0.000J-2.499
N3520G2X10.000Y16.001I-2.499J0.000
N3530G2X7.501Y18.500I0.000J2.499
N3540G00Z6.000
N3550G00X10.000Y-0.999
N3560G1Z-0.300F120.0
N3570G2X7.501Y1.500I0.000J2.499F800.0
N3580G2X10.000Y3.999I2.499J0.000
N3590G2X12.499Y1.500I0.000J-2.499
N3600G2X10.000Y-0.999I-2.499J0.000
N3610G00Z6.000
N3620G00X2.044Y2.046
N3630G1Z-0.600F120.0
N3640G1X2.301Y1.815F800.0
N3650G1X2.581Y1.612
N3660G1X2.883Y1.439
N3670G1X3.347Y1.235
N3680G1X4.172Y0.670
N3690G1X4.932Y0.236
N3700G1X5.723Y-0.135
N3710G1X6.540Y-0.442
N3720G1X7.380Y-0.684
N3730G1X8.240Y-0.859
N3740G1X9.114Y-0.965
N3750G1X10.000Y-1.001
N3760G1X10.887Y-0.965
N3770G1X11.763Y-0.859
N3780G1X12.622Y-0.684
N3790G1X13.462Y-0.442
N3800G1X14.279Y-0.134
N3810G1X15.068Y0.237
N3820G1X15.827Y0.670
N3830G1X16.650Y1.234
N3840G1X17.116Y1.438
N3850G1X17.418Y1.611
N3860G1X17.700Y1.815
N3870G1X17.958Y2.047
N3880G1X18.189Y2.306
N3890G1X18.393Y2.587
N3900G1X18.566Y2.890
N3910G1X18.770Y3.356
N3920G1X19.335Y4.182
N3930G1X19.768Y4.942
N3940G1X20.139Y5.732
N3950G1X20.445Y6.548
N3960G1X20.686Y7.387
N3970G1X20.860Y8.245
N3980G1X20.965Y9.117
N3990G1X21.001Y10.000
N4000G1X20.965Y10.889
N4010G1X20.858Y11.765
N4020G1X20.683Y12.626
N4030G1X20.440Y13.466
N4040G1X20.133Y14.284
N4050G1X19.761Y15.074
N4060G1X19.328Y15.832
N4070G1X18.763Y16.656
N4080G1X18.560Y17.118
N4090G1X18.389Y17.417
N4100G1X18.187Y17.696
N4110G1X17.958Y17.952
N4120G1X17.703Y18.181
N4130G1X17.425Y18.383
N4140G1X17.126Y18.555
N4150G1X16.665Y18.758
N4160G1X15.837Y19.326
N4170G1X15.075Y19.761
N4180G1X14.282Y20.134
N4190G1X13.462Y20.442
N4200G1X12.621Y20.684
N4210G1X11.760Y20.859
N4220G1X10.886Y20.965
N4230G1X10.000Y21.001
N4240G1X9.115Y20.965
N4250G1X8.242Y20.859
N4260G1X7.383Y20.685
N4270G1X6.543Y20.443
N4280G1X5.726Y20.136
N4290G1X4.935Y19.765
N4300G1X4.175Y19.332
N4310G1X3.350Y18.766
N4320G1X2.884Y18.562
N4330G1X2.582Y18.389
N4340G1X2.301Y18.185
N4350G1X2.043Y17.953
N4360G1X1.811Y17.695
N4370G1X1.607Y17.413
N4380G1X1.434Y17.111
N4390G1X1.231Y16.645
N4400G1X0.667Y15.821
N4410G1X0.234Y15.062
N4420G1X-0.136Y14.273
N4430G1X-0.443Y13.457
N4440G1X-0.685Y12.618
N4450G1X-0.859Y11.760
N4460G1X-0.965Y10.886
N4470G1X-1.001Y10.000
N4480G1X-0.965Y9.114
N4490G1X-0.859Y8.240
N4500G1X-0.685Y7.381
N4510G1X-0.443Y6.541
N4520G1X-0.136Y5.724
N4530G1X0.235Y4.934
N4540G1X0.669Y4.175
N4550G1X1.234Y3.350
N4560G1X1.437Y2.885
N4570G1X1.610Y2.584
N4580G1X1.813Y2.303
N4590G1X2.044Y2.046
N4600G00Z6.000
N4610G00X14.635Y8.904
N4620G1Z-0.600F120.0
N4630G1X14.325Y9.565F800.0
N4640G1X14.073Y10.000
N4650G1X14.401Y10.583
N4660G1X14.635Y11.096
N4670G1X14.325Y10.435
N4680G1X14.073Y10.000
N4690G1X12.014
N4700G1X14.073
N4710G1X14.401Y9.417
N4720G1X14.635Y8.904
N4730G1X15.614Y8.628
N4740G1X15.738Y9.306
N4750G1X15.780Y10.000
N4760G1X15.737Y10.698
N4770G1X15.613Y11.379
N4780G1X15.409Y12.038
N4790G1X15.128Y12.666
N4800G1X15.104Y12.710
N4810G1X15.211Y13.502
N4820G1X15.234Y13.859
N4830G1X15.168Y13.113
N4840G1X15.104Y12.710
N4850G2X10.000Y10.781I-5.104J5.790
N4860G2X4.896Y12.709I0.000J7.719
N4870G1X4.786Y13.543
N4880G1X4.767Y13.858
N4890G1X4.833Y13.114
N4900G1X4.896Y12.709
N4910G1X4.674Y12.244
N4920G1X4.445Y11.597
N4930G1X4.295Y10.924
N4940G1X4.225Y10.234
N4950G1X4.239Y9.534
N4960G1X4.336Y8.849
N4970G1X4.513Y8.183
N4980G1X4.768Y7.545
N4990G1X4.896Y7.291
N5000G1X4.790Y6.498
N5010G1X4.766Y6.141
N5020G1X4.833Y6.887
N5030G1X4.896Y7.291
N5040G2X10.000Y9.219I5.104J-5.790
N5050G2X15.104Y7.291I0.000J-7.719
N5060G1X15.213Y6.459
N5070G1X15.233Y6.142
N5080G1X15.167Y6.886
N5090G1X15.104Y7.291
N5100G1X15.327Y7.759
N5110G1X15.556Y8.406
N5120G1X15.614Y8.628
N5130G1X17.305Y8.214
N5140G1X17.424Y8.800
N5150G1X17.496Y9.396
N5160G1X17.520Y10.000
N5170G1X17.496Y10.608
N5180G1X17.423Y11.207
N5190G1X17.303Y11.795
N5200G1X17.137Y12.370
N5210G1X16.927Y12.928
N5220G1X16.673Y13.469
N5230G1X16.376Y13.987
N5240G1X15.987Y14.555
N5250G2X15.534Y15.353I3.650J2.597
N5260G1X15.480Y15.478
N5270G1X15.656Y15.653
N5280G1X15.480Y15.478
N5290G1X15.224Y15.593
N5300G1X14.909Y16.624
N5310G1X15.224Y15.593
N5320G2X10.000Y12.521I-5.224J2.907
N5330G2X4.775Y15.593I0.000J5.979
N5340G1X5.091Y16.622
N5350G1X4.775Y15.593
N5360G1X4.519Y15.479
N5370G1X4.358Y15.640
N5380G1X4.519Y15.479
N5390G1X4.461Y15.347
N5400G2X4.007Y14.544I-4.105J1.793
N5410G1X3.619Y13.977
N5420G1X3.324Y13.459
N5430G1X3.071Y12.920
N5440G1X2.861Y12.363
N5450G1X2.696Y11.789
N5460G1X2.577Y11.203
N5470G1X2.504Y10.606
N5480G1X2.480Y10.000
N5490G1X2.504Y9.394
N5500G1X2.577Y8.797
N5510G1X2.696Y8.210
N5520G1X2.861Y7.636
N5530G1X3.071Y7.077
N5540G1X3.325Y6.537
N5550G1X3.621Y6.019
N5560G1X4.010Y5.450
N5570G2X4.464Y4.650I-3.650J-2.596
N5580G1X4.520Y4.521
N5590G1X4.354Y4.355
N5600G1X4.520Y4.521
N5610G1X4.775Y4.407
N5620G1X5.091Y3.377
N5630G1X4.775Y4.407
N5640G2X10.000Y7.479I5.225J-2.907
N5650G2X15.225Y4.407I0.000J-5.979
N5660G1X14.909Y3.378
N5670G1X15.225Y4.407
N5680G1X15.481Y4.521
N5690G1X15.642Y4.360
N5700G1X15.481Y4.521
N5710G1X15.539Y4.653
N5720G2X15.993Y5.457I4.105J-1.791
N5730G1X16.382Y6.025
N5740G1X16.678Y6.544
N5750G1X16.931Y7.083
N5760G1X17.140Y7.641
N5770G1X17.305Y8.214
N5780G1X18.995Y7.801
N5790G1X19.142Y8.523
N5800G1X19.231Y9.257
N5810G1X19.260Y10.000
N5820G1X19.230Y10.748
N5830G1X19.141Y11.486
N5840G1X18.993Y12.210
N5850G1X18.789Y12.918
N5860G1X18.530Y13.606
N5870G1X18.217Y14.271
N5880G1X17.852Y14.910
N5890G1X17.405Y15.564
N5900G2X17.128Y16.052I2.232J1.588
N5910G1X17.004Y16.334
N5920G1X16.831Y16.602
N5930G1X16.606Y16.828
N5940G1X16.339Y17.000
N5950G1X16.058Y17.124
N5960G2X15.572Y17.400I1.103J2.507
N5970G1X14.915Y17.850
N5980G1X14.231Y18.237
N5990G1X13.864Y18.811
N6000G1X13.431Y19.354
N6010G1X13.402Y19.385
N6020G1X13.844Y18.840
N6030G1X14.211Y18.271
N6040G1X14.231Y18.237
N6050G2X10.000Y14.261I-4.231J0.263
N6060G2X5.769Y18.236I0.000J4.239
N6070G1X6.136Y18.811
N6080G1X6.569Y19.354
N6090G1X6.598Y19.385
N6100G1X6.157Y18.840
N6110G1X5.790Y18.271
N6120G1X5.769Y18.236
N6130G1X5.097Y17.856
N6140G1X4.442Y17.408
N6150G2X3.953Y17.131I-1.587J2.232
N6160G1X3.668Y17.006
N6170G1X3.397Y16.831
N6180G1X3.167Y16.601
N6190G1X2.991Y16.328
N6200G1X2.867Y16.043
N6210G2X2.589Y15.552I-2.510J1.096
N6220G1X2.143Y14.899
N6230G1X1.779Y14.261
N6240G1X1.467Y13.597
N6250G1X1.209Y12.910
N6260G1X1.006Y12.204
N6270G1X0.859Y11.481
N6280G1X0.770Y10.746
N6290G1X0.740Y10.000
N6300G1X0.770Y9.254
N6310G1X0.859Y8.519
N6320G1X1.006Y7.796
N6330G1X1.209Y7.089
N6340G1X1.468Y6.401
N6350G1X1.780Y5.736
N6360G1X2.145Y5.097
N6370G1X2.592Y4.442
N6380G2X2.869Y3.953I-2.232J-1.587
N6390G1X2.994Y3.668
N6400G1X3.168Y3.398
N6410G1X3.397Y3.170
N6420G1X3.667Y2.995
N6430G1X3.951Y2.870
N6440G2X4.439Y2.594I-1.099J-2.509
N6450G1X5.094Y2.146
N6460G1X5.769Y1.763
N6470G1X6.136Y1.189
N6480G1X6.569Y0.646
N6490G1X6.598Y0.615
N6500G1X6.157Y1.160
N6510G1X5.789Y1.729
N6520G1X5.769Y1.763
N6530G2X10.000Y5.739I4.231J-0.263
N6540G2X14.231Y1.764I0.000J-4.239
N6550G1X13.864Y1.189
N6560G1X13.431Y0.646
N6570G1X13.402Y0.615
N6580G1X13.843Y1.160
N6590G1X14.210Y1.729
N6600G1X14.231Y1.764
N6610G1X14.905Y2.146
N6620G1X15.558Y2.592
N6630G2X16.047Y2.869I1.587J-2.232
N6640G1X16.332Y2.994
N6650G1X16.604Y3.170
N6660G1X16.833Y3.400
N6670G1X17.009Y3.672
N6680G1X17.133Y3.957
N6690G2X17.411Y4.449I2.510J-1.095
N6700G1X17.859Y5.104
N6710G1X18.223Y5.743
N6720G1X18.535Y6.408
N6730G1X18.793Y7.095
N6740G1X18.995Y7.801
N6750G00Z6.000
N6760G00X5.365Y8.904
N6770G1Z-0.600F120.0
N6780G1X5.675Y9.565F800.0
N6790G1X5.927Y10.000
N6800G1X7.986
N6810G1X5.927Y10.000
N6820G1X5.599Y10.583
N6830G1X5.365Y11.096
N6840G1X5.675Y10.435
N6850G1X5.927Y10.000
N6860G1X5.599Y9.417
N6870G1X5.365Y8.904
N6880G00Z6.000
N6890G00X7.501Y18.500
N6900G1Z-0.600F120.0
N6910G2X10.000Y20.999I2.499J0.000F800.0
N6920G2X12.499Y18.500I0.000J-2.499
N6930G2X10.000Y16.001I-2.499J0.000
N6940G2X7.501Y18.500I0.000J2.499
N6950G00Z6.000
N6960G00X10.000Y-0.999
N6970G1Z-0.600F120.0
N6980G2X7.501Y1.500I0.000J2.499F800.0
N6990G2X10.000Y3.999I2.499J0.000
N7000G2X12.499Y1.500I0.000J-2.499
N7010G2X10.000Y-0.999I-2.499J0.000
N7020G00Z6.000
N7030G00X2.044Y2.046
N7040G1Z-0.900F120.0
N7050G1X2.301Y1.815F800.0
N7060G1X2.581Y1.612
N7070G1X2.883Y1.439
N7080G1X3.347Y1.235
N7090G1X4.172Y0.670
N7100G1X4.932Y0.236
N7110G1X5.723Y-0.135
N7120G1X6.540Y-0.442
N7130G1X7.380Y-0.684
N7140G1X8.240Y-0.859
N7150G1X9.114Y-0.965
N7160G1X10.000Y-1.001
N7170G1X10.887Y-0.965
N7180G1X11.763Y-0.859
N7190G1X12.622Y-0.684
N7200G1X13.462Y-0.442
N7210G1X14.279Y-0.134
N7220G1X15.068Y0.237
N7230G1X15.827Y0.670
N7240G1X16.650Y1.234
N7250G1X17.116Y1.438
N7260G1X17.418Y1.611
N7270G1X17.700Y1.815
N7280G1X17.958Y2.047
N7290G1X18.189Y2.306
N7300G1X18.393Y2.587
N7310G1X18.566Y2.890
N7320G1X18.770Y3.356
N7330G1X19.335Y4.182
N7340G1X19.768Y4.942
N7350G1X20.139Y5.732
N7360G1X20.445Y6.548
N7370G1X20.686Y7.387
N7380G1X20.860Y8.245
N7390G1X20.965Y9.117
N7400G1X21.001Y10.000
N7410G1X20.965Y10.889
N7420G1X20.858Y11.765
N7430G1X20.683Y12.626
N7440G1X20.440Y13.466
N7450G1X20.133Y14.284
N7460G1X19.761Y15.074
N7470G1X19.328Y15.832
N7480G1X18.763Y16.656
N7490G1X18.560Y17.118
N7500G1X18.389Y17.417
N7510G1X18.187Y17.696
N7520G1X17.958Y17.952
N7530G1X17.703Y18.181
N7540G1X17.425Y18.383
N7550G1X17.126Y18.555
N7560G1X16.665Y18.758
N7570G1X15.837Y19.326
N7580G1X15.075Y19.761
N7590G1X14.282Y20.134
N7600G1X13.462Y20.442
N7610G1X12.621Y20.684
N7620G1X11.760Y20.859
N7630G1X10.886Y20.965
N7640G1X10.000Y21.001
N7650G1X9.115Y20.965
N7660G1X8.242Y20.859
N7670G1X7.383Y20.685
N7680G1X6.543Y20.443
N7690G1X5.726Y20.136
N7700G1X4.935Y19.765
N7710G1X4.175Y19.332
N7720G1X3.350Y18.766
N7730G1X2.884Y18.562
N7740G1X2.582Y18.389
N7750G1X2.301Y18.185
N7760G1X2.043Y17.953
N7770G1X1.811Y17.695
N7780G1X1.607Y17.413
N7790G1X1.434Y17.111
N7800G1X1.231Y16.645
N7810G1X0.667Y15.821
N7820G1X0.234Y15.062
N7830G1X-0.136Y14.273
N7840G1X-0.443Y13.457
N7850G1X-0.685Y12.618
N7860G1X-0.859Y11.760
N7870G1X-0.965Y10.886
N7880G1X-1.001Y10.000
N7890G1X-0.965Y9.114
N7900G1X-0.859Y8.240
N7910G1X-0.685Y7.381
N7920G1X-0.443Y6.541
N7930G1X-0.136Y5.724
N7940G1X0.235Y4.934
N7950G1X0.669Y4.175
N7960G1X1.234Y3.350
N7970G1X1.437Y2.885
N7980G1X1.610Y2.584
N7990G1X1.813Y2.303
N8000G1X2.044Y2.046
N8010G00Z6.000
N8020G00X14.635Y8.904
N8030G1Z-0.900F120.0
N8040G1X14.325Y9.565F800.0
N8050G1X14.073Y10.000
N8060G1X14.401Y10.583
N8070G1X14.635Y11.096
N8080G1X14.325Y10.435
N8090G1X14.073Y10.000
N8100G1X12.014
N8110G1X14.073
N8120G1X14.401Y9.417
N8130G1X14.635Y8.904
N8140G1X15.614Y8.628
N8150G1X15.738Y9.306
N8160G1X15.780Y10.000
N8170G1X15.737Y10.698
N8180G1X15.613Y11.379
N8190G1X15.409Y12.038
N8200G1X15.128Y12.666
N8210G1X15.104Y12.710
N8220G1X15.211Y13.502
N8230G1X15.234Y13.859
N8240G1X15.168Y13.113
N8250G1X15.104Y12.710
N8260G2X10.000Y10.781I-5.104J5.790
N8270G2X4.896Y12.709I0.000J7.719
N8280G1X4.786Y13.543
N8290G1X4.767Y13.858
N8300G1X4.833Y13.114
N8310G1X4.896Y12.709
N8320G1X4.674Y12.244
N8330G1X4.445Y11.597
N8340G1X4.295Y10.924
N8350G1X4.225Y10.234
N8360G1X4.239Y9.534
N8370G1X4.336Y8.849
N8380G1X4.513Y8.183
N8390G1X4.768Y7.545
N8400G1X4.896Y7.291
N8410G1X4.790Y6.498
N8420G1X4.766Y6.141
N8430G1X4.833Y6.887
N8440G1X4.896Y7.291
N8450G2X10.000Y9.219I5.104J-5.790
N8460G2X15.104Y7.291I0.000J-7.719
N8470G1X15.213Y6.459
N8480G1X15.233Y6.142
N8490G1X15.167Y6.886
N8500G1X15.104Y7.291
N8510G1X15.327Y7.759
N8520G1X15.556Y8.406
N8530G1X15.614Y8.628
N8540G1X17.305Y8.214
N8550G1X17.424Y8.800
N8560G1X17.496Y9.396
N8570G1X17.520Y10.000
N8580G1X17.496Y10.608
N8590G1X17.423Y11.207
N8600G1X17.303Y11.795
N8610G1X17.137Y12.370
N8620G1X16.927Y12.928
N8630G1X16.673Y13.469
N8640G1X16.376Y13.987
N8650G1X15.987Y14.555
N8660G2X15.534Y15.353I3.650J2.597
N8670G1X15.480Y15.478
N8680G1X15.656Y15.653
N8690G1X15.480Y15.478
N8700G1X15.224Y15.593
N8710G1X14.909Y16.624
N8720G1X15.224Y15.593
N8730G2X10.000Y12.521I-5.224J2.907
N8740G2X4.775Y15.593I0.000J5.979
N8750G1X5.091Y16.622
N8760G1X4.775Y15.593
N8770G1X4.519Y15.479
N8780G1X4.358Y15.640
N8790G1X4.519Y15.479
N8800G1X4.461Y15.347
N8810G2X4.007Y14.544I-4.105J1.793
N8820G1X3.619Y13.977
N8830G1X3.324Y13.459
N8840G1X3.071Y12.920
N8850G1X2.861Y12.363
N8860G1X2.696Y11.789
N8870G1X2.577Y11.203
N8880G1X2.504Y10.606
N8890G1X2.480Y10.000
N8900G1X2.504Y9.394
N8910G1X2.577Y8.797
N8920G1X2.696Y8.210
N8930G1X2.861Y7.636
N8940G1X3.071Y7.077
N8950G1X3.325Y6.537
N8960G1X3.621Y6.019
N8970G1X4.010Y5.450
N8980G2X4.464Y4.650I-3.650J-2.596
N8990G1X4.520Y4.521
N9000G1X4.354Y4.355
N9010G1X4.520Y4.521
N9020G1X4.775Y4.407
N9030G1X5.091Y3.377
N9040G1X4.775Y4.407
N9050G2X10.000Y7.479I5.225J-2.907
N9060G2X15.225Y4.407I0.000J-5.979
N9070G1X14.909Y3.378
N9080G1X15.225Y4.407
N9090G1X15.481Y4.521
N9100G1X15.642Y4.360
N9110G1X15.481Y4.521
N9120G1X15.539Y4.653
N9130G2X15.993Y5.457I4.105J-1.791
N9140G1X16.382Y6.025
N9150G1X16.678Y6.544
N9160G1X16.931Y7.083
N9170G1X17.140Y7.641
N9180G1X17.305Y8.214
N9190G1X18.995Y7.801
N9200G1X19.142Y8.523
N9210G1X19.231Y9.257
N9220G1X19.260Y10.000
N9230G1X19.230Y10.748
N9240G1X19.141Y11.486
N9250G1X18.993Y12.210
N9260G1X18.789Y12.918
N9270G1X18.530Y13.606
N9280G1X18.217Y14.271
N9290G1X17.852Y14.910
N9300G1X17.405Y15.564
N9310G2X17.128Y16.052I2.232J1.588
N9320G1X17.004Y16.334
N9330G1X16.831Y16.602
N9340G1X16.606Y16.828
N9350G1X16.339Y17.000
N9360G1X16.058Y17.124
N9370G2X15.572Y17.400I1.103J2.507
N9380G1X14.915Y17.850
N9390G1X14.231Y18.237
N9400G1X13.864Y18.811
N9410G1X13.431Y19.354
N9420G1X13.402Y19.385
N9430G1X13.844Y18.840
N9440G1X14.211Y18.271
N9450G1X14.231Y18.237
N9460G2X10.000Y14.261I-4.231J0.263
N9470G2X5.769Y18.236I0.000J4.239
N9480G1X6.136Y18.811
N9490G1X6.569Y19.354
N9500G1X6.598Y19.385
N9510G1X6.157Y18.840
N9520G1X5.790Y18.271
N9530G1X5.769Y18.236
N9540G1X5.097Y17.856
N9550G1X4.442Y17.408
N9560G2X3.953Y17.131I-1.587J2.232
N9570G1X3.668Y17.006
N9580G1X3.397Y16.831
N9590G1X3.167Y16.601
N9600G1X2.991Y16.328
N9610G1X2.867Y16.043
N9620G2X2.589Y15.552I-2.510J1.096
N9630G1X2.143Y14.899
N9640G1X1.779Y14.261
N9650G1X1.467Y13.597
N9660G1X1.209Y12.910
N9670G1X1.006Y12.204
N9680G1X0.859Y11.481
N9690G1X0.770Y10.746
N9700G1X0.740Y10.000
N9710G1X0.770Y9.254
N9720G1X0.859Y8.519
N9730G1X1.006Y7.796
N9740G1X1.209Y7.089
N9750G1X1.468Y6.401
N9760G1X1.780Y5.736
N9770G1X2.145Y5.097
N9780G1X2.592Y4.442
N9790G2X2.869Y3.953I-2.232J-1.587
N9800G1X2.994Y3.668
N9810G1X3.168Y3.398
N9820G1X3.397Y3.170
N9830G1X3.667Y2.995
N9840G1X3.951Y2.870
N9850G2X4.439Y2.594I-1.099J-2.509
N9860G1X5.094Y2.146
N9870G1X5.769Y1.763
N9880G1X6.136Y1.189
N9890G1X6.569Y0.646
N9900G1X6.598Y0.615
N9910G1X6.157Y1.160
N9920G1X5.789Y1.729
N9930G1X5.769Y1.763
N9940G2X10.000Y5.739I4.231J-0.263
N9950G2X14.231Y1.764I0.000J-4.239
N9960G1X13.864Y1.189
N9970G1X13.431Y0.646
N9980G1X13.402Y0.615
N9990G1X13.843Y1.160
N10000G1X14.210Y1.729
N10010G1X14.231Y1.764
N10020G1X14.905Y2.146
N10030G1X15.558Y2.592
N10040G2X16.047Y2.869I1.587J-2.232
N10050G1X16.332Y2.994
N10060G1X16.604Y3.170
N10070G1X16.833Y3.400
N10080G1X17.009Y3.672
N10090G1X17.133Y3.957
N10100G2X17.411Y4.449I2.510J-1.095
N10110G1X17.859Y5.104
N10120G1X18.223Y5.743
N10130G1X18.535Y6.408
N10140G1X18.793Y7.095
N10150G1X18.995Y7.801
N10160G00Z6.000
N10170G00X5.365Y8.904
N10180G1Z-0.900F120.0
N10190G1X5.675Y9.565F800.0
N10200G1X5.927Y10.000
N10210G1X7.986
N10220G1X5.927Y10.000
N10230G1X5.599Y10.583
N10240G1X5.365Y11.096
N10250G1X5.675Y10.435
N10260G1X5.927Y10.000
N10270G1X5.599Y9.417
N10280G1X5.365Y8.904
N10290G00Z6.000
N10300G00X7.501Y18.500
N10310G1Z-0.900F120.0
N10320G2X10.000Y20.999I2.499J0.000F800.0
N10330G2X12.499Y18.500I0.000J-2.499
N10340G2X10.000Y16.001I-2.499J0.000
N10350G2X7.501Y18.500I0.000J2.499
N10360G00Z6.000
N10370G00X10.000Y-0.999
N10380G1Z-0.900F120.0
N10390G2X7.501Y1.500I0.000J2.499F800.0
N10400G2X10.000Y3.999I2.499J0.000
N10410G2X12.499Y1.500I0.000J-2.499
N10420G2X10.000Y-0.999I-2.499J0.000
N10430G00Z6.000
N10440G00X2.044Y2.046
N10450G1Z-1.200F120.0
N10460G1X2.301Y1.815F800.0
N10470G1X2.581Y1.612
N10480G1X2.883Y1.439
N10490G1X3.347Y1.235
N10500G1X4.172Y0.670
N10510G1X4.932Y0.236
N10520G1X5.723Y-0.135
N10530G1X6.540Y-0.442
N10540G1X7.380Y-0.684
N10550G1X8.240Y-0.859
N10560G1X9.114Y-0.965
N10570G1X10.000Y-1.001
N10580G1X10.887Y-0.965
N10590G1X11.763Y-0.859
N10600G1X12.622Y-0.684
N10610G1X13.462Y-0.442
N10620G1X14.279Y-0.134
N10630G1X15.068Y0.237
N10640G1X15.827Y0.670
N10650G1X16.650Y1.234
N10660G1X17.116Y1.438
N10670G1X17.418Y1.611
N10680G1X17.700Y1.815
N10690G1X17.958Y2.047
N10700G1X18.189Y2.306
N10710G1X18.393Y2.587
N10720G1X18.566Y2.890
N10730G1X18.770Y3.356
N10740G1X19.335Y4.182
N10750G1X19.768Y4.942
N10760G1X20.139Y5.732
N10770G1X20.445Y6.548
N10780G1X20.686Y7.387
N10790G1X20.860Y8.245
N10800G1X20.965Y9.117
N10810G1X21.001Y10.000
N10820G1X20.965Y10.889
N10830G1X20.858Y11.765
N10840G1X20.683Y12.626
N10850G1X20.440Y13.466
N10860G1X20.133Y14.284
N10870G1X19.761Y15.074
N10880G1X19.328Y15.832
N10890G1X18.763Y16.656
N10900G1X18.560Y17.118
N10910G1X18.389Y17.417
N10920G1X18.187Y17.696
N10930G1X17.958Y17.952
N10940G1X17.703Y18.181
N10950G1X17.425Y18.383
N10960G1X17.126Y18.555
N10970G1X16.665Y18.758
N10980G1X15.837Y19.326
N10990G1X15.075Y19.761
N11000G1X14.282Y20.134
N11010G1X13.462Y20.442
N11020G1X12.621Y20.684
N11030G1X11.760Y20.859
N11040G1X10.886Y20.965
N11050G1X10.000Y21.001
N11060G1X9.115Y20.965
N11070G1X8.242Y20.859
N11080G1X7.383Y20.685
N11090G1X6.543Y20.443
N11100G1X5.726Y20.136
N11110G1X4.935Y19.765
N11120G1X4.175Y19.332
N11130G1X3.350Y18.766
N11140G1X2.884Y18.562
N11150G1X2.582Y18.389
N11160G1X2.301Y18.185
N11170G1X2.043Y17.953
N11180G1X1.811Y17.695
N11190G1X1.607Y17.413
N11200G1X1.434Y17.111
N11210G1X1.231Y16.645
N11220G1X0.667Y15.821
N11230G1X0.234Y15.062
N11240G1X-0.136Y14.273
N11250G1X-0.443Y13.457
N11260G1X-0.685Y12.618
N11270G1X-0.859Y11.760
N11280G1X-0.965Y10.886
N11290G1X-1.001Y10.000
N11300G1X-0.965Y9.114
N11310G1X-0.859Y8.240
N11320G1X-0.685Y7.381
N11330G1X-0.443Y6.541
N11340G1X-0.136Y5.724
N11350G1X0.235Y4.934
N11360G1X0.669Y4.175
N11370G1X1.234Y3.350
N11380G1X1.437Y2.885
N11390G1X1.610Y2.584
N11400G1X1.813Y2.303
N11410G1X2.044Y2.046
N11420G00Z6.000
N11430G00X14.635Y8.904
N11440G1Z-1.200F120.0
N11450G1X14.325Y9.565F800.0
N11460G1X14.073Y10.000
N11470G1X14.401Y10.583
N11480G1X14.635Y11.096
N11490G1X14.325Y10.435
N11500G1X14.073Y10.000
N11510G1X12.014
N11520G1X14.073
N11530G1X14.401Y9.417
N11540G1X14.635Y8.904
N11550G1X15.614Y8.628
N11560G1X15.738Y9.306
N11570G1X15.780Y10.000
N11580G1X15.737Y10.698
N11590G1X15.613Y11.379
N11600G1X15.409Y12.038
N11610G1X15.128Y12.666
N11620G1X15.104Y12.710
N11630G1X15.211Y13.502
N11640G1X15.234Y13.859
N11650G1X15.168Y13.113
N11660G1X15.104Y12.710
N11670G2X10.000Y10.781I-5.104J5.790
N11680G2X4.896Y12.709I0.000J7.719
N11690G1X4.786Y13.543
N11700G1X4.767Y13.858
N11710G1X4.833Y13.114
N11720G1X4.896Y12.709
N11730G1X4.674Y12.244
N11740G1X4.445Y11.597
N11750G1X4.295Y10.924
N11760G1X4.225Y10.234
N11770G1X4.239Y9.534
N11780G1X4.336Y8.849
N11790G1X4.513Y8.183
N11800G1X4.768Y7.545
N11810G1X4.896Y7.291
N11820G1X4.790Y6.498
N11830G1X4.766Y6.141
N11840G1X4.833Y6.887
N11850G1X4.896Y7.291
N11860G2X10.000Y9.219I5.104J-5.790
N11870G2X15.104Y7.291I0.000J-7.719
N11880G1X15.213Y6.459
N11890G1X15.233Y6.142
N11900G1X15.167Y6.886
N11910G1X15.104Y7.291
N11920G1X15.327Y7.759
N11930G1X15.556Y8.406
N11940G1X15.614Y8.628
N11950G1X17.305Y8.214
N11960G1X17.424Y8.800
N11970G1X17.496Y9.396
N11980G1X17.520Y10.000
N11990G1X17.496Y10.608
N12000G1X17.423Y11.207
N12010G1X17.303Y11.795
N12020G1X17.137Y12.370
N12030G1X16.927Y12.928
N12040G1X16.673Y13.469
N12050G1X16.376Y13.987
N12060G1X15.987Y14.555
N12070G2X15.534Y15.353I3.650J2.597
N12080G1X15.480Y15.478
N12090G1X15.656Y15.653
N12100G1X15.480Y15.478
N12110G1X15.224Y15.593
N12120G1X14.909Y16.624
N12130G1X15.224Y15.593
N12140G2X10.000Y12.521I-5.224J2.907
N12150G2X4.775Y15.593I0.000J5.979
N12160G1X5.091Y16.622
N12170G1X4.775Y15.593
N12180G1X4.519Y15.479
N12190G1X4.358Y15.640
N12200G1X4.519Y15.479
N12210G1X4.461Y15.347
N12220G2X4.007Y14.544I-4.105J1.793
N12230G1X3.619Y13.977
N12240G1X3.324Y13.459
N12250G1X3.071Y12.920
N12260G1X2.861Y12.363
N12270G1X2.696Y11.789
N12280G1X2.577Y11.203
N12290G1X2.504Y10.606
N12300G1X2.480Y10.000
N12310G1X2.504Y9.394
N12320G1X2.577Y8.797
N12330G1X2.696Y8.210
N12340G1X2.861Y7.636
N12350G1X3.071Y7.077
N12360G1X3.325Y6.537
N12370G1X3.621Y6.019
N12380G1X4.010Y5.450
N12390G2X4.464Y4.650I-3.650J-2.596
N12400G1X4.520Y4.521
N12410G1X4.354Y4.355
N12420G1X4.520Y4.521
N12430G1X4.775Y4.407
N12440G1X5.091Y3.377
N12450G1X4.775Y4.407
N12460G2X10.000Y7.479I5.225J-2.907
N12470G2X15.225Y4.407I0.000J-5.979
N12480G1X14.909Y3.378
N12490G1X15.225Y4.407
N12500G1X15.481Y4.521
N12510G1X15.642Y4.360
N12520G1X15.481Y4.521
N12530G1X15.539Y4.653
N12540G2X15.993Y5.457I4.105J-1.791
N12550G1X16.382Y6.025
N12560G1X16.678Y6.544
N12570G1X16.931Y7.083
N12580G1X17.140Y7.641
N12590G1X17.305Y8.214
N12600G1X18.995Y7.801
N12610G1X19.142Y8.523
N12620G1X19.231Y9.257
N12630G1X19.260Y10.000
N12640G1X19.230Y10.748
N12650G1X19.141Y11.486
N12660G1X18.993Y12.210
N12670G1X18.789Y12.918
N12680G1X18.530Y13.606
N12690G1X18.217Y14.271
N12700G1X17.852Y14.910
N12710G1X17.405Y15.564
N12720G2X17.128Y16.052I2.232J1.588
N12730G1X17.004Y16.334
N12740G1X16.831Y16.602
N12750G1X16.606Y16.828
N12760G1X16.339Y17.000
N12770G1X16.058Y17.124
N12780G2X15.572Y17.400I1.103J2.507
N12790G1X14.915Y17.850
N12800G1X14.231Y18.237
N12810G1X13.864Y18.811
N12820G1X13.431Y19.354
N12830G1X13.402Y19.385
N12840G1X13.844Y18.840
N12850G1X14.211Y18.271
N12860G1X14.231Y18.237
N12870G2X10.000Y14.261I-4.231J0.263
N12880G2X5.769Y18.236I0.000J4.239
N12890G1X6.136Y18.811
N12900G1X6.569Y19.354
N12910G1X6.598Y19.385
N12920G1X6.157Y18.840
N12930G1X5.790Y18.271
N12940G1X5.769Y18.236
N12950G1X5.097Y17.856
N12960G1X4.442Y17.408
N12970G2X3.953Y17.131I-1.587J2.232
N12980G1X3.668Y17.006
N12990G1X3.397Y16.831
N13000G1X3.167Y16.601
N13010G1X2.991Y16.328
N13020G1X2.867Y16.043
N13030G2X2.589Y15.552I-2.510J1.096
N13040G1X2.143Y14.899
N13050G1X1.779Y14.261
N13060G1X1.467Y13.597
N13070G1X1.209Y12.910
N13080G1X1.006Y12.204
N13090G1X0.859Y11.481
N13100G1X0.770Y10.746
N13110G1X0.740Y10.000
N13120G1X0.770Y9.254
N13130G1X0.859Y8.519
N13140G1X1.006Y7.796
N13150G1X1.209Y7.089
N13160G1X1.468Y6.401
N13170G1X1.780Y5.736
N13180G1X2.145Y5.097
N13190G1X2.592Y4.442
N13200G2X2.869Y3.953I-2.232J-1.587
N13210G1X2.994Y3.668
N13220G1X3.168Y3.398
N13230G1X3.397Y3.170
N13240G1X3.667Y2.995
N13250G1X3.951Y2.870
N13260G2X4.439Y2.594I-1.099J-2.509
N13270G1X5.094Y2.146
N13280G1X5.769Y1.763
N13290G1X6.136Y1.189
N13300G1X6.569Y0.646
N13310G1X6.598Y0.615
N13320G1X6.157Y1.160
N13330G1X5.789Y1.729
N13340G1X5.769Y1.763
N13350G2X10.000Y5.739I4.231J-0.263
N13360G2X14.231Y1.764I0.000J-4.239
N13370G1X13.864Y1.189
N13380G1X13.431Y0.646
N13390G1X13.402Y0.615
N13400G1X13.843Y1.160
N13410G1X14.210Y1.729
N13420G1X14.231Y1.764
N13430G1X14.905Y2.146
N13440G1X15.558Y2.592
N13450G2X16.047Y2.869I1.587J-2.232
N13460G1X16.332Y2.994
N13470G1X16.604Y3.170
N13480G1X16.833Y3.400
N13490G1X17.009Y3.672
N13500G1X17.133Y3.957
N13510G2X17.411Y4.449I2.510J-1.095
N13520G1X17.859Y5.104
N13530G1X18.223Y5.743
N13540G1X18.535Y6.408
N13550G1X18.793Y7.095
N13560G1X18.995Y7.801
N13570G00Z6.000
N13580G00X5.365Y8.904
N13590G1Z-1.200F120.0
N13600G1X5.675Y9.565F800.0
N13610G1X5.927Y10.000
N13620G1X7.986
N13630G1X5.927Y10.000
N13640G1X5.599Y10.583
N13650G1X5.365Y11.096
N13660G1X5.675Y10.435
N13670G1X5.927Y10.000
N13680G1X5.599Y9.417
N13690G1X5.365Y8.904
N13700G00Z6.000
N13710G00X7.501Y18.500
N13720G1Z-1.200F120.0
N13730G2X10.000Y20.999I2.499J0.000F800.0
N13740G2X12.499Y18.500I0.000J-2.499
N13750G2X10.000Y16.001I-2.499J0.000
N13760G2X7.501Y18.500I0.000J2.499
N13770G00Z6.000
N13780G00X10.000Y-0.999
N13790G1Z-1.200F120.0
N13800G2X7.501Y1.500I0.000J2.499F800.0
N13810G2X10.000Y3.999I2.499J0.000
N13820G2X12.499Y1.500I0.000J-2.499
N13830G2X10.000Y-0.999I-2.499J0.000
N13840G00Z6.000
N13850G00X2.044Y2.046
N13860G1Z-1.500F120.0
N13870G1X2.301Y1.815F800.0
N13880G1X2.581Y1.612
N13890G1X2.883Y1.439
N13900G1X3.347Y1.235
N13910G1X4.172Y0.670
N13920G1X4.932Y0.236
N13930G1X5.723Y-0.135
N13940G1X6.540Y-0.442
N13950G1X7.380Y-0.684
N13960G1X8.240Y-0.859
N13970G1X9.114Y-0.965
N13980G1X10.000Y-1.001
N13990G1X10.887Y-0.965
N14000G1X11.763Y-0.859
N14010G1X12.622Y-0.684
N14020G1X13.462Y-0.442
N14030G1X14.279Y-0.134
N14040G1X15.068Y0.237
N14050G1X15.827Y0.670
N14060G1X16.650Y1.234
N14070G1X17.116Y1.438
N14080G1X17.418Y1.611
N14090G1X17.700Y1.815
N14100G1X17.958Y2.047
N14110G1X18.189Y2.306
N14120G1X18.393Y2.587
N14130G1X18.566Y2.890
N14140G1X18.770Y3.356
N14150G1X19.335Y4.182
N14160G1X19.768Y4.942
N14170G1X20.139Y5.732
N14180G1X20.445Y6.548
N14190G1X20.686Y7.387
N14200G1X20.860Y8.245
N14210G1X20.965Y9.117
N14220G1X21.001Y10.000
N14230G1X20.965Y10.889
N14240G1X20.858Y11.765
N14250G1X20.683Y12.626
N14260G1X20.440Y13.466
N14270G1X20.133Y14.284
N14280G1X19.761Y15.074
N14290G1X19.328Y15.832
N14300G1X18.763Y16.656
N14310G1X18.560Y17.118
N14320G1X18.389Y17.417
N14330G1X18.187Y17.696
N14340G1X17.958Y17.952
N14350G1X17.703Y18.181
N14360G1X17.425Y18.383
N14370G1X17.126Y18.555
N14380G1X16.665Y18.758
N14390G1X15.837Y19.326
N14400G1X15.075Y19.761
N14410G1X14.282Y20.134
N14420G1X13.462Y20.442
N14430G1X12.621Y20.684
N14440G1X11.760Y20.859
N14450G1X10.886Y20.965
N14460G1X10.000Y21.001
N14470G1X9.115Y20.965
N14480G1X8.242Y20.859
N14490G1X7.383Y20.685
N14500G1X6.543Y20.443
N14510G1X5.726Y20.136
N14520G1X4.935Y19.765
N14530G1X4.175Y19.332
N14540G1X3.350Y18.766
N14550G1X2.884Y18.562
N14560G1X2.582Y18.389
N14570G1X2.301Y18.185
N14580G1X2.043Y17.953
N14590G1X1.811Y17.695
N14600G1X1.607Y17.413
N14610G1X1.434Y17.111
N14620G1X1.231Y16.645
N14630G1X0.667Y15.821
N14640G1X0.234Y15.062
N14650G1X-0.136Y14.273
N14660G1X-0.443Y13.457
N14670G1X-0.685Y12.618
N14680G1X-0.859Y11.760
N14690G1X-0.965Y10.886
N14700G1X-1.001Y10.000
N14710G1X-0.965Y9.114
N14720G1X-0.859Y8.240
N14730G1X-0.685Y7.381
N14740G1X-0.443Y6.541
N14750G1X-0.136Y5.724
N14760G1X0.235Y4.934
N14770G1X0.669Y4.175
N14780G1X1.234Y3.350
N14790G1X1.437Y2.885
N14800G1X1.610Y2.584
N14810G1X1.813Y2.303
N14820G1X2.044Y2.046
N14830G00Z6.000
N14840G00X14.635Y8.904
N14850G1Z-1.500F120.0
N14860G1X14.325Y9.565F800.0
N14870G1X14.073Y10.000
N14880G1X14.401Y10.583
N14890G1X14.635Y11.096
N14900G1X14.325Y10.435
N14910G1X14.073Y10.000
N14920G1X12.014
N14930G1X14.073
N14940G1X14.401Y9.417
N14950G1X14.635Y8.904
N14960G1X15.614Y8.628
N14970G1X15.738Y9.306
N14980G1X15.780Y10.000
N14990G1X15.737Y10.698
N15000G1X15.613Y11.379
N15010G1X15.409Y12.038
N15020G1X15.128Y12.666
N15030G1X15.104Y12.710
N15040G1X15.211Y13.502
N15050G1X15.234Y13.859
N15060G1X15.168Y13.113
N15070G1X15.104Y12.710
N15080G2X10.000Y10.781I-5.104J5.790
N15090G2X4.896Y12.709I0.000J7.719
N15100G1X4.786Y13.543
N15110G1X4.767Y13.858
N15120G1X4.833Y13.114
N15130G1X4.896Y12.709
N15140G1X4.674Y12.244
N15150G1X4.445Y11.597
N15160G1X4.295Y10.924
N15170G1X4.225Y10.234
N15180G1X4.239Y9.534
N15190G1X4.336Y8.849
N15200G1X4.513Y8.183
N15210G1X4.768Y7.545
N15220G1X4.896Y7.291
N15230G1X4.790Y6.498
N15240G1X4.766Y6.141
N15250G1X4.833Y6.887
N15260G1X4.896Y7.291
N15270G2X10.000Y9.219I5.104J-5.790
N15280G2X15.104Y7.291I0.000J-7.719
N15290G1X15.213Y6.459
N15300G1X15.233Y6.142
N15310G1X15.167Y6.886
N15320G1X15.104Y7.291
N15330G1X15.327Y7.759
N15340G1X15.556Y8.406
N15350G1X15.614Y8.628
N15360G1X17.305Y8.214
N15370G1X17.424Y8.800
N15380G1X17.496Y9.396
N15390G1X17.520Y10.000
N15400G1X17.496Y10.608
N15410G1X17.423Y11.207
N15420G1X17.303Y11.795
N15430G1X17.137Y12.370
N15440G1X16.927Y12.928
N15450G1X16.673Y13.469
N15460G1X16.376Y13.987
N15470G1X15.987Y14.555
N15480G2X15.534Y15.353I3.650J2.597
N15490G1X15.480Y15.478
N15500G1X15.656Y15.653
N15510G1X15.480Y15.478
N15520G1X15.224Y15.593
N15530G1X14.909Y16.624
N15540G1X15.224Y15.593
N15550G2X10.000Y12.521I-5.224J2.907
N15560G2X4.775Y15.593I0.000J5.979
N15570G1X5.091Y16.622
N15580G1X4.775Y15.593
N15590G1X4.519Y15.479
N15600G1X4.358Y15.640
N15610G1X4.519Y15.479
N15620G1X4.461Y15.347
N15630G2X4.007Y14.544I-4.105J1.793
N15640G1X3.619Y13.977
N15650G1X3.324Y13.459
N15660G1X3.071Y12.920
N15670G1X2.861Y12.363
N15680G1X2.696Y11.789
N15690G1X2.577Y11.203
N15700G1X2.504Y10.606
N15710G1X2.480Y10.000
N15720G1X2.504Y9.394
N15730G1X2.577Y8.797
N15740G1X2.696Y8.210
N15750G1X2.861Y7.636
N15760G1X3.071Y7.077
N15770G1X3.325Y6.537
N15780G1X3.621Y6.019
N15790G1X4.010Y5.450
N15800G2X4.464Y4.650I-3.650J-2.596
N15810G1X4.520Y4.521
N15820G1X4.354Y4.355
N15830G1X4.520Y4.521
N15840G1X4.775Y4.407
N15850G1X5.091Y3.377
N15860G1X4.775Y4.407
N15870G2X10.000Y7.479I5.225J-2.907
N15880G2X15.225Y4.407I0.000J-5.979
N15890G1X14.909Y3.378
N15900G1X15.225Y4.407
N15910G1X15.481Y4.521
N15920G1X15.642Y4.360
N15930G1X15.481Y4.521
N15940G1X15.539Y4.653
N15950G2X15.993Y5.457I4.105J-1.791
N15960G1X16.382Y6.025
N15970G1X16.678Y6.544
N15980G1X16.931Y7.083
N15990G1X17.140Y7.641
N16000G1X17.305Y8.214
N16010G1X18.995Y7.801
N16020G1X19.142Y8.523
N16030G1X19.231Y9.257
N16040G1X19.260Y10.000
N16050G1X19.230Y10.748
N16060G1X19.141Y11.486
N16070G1X18.993Y12.210
N16080G1X18.789Y12.918
N16090G1X18.530Y13.606
N16100G1X18.217Y14.271
N16110G1X17.852Y14.910
N16120G1X17.405Y15.564
N16130G2X17.128Y16.052I2.232J1.588
N16140G1X17.004Y16.334
N16150G1X16.831Y16.602
N16160G1X16.606Y16.828
N16170G1X16.339Y17.000
N16180G1X16.058Y17.124
N16190G2X15.572Y17.400I1.103J2.507
N16200G1X14.915Y17.850
N16210G1X14.231Y18.237
N16220G1X13.864Y18.811
N16230G1X13.431Y19.354
N16240G1X13.402Y19.385
N16250G1X13.844Y18.840
N16260G1X14.211Y18.271
N16270G1X14.231Y18.237
N16280G2X10.000Y14.261I-4.231J0.263
N16290G2X5.769Y18.236I0.000J4.239
N16300G1X6.136Y18.811
N16310G1X6.569Y19.354
N16320G1X6.598Y19.385
N16330G1X6.157Y18.840
N16340G1X5.790Y18.271
N16350G1X5.769Y18.236
N16360G1X5.097Y17.856
N16370G1X4.442Y17.408
N16380G2X3.953Y17.131I-1.587J2.232
N16390G1X3.668Y17.006
N16400G1X3.397Y16.831
N16410G1X3.167Y16.601
N16420G1X2.991Y16.328
N16430G1X2.867Y16.043
N16440G2X2.589Y15.552I-2.510J1.096
N16450G1X2.143Y14.899
N16460G1X1.779Y14.261
N16470G1X1.467Y13.597
N16480G1X1.209Y12.910
N16490G1X1.006Y12.204
N16500G1X0.859Y11.481
N16510G1X0.770Y10.746
N16520G1X0.740Y10.000
N16530G1X0.770Y9.254
N16540G1X0.859Y8.519
N16550G1X1.006Y7.796
N16560G1X1.209Y7.089
N16570G1X1.468Y6.401
N16580G1X1.780Y5.736
N16590G1X2.145Y5.097
N16600G1X2.592Y4.442
N16610G2X2.869Y3.953I-2.232J-1.587
N16620G1X2.994Y3.668
N16630G1X3.168Y3.398
N16640G1X3.397Y3.170
N16650G1X3.667Y2.995
N16660G1X3.951Y2.870
N16670G2X4.439Y2.594I-1.099J-2.509
N16680G1X5.094Y2.146
N16690G1X5.769Y1.763
N16700G1X6.136Y1.189
N16710G1X6.569Y0.646
N16720G1X6.598Y0.615
N16730G1X6.157Y1.160
N16740G1X5.789Y1.729
N16750G1X5.769Y1.763
N16760G2X10.000Y5.739I4.231J-0.263
N16770G2X14.231Y1.764I0.000J-4.239
N16780G1X13.864Y1.189
N16790G1X13.431Y0.646
N16800G1X13.402Y0.615
N16810G1X13.843Y1.160
N16820G1X14.210Y1.729
N16830G1X14.231Y1.764
N16840G1X14.905Y2.146
N16850G1X15.558Y2.592
N16860G2X16.047Y2.869I1.587J-2.232
N16870G1X16.332Y2.994
N16880G1X16.604Y3.170
N16890G1X16.833Y3.400
N16900G1X17.009Y3.672
N16910G1X17.133Y3.957
N16920G2X17.411Y4.449I2.510J-1.095
N16930G1X17.859Y5.104
N16940G1X18.223Y5.743
N16950G1X18.535Y6.408
N16960G1X18.793Y7.095
N16970G1X18.995Y7.801
N16980G00Z6.000
N16990G00X5.365Y8.904
N17000G1Z-1.500F120.0
N17010G1X5.675Y9.565F800.0
N17020G1X5.927Y10.000
N17030G1X7.986
N17040G1X5.927Y10.000
N17050G1X5.599Y10.583
N17060G1X5.365Y11.096
N17070G1X5.675Y10.435
N17080G1X5.927Y10.000
N17090G1X5.599Y9.417
N17100G1X5.365Y8.904
N17110G00Z6.000
N17120G00X7.501Y18.500
N17130G1Z-1.500F120.0
N17140G2X10.000Y20.999I2.499J0.000F800.0
N17150G2X12.499Y18.500I0.000J-2.499
N17160G2X10.000Y16.001I-2.499J0.000
N17170G2X7.501Y18.500I0.000J2.499
N17180G00Z6.000
N17190G00X10.000Y-0.999
N17200G1Z-1.500F120.0
N17210G2X7.501Y1.500I0.000J2.499F800.0
N17220G2X10.000Y3.999I2.499J0.000
N17230G2X12.499Y1.500I0.000J-2.499
N17240G2X10.000Y-0.999I-2.499J0.000
N17250G00Z6.000
N17260G00X2.044Y2.046
N17270G1Z-1.800F120.0
N17280G1X2.301Y1.815F800.0
N17290G1X2.581Y1.612
N17300G1X2.883Y1.439
N17310G1X3.347Y1.235
N17320G1X4.172Y0.670
N17330G1X4.932Y0.236
N17340G1X5.723Y-0.135
N17350G1X6.540Y-0.442
N17360G1X7.380Y-0.684
N17370G1X8.240Y-0.859
N17380G1X9.114Y-0.965
N17390G1X10.000Y-1.001
N17400G1X10.887Y-0.965
N17410G1X11.763Y-0.859
N17420G1X12.622Y-0.684
N17430G1X13.462Y-0.442
N17440G1X14.279Y-0.134
N17450G1X15.068Y0.237
N17460G1X15.827Y0.670
N17470G1X16.650Y1.234
N17480G1X17.116Y1.438
N17490G1X17.418Y1.611
N17500G1X17.700Y1.815
N17510G1X17.958Y2.047
N17520G1X18.189Y2.306
N17530G1X18.393Y2.587
N17540G1X18.566Y2.890
N17550G1X18.770Y3.356
N17560G1X19.335Y4.182
N17570G1X19.768Y4.942
N17580G1X20.139Y5.732
N17590G1X20.445Y6.548
N17600G1X20.686Y7.387
N17610G1X20.860Y8.245
N17620G1X20.965Y9.117
N17630G1X21.001Y10.000
N17640G1X20.965Y10.889
N17650G1X20.858Y11.765
N17660G1X20.683Y12.626
N17670G1X20.440Y13.466
N17680G1X20.133Y14.284
N17690G1X19.761Y15.074
N17700G1X19.328Y15.832
N17710G1X18.763Y16.656
N17720G1X18.560Y17.118
N17730G1X18.389Y17.417
N17740G1X18.187Y17.696
N17750G1X17.958Y17.952
N17760G1X17.703Y18.181
N17770G1X17.425Y18.383
N17780G1X17.126Y18.555
N17790G1X16.665Y18.758
N17800G1X15.837Y19.326
N17810G1X15.075Y19.761
N17820G1X14.282Y20.134
N17830G1X13.462Y20.442
N17840G1X12.621Y20.684
N17850G1X11.760Y20.859
N17860G1X10.886Y20.965
N17870G1X10.000Y21.001
N17880G1X9.115Y20.965
N17890G1X8.242Y20.859
N17900G1X7.383Y20.685
N17910G1X6.543Y20.443
N17920G1X5.726Y20.136
N17930G1X4.935Y19.765
N17940G1X4.175Y19.332
N17950G1X3.350Y18.766
N17960G1X2.884Y18.562
N17970G1X2.582Y18.389
N17980G1X2.301Y18.185
N17990G1X2.043Y17.953
N18000G1X1.811Y17.695
N18010G1X1.607Y17.413
N18020G1X1.434Y17.111
N18030G1X1.231Y16.645
N18040G1X0.667Y15.821
N18050G1X0.234Y15.062
N18060G1X-0.136Y14.273
N18070G1X-0.443Y13.457
N18080G1X-0.685Y12.618
N18090G1X-0.859Y11.760
N18100G1X-0.965Y10.886
N18110G1X-1.001Y10.000
N18120G1X-0.965Y9.114
N18130G1X-0.859Y8.240
N18140G1X-0.685Y7.381
N18150G1X-0.443Y6.541
N18160G1X-0.136Y5.724
N18170G1X0.235Y4.934
N18180G1X0.669Y4.175
N18190G1X1.234Y3.350
N18200G1X1.437Y2.885
N18210G1X1.610Y2.584
N18220G1X1.813Y2.303
N18230G1X2.044Y2.046
N18240G00Z6.000
N18250G00X14.635Y8.904
N18260G1Z-1.800F120.0
N18270G1X14.325Y9.565F800.0
N18280G1X14.073Y10.000
N18290G1X14.401Y10.583
N18300G1X14.635Y11.096
N18310G1X14.325Y10.435
N18320G1X14.073Y10.000
N18330G1X12.014
N18340G1X14.073
N18350G1X14.401Y9.417
N18360G1X14.635Y8.904
N18370G1X15.614Y8.628
N18380G1X15.738Y9.306
N18390G1X15.780Y10.000
N18400G1X15.737Y10.698
N18410G1X15.613Y11.379
N18420G1X15.409Y12.038
N18430G1X15.128Y12.666
N18440G1X15.104Y12.710
N18450G1X15.211Y13.502
N18460G1X15.234Y13.859
N18470G1X15.168Y13.113
N18480G1X15.104Y12.710
N18490G2X10.000Y10.781I-5.104J5.790
N18500G2X4.896Y12.709I0.000J7.719
N18510G1X4.786Y13.543
N18520G1X4.767Y13.858
N18530G1X4.833Y13.114
N18540G1X4.896Y12.709
N18550G1X4.674Y12.244
N18560G1X4.445Y11.597
N18570G1X4.295Y10.924
N18580G1X4.225Y10.234
N18590G1X4.239Y9.534
N18600G1X4.336Y8.849
N18610G1X4.513Y8.183
N18620G1X4.768Y7.545
N18630G1X4.896Y7.291
N18640G1X4.790Y6.498
N18650G1X4.766Y6.141
N18660G1X4.833Y6.887
N18670G1X4.896Y7.291
N18680G2X10.000Y9.219I5.104J-5.790
N18690G2X15.104Y7.291I0.000J-7.719
N18700G1X15.213Y6.459
N18710G1X15.233Y6.142
N18720G1X15.167Y6.886
N18730G1X15.104Y7.291
N18740G1X15.327Y7.759
N18750G1X15.556Y8.406
N18760G1X15.614Y8.628
N18770G1X17.305Y8.214
N18780G1X17.424Y8.800
N18790G1X17.496Y9.396
N18800G1X17.520Y10.000
N18810G1X17.496Y10.608
N18820G1X17.423Y11.207
N18830G1X17.303Y11.795
N18840G1X17.137Y12.370
N18850G1X16.927Y12.928
N18860G1X16.673Y13.469
N18870G1X16.376Y13.987
N18880G1X15.987Y14.555
N18890G2X15.534Y15.353I3.650J2.597
N18900G1X15.480Y15.478
N18910G1X15.656Y15.653
N18920G1X15.480Y15.478
N18930G1X15.224Y15.593
N18940G1X14.909Y16.624
N18950G1X15.224Y15.593
N18960G2X10.000Y12.521I-5.224J2.907
N18970G2X4.775Y15.593I0.000J5.979
N18980G1X5.091Y16.622
N18990G1X4.775Y15.593
N19000G1X4.519Y15.479
N19010G1X4.358Y15.640
N19020G1X4.519Y15.479
N19030G1X4.461Y15.347
N19040G2X4.007Y14.544I-4.105J1.793
N19050G1X3.619Y13.977
N19060G1X3.324Y13.459
N19070G1X3.071Y12.920
N19080G1X2.861Y12.363
N19090G1X2.696Y11.789
N19100G1X2.577Y11.203
N19110G1X2.504Y10.606
N19120G1X2.480Y10.000
N19130G1X2.504Y9.394
N19140G1X2.577Y8.797
N19150G1X2.696Y8.210
N19160G1X2.861Y7.636
N19170G1X3.071Y7.077
N19180G1X3.325Y6.537
N19190G1X3.621Y6.019
N19200G1X4.010Y5.450
N19210G2X4.464Y4.650I-3.650J-2.596
N19220G1X4.520Y4.521
N19230G1X4.354Y4.355
N19240G1X4.520Y4.521
N19250G1X4.775Y4.407
N19260G1X5.091Y3.377
N19270G1X4.775Y4.407
N19280G2X10.000Y7.479I5.225J-2.907
N19290G2X15.225Y4.407I0.000J-5.979
N19300G1X14.909Y3.378
N19310G1X15.225Y4.407
N19320G1X15.481Y4.521
N19330G1X15.642Y4.360
N19340G1X15.481Y4.521
N19350G1X15.539Y4.653
N19360G2X15.993Y5.457I4.105J-1.791
N19370G1X16.382Y6.025
N19380G1X16.678Y6.544
N19390G1X16.931Y7.083
N19400G1X17.140Y7.641
N19410G1X17.305Y8.214
N19420G1X18.995Y7.801
N19430G1X19.142Y8.523
N19440G1X19.231Y9.257
N19450G1X19.260Y10.000
N19460G1X19.230Y10.748
N19470G1X19.141Y11.486
N19480G1X18.993Y12.210
N19490G1X18.789Y12.918
N19500G1X18.530Y13.606
N19510G1X18.217Y14.271
N19520G1X17.852Y14.910
N19530G1X17.405Y15.564
N19540G2X17.128Y16.052I2.232J1.588
N19550G1X17.004Y16.334
N19560G1X16.831Y16.602
N19570G1X16.606Y16.828
N19580G1X16.339Y17.000
N19590G1X16.058Y17.124
N19600G2X15.572Y17.400I1.103J2.507
N19610G1X14.915Y17.850
N19620G1X14.231Y18.237
N19630G1X13.864Y18.811
N19640G1X13.431Y19.354
N19650G1X13.402Y19.385
N19660G1X13.844Y18.840
N19670G1X14.211Y18.271
N19680G1X14.231Y18.237
N19690G2X10.000Y14.261I-4.231J0.263
N19700G2X5.769Y18.236I0.000J4.239
N19710G1X6.136Y18.811
N19720G1X6.569Y19.354
N19730G1X6.598Y19.385
N19740G1X6.157Y18.840
N19750G1X5.790Y18.271
N19760G1X5.769Y18.236
N19770G1X5.097Y17.856
N19780G1X4.442Y17.408
N19790G2X3.953Y17.131I-1.587J2.232
N19800G1X3.668Y17.006
N19810G1X3.397Y16.831
N19820G1X3.167Y16.601
N19830G1X2.991Y16.328
N19840G1X2.867Y16.043
N19850G2X2.589Y15.552I-2.510J1.096
N19860G1X2.143Y14.899
N19870G1X1.779Y14.261
N19880G1X1.467Y13.597
N19890G1X1.209Y12.910
N19900G1X1.006Y12.204
N19910G1X0.859Y11.481
N19920G1X0.770Y10.746
N19930G1X0.740Y10.000
N19940G1X0.770Y9.254
N19950G1X0.859Y8.519
N19960G1X1.006Y7.796
N19970G1X1.209Y7.089
N19980G1X1.468Y6.401
N19990G1X1.780Y5.736
N20000G1X2.145Y5.097
N20010G1X2.592Y4.442
N20020G2X2.869Y3.953I-2.232J-1.587
N20030G1X2.994Y3.668
N20040G1X3.168Y3.398
N20050G1X3.397Y3.170
N20060G1X3.667Y2.995
N20070G1X3.951Y2.870
N20080G2X4.439Y2.594I-1.099J-2.509
N20090G1X5.094Y2.146
N20100G1X5.769Y1.763
N20110G1X6.136Y1.189
N20120G1X6.569Y0.646
N20130G1X6.598Y0.615
N20140G1X6.157Y1.160
N20150G1X5.789Y1.729
N20160G1X5.769Y1.763
N20170G2X10.000Y5.739I4.231J-0.263
N20180G2X14.231Y1.764I0.000J-4.239
N20190G1X13.864Y1.189
N20200G1X13.431Y0.646
N20210G1X13.402Y0.615
N20220G1X13.843Y1.160
N20230G1X14.210Y1.729
N20240G1X14.231Y1.764
N20250G1X14.905Y2.146
N20260G1X15.558Y2.592
N20270G2X16.047Y2.869I1.587J-2.232
N20280G1X16.332Y2.994
N20290G1X16.604Y3.170
N20300G1X16.833Y3.400
N20310G1X17.009Y3.672
N20320G1X17.133Y3.957
N20330G2X17.411Y4.449I2.510J-1.095
N20340G1X17.859Y5.104
N20350G1X18.223Y5.743
N20360G1X18.535Y6.408
N20370G1X18.793Y7.095
N20380G1X18.995Y7.801
N20390G00Z6.000
N20400G00X5.365Y8.904
N20410G1Z-1.800F120.0
N20420G1X5.675Y9.565F800.0
N20430G1X5.927Y10.000
N20440G1X7.986
N20450G1X5.927Y10.000
N20460G1X5.599Y10.583
N20470G1X5.365Y11.096
N20480G1X5.675Y10.435
N20490G1X5.927Y10.000
N20500G1X5.599Y9.417
N20510G1X5.365Y8.904
N20520G00Z6.000
N20530G00X7.501Y18.500
N20540G1Z-1.800F120.0
N20550G2X10.000Y20.999I2.499J0.000F800.0
N20560G2X12.499Y18.500I0.000J-2.499
N20570G2X10.000Y16.001I-2.499J0.000
N20580G2X7.501Y18.500I0.000J2.499
N20590G00Z6.000
N20600G00X10.000Y-0.999
N20610G1Z-1.800F120.0
N20620G2X7.501Y1.500I0.000J2.499F800.0
N20630G2X10.000Y3.999I2.499J0.000
N20640G2X12.499Y1.500I0.000J-2.499
N20650G2X10.000Y-0.999I-2.499J0.000
N20660G00Z6.000
N20670G00X2.044Y2.046
N20680G1Z-2.100F120.0
N20690G1X2.301Y1.815F800.0
N20700G1X2.581Y1.612
N20710G1X2.883Y1.439
N20720G1X3.347Y1.235
N20730G1X4.172Y0.670
N20740G1X4.932Y0.236
N20750G1X5.723Y-0.135
N20760G1X6.540Y-0.442
N20770G1X7.380Y-0.684
N20780G1X8.240Y-0.859
N20790G1X9.114Y-0.965
N20800G1X10.000Y-1.001
N20810G1X10.887Y-0.965
N20820G1X11.763Y-0.859
N20830G1X12.622Y-0.684
N20840G1X13.462Y-0.442
N20850G1X14.279Y-0.134
N20860G1X15.068Y0.237
N20870G1X15.827Y0.670
N20880G1X16.650Y1.234
N20890G1X17.116Y1.438
N20900G1X17.418Y1.611
N20910G1X17.700Y1.815
N20920G1X17.958Y2.047
N20930G1X18.189Y2.306
N20940G1X18.393Y2.587
N20950G1X18.566Y2.890
N20960G1X18.770Y3.356
N20970G1X19.335Y4.182
N20980G1X19.768Y4.942
N20990G1X20.139Y5.732
N21000G1X20.445Y6.548
N21010G1X20.686Y7.387
N21020G1X20.860Y8.245
N21030G1X20.965Y9.117
N21040G1X21.001Y10.000
N21050G1X20.965Y10.889
N21060G1X20.858Y11.765
N21070G1X20.683Y12.626
N21080G1X20.440Y13.466
N21090G1X20.133Y14.284
N21100G1X19.761Y15.074
N21110G1X19.328Y15.832
N21120G1X18.763Y16.656
N21130G1X18.560Y17.118
N21140G1X18.389Y17.417
N21150G1X18.187Y17.696
N21160G1X17.958Y17.952
N21170G1X17.703Y18.181
N21180G1X17.425Y18.383
N21190G1X17.126Y18.555
N21200G1X16.665Y18.758
N21210G1X15.837Y19.326
N21220G1X15.075Y19.761
N21230G1X14.282Y20.134
N21240G1X13.462Y20.442
N21250G1X12.621Y20.684
N21260G1X11.760Y20.859
N21270G1X10.886Y20.965
N21280G1X10.000Y21.001
N21290G1X9.115Y20.965
N21300G1X8.242Y20.859
N21310G1X7.383Y20.685
N21320G1X6.543Y20.443
N21330G1X5.726Y20.136
N21340G1X4.935Y19.765
N21350G1X4.175Y19.332
N21360G1X3.350Y18.766
N21370G1X2.884Y18.562
N21380G1X2.582Y18.389
N21390G1X2.301Y18.185
N21400G1X2.043Y17.953
N21410G1X1.811Y17.695
N21420G1X1.607Y17.413
N21430G1X1.434Y17.111
N21440G1X1.231Y16.645
N21450G1X0.667Y15.821
N21460G1X0.234Y15.062
N21470G1X-0.136Y14.273
N21480G1X-0.443Y13.457
N21490G1X-0.685Y12.618
N21500G1X-0.859Y11.760
N21510G1X-0.965Y10.886
N21520G1X-1.001Y10.000
N21530G1X-0.965Y9.114
N21540G1X-0.859Y8.240
N21550G1X-0.685Y7.381
N21560G1X-0.443Y6.541
N21570G1X-0.136Y5.724
N21580G1X0.235Y4.934
N21590G1X0.669Y4.175
N21600G1X1.234Y3.350
N21610G1X1.437Y2.885
N21620G1X1.610Y2.584
N21630G1X1.813Y2.303
N21640G1X2.044Y2.046
N21650G00Z6.000
N21660G00X14.635Y8.904
N21670G1Z-2.100F120.0
N21680G1X14.325Y9.565F800.0
N21690G1X14.073Y10.000
N21700G1X14.401Y10.583
N21710G1X14.635Y11.096
N21720G1X14.325Y10.435
N21730G1X14.073Y10.000
N21740G1X12.014
N21750G1X14.073
N21760G1X14.401Y9.417
N21770G1X14.635Y8.904
N21780G1X15.614Y8.628
N21790G1X15.738Y9.306
N21800G1X15.780Y10.000
N21810G1X15.737Y10.698
N21820G1X15.613Y11.379
N21830G1X15.409Y12.038
N21840G1X15.128Y12.666
N21850G1X15.104Y12.710
N21860G1X15.211Y13.502
N21870G1X15.234Y13.859
N21880G1X15.168Y13.113
N21890G1X15.104Y12.710
N21900G2X10.000Y10.781I-5.104J5.790
N21910G2X4.896Y12.709I0.000J7.719
N21920G1X4.786Y13.543
N21930G1X4.767Y13.858
N21940G1X4.833Y13.114
N21950G1X4.896Y12.709
N21960G1X4.674Y12.244
N21970G1X4.445Y11.597
N21980G1X4.295Y10.924
N21990G1X4.225Y10.234
N22000G1X4.239Y9.534
N22010G1X4.336Y8.849
N22020G1X4.513Y8.183
N22030G1X4.768Y7.545
N22040G1X4.896Y7.291
N22050G1X4.790Y6.498
N22060G1X4.766Y6.141
N22070G1X4.833Y6.887
N22080G1X4.896Y7.291
N22090G2X10.000Y9.219I5.104J-5.790
N22100G2X15.104Y7.291I0.000J-7.719
N22110G1X15.213Y6.459
N22120G1X15.233Y6.142
N22130G1X15.167Y6.886
N22140G1X15.104Y7.291
N22150G1X15.327Y7.759
N22160G1X15.556Y8.406
N22170G1X15.614Y8.628
N22180G1X17.305Y8.214
N22190G1X17.424Y8.800
N22200G1X17.496Y9.396
N22210G1X17.520Y10.000
N22220G1X17.496Y10.608
N22230G1X17.423Y11.207
N22240G1X17.303Y11.795
N22250G1X17.137Y12.370
N22260G1X16.927Y12.928
N22270G1X16.673Y13.469
N22280G1X16.376Y13.987
N22290G1X15.987Y14.555
N22300G2X15.534Y15.353I3.650J2.597
N22310G1X15.480Y15.478
N22320G1X15.656Y15.653
N22330G1X15.480Y15.478
N22340G1X15.224Y15.593
N22350G1X14.909Y16.624
N22360G1X15.224Y15.593
N22370G2X10.000Y12.521I-5.224J2.907
N22380G2X4.775Y15.593I0.000J5.979
N22390G1X5.091Y16.622
N22400G1X4.775Y15.593
N22410G1X4.519Y15.479
N22420G1X4.358Y15.640
N22430G1X4.519Y15.479
N22440G1X4.461Y15.347
N22450G2X4.007Y14.544I-4.105J1.793
N22460G1X3.619Y13.977
N22470G1X3.324Y13.459
N22480G1X3.071Y12.920
N22490G1X2.861Y12.363
N22500G1X2.696Y11.789
N22510G1X2.577Y11.203
N22520G1X2.504Y10.606
N22530G1X2.480Y10.000
N22540G1X2.504Y9.394
N22550G1X2.577Y8.797
N22560G1X2.696Y8.210
N22570G1X2.861Y7.636
N22580G1X3.071Y7.077
N22590G1X3.325Y6.537
N22600G1X3.621Y6.019
N22610G1X4.010Y5.450
N22620G2X4.464Y4.650I-3.650J-2.596
N22630G1X4.520Y4.521
N22640G1X4.354Y4.355
N22650G1X4.520Y4.521
N22660G1X4.775Y4.407
N22670G1X5.091Y3.377
N22680G1X4.775Y4.407
N22690G2X10.000Y7.479I5.225J-2.907
N22700G2X15.225Y4.407I0.000J-5.979
N22710G1X14.909Y3.378
N22720G1X15.225Y4.407
N22730G1X15.481Y4.521
N22740G1X15.642Y4.360
N22750G1X15.481Y4.521
N22760G1X15.539Y4.653
N22770G2X15.993Y5.457I4.105J-1.791
N22780G1X16.382Y6.025
N22790G1X16.678Y6.544
N22800G1X16.931Y7.083
N22810G1X17.140Y7.641
N22820G1X17.305Y8.214
N22830G1X18.995Y7.801
N22840G1X19.142Y8.523
N22850G1X19.231Y9.257
N22860G1X19.260Y10.000
N22870G1X19.230Y10.748
N22880G1X19.141Y11.486
N22890G1X18.993Y12.210
N22900G1X18.789Y12.918
N22910G1X18.530Y13.606
N22920G1X18.217Y14.271
N22930G1X17.852Y14.910
N22940G1X17.405Y15.564
N22950G2X17.128Y16.052I2.232J1.588
N22960G1X17.004Y16.334
N22970G1X16.831Y16.602
N22980G1X16.606Y16.828
N22990G1X16.339Y17.000
N23000G1X16.058Y17.124
N23010G2X15.572Y17.400I1.103J2.507
N23020G1X14.915Y17.850
N23030G1X14.231Y18.237
N23040G1X13.864Y18.811
N23050G1X13.431Y19.354
N23060G1X13.402Y19.385
N23070G1X13.844Y18.840
N23080G1X14.211Y18.271
N23090G1X14.231Y18.237
N23100G2X10.000Y14.261I-4.231J0.263
N23110G2X5.769Y18.236I0.000J4.239
N23120G1X6.136Y18.811
N23130G1X6.569Y19.354
N23140G1X6.598Y19.385
N23150G1X6.157Y18.840
N23160G1X5.790Y18.271
N23170G1X5.769Y18.236
N23180G1X5.097Y17.856
N23190G1X4.442Y17.408
N23200G2X3.953Y17.131I-1.587J2.232
N23210G1X3.668Y17.006
N23220G1X3.397Y16.831
N23230G1X3.167Y16.601
N23240G1X2.991Y16.328
N23250G1X2.867Y16.043
N23260G2X2.589Y15.552I-2.510J1.096
N23270G1X2.143Y14.899
N23280G1X1.779Y14.261
N23290G1X1.467Y13.597
N23300G1X1.209Y12.910
N23310G1X1.006Y12.204
N23320G1X0.859Y11.481
N23330G1X0.770Y10.746
N23340G1X0.740Y10.000
N23350G1X0.770Y9.254
N23360G1X0.859Y8.519
N23370G1X1.006Y7.796
N23380G1X1.209Y7.089
N23390G1X1.468Y6.401
N23400G1X1.780Y5.736
N23410G1X2.145Y5.097
N23420G1X2.592Y4.442
N23430G2X2.869Y3.953I-2.232J-1.587
N23440G1X2.994Y3.668
N23450G1X3.168Y3.398
N23460G1X3.397Y3.170
N23470G1X3.667Y2.995
N23480G1X3.951Y2.870
N23490G2X4.439Y2.594I-1.099J-2.509
N23500G1X5.094Y2.146
N23510G1X5.769Y1.763
N23520G1X6.136Y1.189
N23530G1X6.569Y0.646
N23540G1X6.598Y0.615
N23550G1X6.157Y1.160
N23560G1X5.789Y1.729
N23570G1X5.769Y1.763
N23580G2X10.000Y5.739I4.231J-0.263
N23590G2X14.231Y1.764I0.000J-4.239
N23600G1X13.864Y1.189
N23610G1X13.431Y0.646
N23620G1X13.402Y0.615
N23630G1X13.843Y1.160
N23640G1X14.210Y1.729
N23650G1X14.231Y1.764
N23660G1X14.905Y2.146
N23670G1X15.558Y2.592
N23680G2X16.047Y2.869I1.587J-2.232
N23690G1X16.332Y2.994
N23700G1X16.604Y3.170
N23710G1X16.833Y3.400
N23720G1X17.009Y3.672
N23730G1X17.133Y3.957
N23740G2X17.411Y4.449I2.510J-1.095
N23750G1X17.859Y5.104
N23760G1X18.223Y5.743
N23770G1X18.535Y6.408
N23780G1X18.793Y7.095
N23790G1X18.995Y7.801
N23800G00Z6.000
N23810G00X5.365Y8.904
N23820G1Z-2.100F120.0
N23830G1X5.675Y9.565F800.0
N23840G1X5.927Y10.000
N23850G1X7.986
N23860G1X5.927Y10.000
N23870G1X5.599Y10.583
N23880G1X5.365Y11.096
N23890G1X5.675Y10.435
N23900G1X5.927Y10.000
N23910G1X5.599Y9.417
N23920G1X5.365Y8.904
N23930G00Z6.000
N23940G00X7.501Y18.500
N23950G1Z-2.100F120.0
N23960G2X10.000Y20.999I2.499J0.000F800.0
N23970G2X12.499Y18.500I0.000J-2.499
N23980G2X10.000Y16.001I-2.499J0.000
N23990G2X7.501Y18.500I0.000J2.499
N24000G00Z6.000
N24010G00X10.000Y-0.999
N24020G1Z-2.100F120.0
N24030G2X7.501Y1.500I0.000J2.499F800.0
N24040G2X10.000Y3.999I2.499J0.000
N24050G2X12.499Y1.500I0.000J-2.499
N24060G2X10.000Y-0.999I-2.499J0.000
N24070G00Z6.000
N24080G00X2.044Y2.046
N24090G1Z-2.400F120.0
N24100G1X2.301Y1.815F800.0
N24110G1X2.581Y1.612
N24120G1X2.883Y1.439
N24130G1X3.347Y1.235
N24140G1X4.172Y0.670
N24150G1X4.932Y0.236
N24160G1X5.723Y-0.135
N24170G1X6.540Y-0.442
N24180G1X7.380Y-0.684
N24190G1X8.240Y-0.859
N24200G1X9.114Y-0.965
N24210G1X10.000Y-1.001
N24220G1X10.887Y-0.965
N24230G1X11.763Y-0.859
N24240G1X12.622Y-0.684
N24250G1X13.462Y-0.442
N24260G1X14.279Y-0.134
N24270G1X15.068Y0.237
N24280G1X15.827Y0.670
N24290G1X16.650Y1.234
N24300G1X17.116Y1.438
N24310G1X17.418Y1.611
N24320G1X17.700Y1.815
N24330G1X17.958Y2.047
N24340G1X18.189Y2.306
N24350G1X18.393Y2.587
N24360G1X18.566Y2.890
N24370G1X18.770Y3.356
N24380G1X19.335Y4.182
N24390G1X19.768Y4.942
N24400G1X20.139Y5.732
N24410G1X20.445Y6.548
N24420G1X20.686Y7.387
N24430G1X20.860Y8.245
N24440G1X20.965Y9.117
N24450G1X21.001Y10.000
N24460G1X20.965Y10.889
N24470G1X20.858Y11.765
N24480G1X20.683Y12.626
N24490G1X20.440Y13.466
N24500G1X20.133Y14.284
N24510G1X19.761Y15.074
N24520G1X19.328Y15.832
N24530G1X18.763Y16.656
N24540G1X18.560Y17.118
N24550G1X18.389Y17.417
N24560G1X18.187Y17.696
N24570G1X17.958Y17.952
N24580G1X17.703Y18.181
N24590G1X17.425Y18.383
N24600G1X17.126Y18.555
N24610G1X16.665Y18.758
N24620G1X15.837Y19.326
N24630G1X15.075Y19.761
N24640G1X14.282Y20.134
N24650G1X13.462Y20.442
N24660G1X12.621Y20.684
N24670G1X11.760Y20.859
N24680G1X10.886Y20.965
N24690G1X10.000Y21.001
N24700G1X9.115Y20.965
N24710G1X8.242Y20.859
N24720G1X7.383Y20.685
N24730G1X6.543Y20.443
N24740G1X5.726Y20.136
N24750G1X4.935Y19.765
N24760G1X4.175Y19.332
N24770G1X3.350Y18.766
N24780G1X2.884Y18.562
N24790G1X2.582Y18.389
N24800G1X2.301Y18.185
N24810G1X2.043Y17.953
N24820G1X1.811Y17.695
N24830G1X1.607Y17.413
N24840G1X1.434Y17.111
N24850G1X1.231Y16.645
N24860G1X0.667Y15.821
N24870G1X0.234Y15.062
N24880G1X-0.136Y14.273
N24890G1X-0.443Y13.457
N24900G1X-0.685Y12.618
N24910G1X-0.859Y11.760
N24920G1X-0.965Y10.886
N24930G1X-1.001Y10.000
N24940G1X-0.965Y9.114
N24950G1X-0.859Y8.240
N24960G1X-0.685Y7.381
N24970G1X-0.443Y6.541
N24980G1X-0.136Y5.724
N24990G1X0.235Y4.934
N25000G1X0.669Y4.175
N25010G1X1.234Y3.350
N25020G1X1.437Y2.885
N25030G1X1.610Y2.584
N25040G1X1.813Y2.303
N25050G1X2.044Y2.046
N25060G00Z6.000
N25070G00X14.635Y8.904
N25080G1Z-2.400F120.0
N25090G1X14.325Y9.565F800.0
N25100G1X14.073Y10.000
N25110G1X14.401Y10.583
N25120G1X14.635Y11.096
N25130G1X14.325Y10.435
N25140G1X14.073Y10.000
N25150G1X12.014
N25160G1X14.073
N25170G1X14.401Y9.417
N25180G1X14.635Y8.904
N25190G1X15.614Y8.628
N25200G1X15.738Y9.306
N25210G1X15.780Y10.000
N25220G1X15.737Y10.698
N25230G1X15.613Y11.379
N25240G1X15.409Y12.038
N25250G1X15.128Y12.666
N25260G1X15.104Y12.710
N25270G1X15.211Y13.502
N25280G1X15.234Y13.859
N25290G1X15.168Y13.113
N25300G1X15.104Y12.710
N25310G2X10.000Y10.781I-5.104J5.790
N25320G2X4.896Y12.709I0.000J7.719
N25330G1X4.786Y13.543
N25340G1X4.767Y13.858
N25350G1X4.833Y13.114
N25360G1X4.896Y12.709
N25370G1X4.674Y12.244
N25380G1X4.445Y11.597
N25390G1X4.295Y10.924
N25400G1X4.225Y10.234
N25410G1X4.239Y9.534
N25420G1X4.336Y8.849
N25430G1X4.513Y8.183
N25440G1X4.768Y7.545
N25450G1X4.896Y7.291
N25460G1X4.790Y6.498
N25470G1X4.766Y6.141
N25480G1X4.833Y6.887
N25490G1X4.896Y7.291
N25500G2X10.000Y9.219I5.104J-5.790
N25510G2X15.104Y7.291I0.000J-7.719
N25520G1X15.213Y6.459
N25530G1X15.233Y6.142
N25540G1X15.167Y6.886
N25550G1X15.104Y7.291
N25560G1X15.327Y7.759
N25570G1X15.556Y8.406
N25580G1X15.614Y8.628
N25590G1X17.305Y8.214
N25600G1X17.424Y8.800
N25610G1X17.496Y9.396
N25620G1X17.520Y10.000
N25630G1X17.496Y10.608
N25640G1X17.423Y11.207
N25650G1X17.303Y11.795
N25660G1X17.137Y12.370
N25670G1X16.927Y12.928
N25680G1X16.673Y13.469
N25690G1X16.376Y13.987
N25700G1X15.987Y14.555
N25710G2X15.534Y15.353I3.650J2.597
N25720G1X15.480Y15.478
N25730G1X15.656Y15.653
N25740G1X15.480Y15.478
N25750G1X15.224Y15.593
N25760G1X14.909Y16.624
N25770G1X15.224Y15.593
N25780G2X10.000Y12.521I-5.224J2.907
N25790G2X4.775Y15.593I0.000J5.979
N25800G1X5.091Y16.622
N25810G1X4.775Y15.593
N25820G1X4.519Y15.479
N25830G1X4.358Y15.640
N25840G1X4.519Y15.479
N25850G1X4.461Y15.347
N25860G2X4.007Y14.544I-4.105J1.793
N25870G1X3.619Y13.977
N25880G1X3.324Y13.459
N25890G1X3.071Y12.920
N25900G1X2.861Y12.363
N25910G1X2.696Y11.789
N25920G1X2.577Y11.203
N25930G1X2.504Y10.606
N25940G1X2.480Y10.000
N25950G1X2.504Y9.394
N25960G1X2.577Y8.797
N25970G1X2.696Y8.210
N25980G1X2.861Y7.636
N25990G1X3.071Y7.077
N26000G1X3.325Y6.537
N26010G1X3.621Y6.019
N26020G1X4.010Y5.450
N26030G2X4.464Y4.650I-3.650J-2.596
N26040G1X4.520Y4.521
N26050G1X4.354Y4.355
N26060G1X4.520Y4.521
N26070G1X4.775Y4.407
N26080G1X5.091Y3.377
N26090G1X4.775Y4.407
N26100G2X10.000Y7.479I5.225J-2.907
N26110G2X15.225Y4.407I0.000J-5.979
N26120G1X14.909Y3.378
N26130G1X15.225Y4.407
N26140G1X15.481Y4.521
N26150G1X15.642Y4.360
N26160G1X15.481Y4.521
N26170G1X15.539Y4.653
N26180G2X15.993Y5.457I4.105J-1.791
N26190G1X16.382Y6.025
N26200G1X16.678Y6.544
N26210G1X16.931Y7.083
N26220G1X17.140Y7.641
N26230G1X17.305Y8.214
N26240G1X18.995Y7.801
N26250G1X19.142Y8.523
N26260G1X19.231Y9.257
N26270G1X19.260Y10.000
N26280G1X19.230Y10.748
N26290G1X19.141Y11.486
N26300G1X18.993Y12.210
N26310G1X18.789Y12.918
N26320G1X18.530Y13.606
N26330G1X18.217Y14.271
N26340G1X17.852Y14.910
N26350G1X17.405Y15.564
N26360G2X17.128Y16.052I2.232J1.588
N26370G1X17.004Y16.334
N26380G1X16.831Y16.602
N26390G1X16.606Y16.828
N26400G1X16.339Y17.000
N26410G1X16.058Y17.124
N26420G2X15.572Y17.400I1.103J2.507
N26430G1X14.915Y17.850
N26440G1X14.231Y18.237
N26450G1X13.864Y18.811
N26460G1X13.431Y19.354
N26470G1X13.402Y19.385
N26480G1X13.844Y18.840
N26490G1X14.211Y18.271
N26500G1X14.231Y18.237
N26510G2X10.000Y14.261I-4.231J0.263
N26520G2X5.769Y18.236I0.000J4.239
N26530G1X6.136Y18.811
N26540G1X6.569Y19.354
N26550G1X6.598Y19.385
N26560G1X6.157Y18.840
N26570G1X5.790Y18.271
N26580G1X5.769Y18.236
N26590G1X5.097Y17.856
N26600G1X4.442Y17.408
N26610G2X3.953Y17.131I-1.587J2.232
N26620G1X3.668Y17.006
N26630G1X3.397Y16.831
N26640G1X3.167Y16.601
N26650G1X2.991Y16.328
N26660G1X2.867Y16.043
N26670G2X2.589Y15.552I-2.510J1.096
N26680G1X2.143Y14.899
N26690G1X1.779Y14.261
N26700G1X1.467Y13.597
N26710G1X1.209Y12.910
N26720G1X1.006Y12.204
N26730G1X0.859Y11.481
N26740G1X0.770Y10.746
N26750G1X0.740Y10.000
N26760G1X0.770Y9.254
N26770G1X0.859Y8.519
N26780G1X1.006Y7.796
N26790G1X1.209Y7.089
N26800G1X1.468Y6.401
N26810G1X1.780Y5.736
N26820G1X2.145Y5.097
N26830G1X2.592Y4.442
N26840G2X2.869Y3.953I-2.232J-1.587
N26850G1X2.994Y3.668
N26860G1X3.168Y3.398
N26870G1X3.397Y3.170
N26880G1X3.667Y2.995
N26890G1X3.951Y2.870
N26900G2X4.439Y2.594I-1.099J-2.509
N26910G1X5.094Y2.146
N26920G1X5.769Y1.763
N26930G1X6.136Y1.189
N26940G1X6.569Y0.646
N26950G1X6.598Y0.615
N26960G1X6.157Y1.160
N26970G1X5.789Y1.729
N26980G1X5.769Y1.763
N26990G2X10.000Y5.739I4.231J-0.263
N27000G2X14.231Y1.764I0.000J-4.239
N27010G1X13.864Y1.189
N27020G1X13.431Y0.646
N27030G1X13.402Y0.615
N27040G1X13.843Y1.160
N27050G1X14.210Y1.729
N27060G1X14.231Y1.764
N27070G1X14.905Y2.146
N27080G1X15.558Y2.592
N27090G2X16.047Y2.869I1.587J-2.232
N27100G1X16.332Y2.994
N27110G1X16.604Y3.170
N27120G1X16.833Y3.400
N27130G1X17.009Y3.672
N27140G1X17.133Y3.957
N27150G2X17.411Y4.449I2.510J-1.095
N27160G1X17.859Y5.104
N27170G1X18.223Y5.743
N27180G1X18.535Y6.408
N27190G1X18.793Y7.095
N27200G1X18.995Y7.801
N27210G00Z6.000
N27220G00X5.365Y8.904
N27230G1Z-2.400F120.0
N27240G1X5.675Y9.565F800.0
N27250G1X5.927Y10.000
N27260G1X7.986
N27270G1X5.927Y10.000
N27280G1X5.599Y10.583
N27290G1X5.365Y11.096
N27300G1X5.675Y10.435
N27310G1X5.927Y10.000
N27320G1X5.599Y9.417
N27330G1X5.365Y8.904
N27340G00Z6.000
N27350G00X7.501Y18.500
N27360G1Z-2.400F120.0
N27370G2X10.000Y20.999I2.499J0.000F800.0
N27380G2X12.499Y18.500I0.000J-2.499
N27390G2X10.000Y16.001I-2.499J0.000
N27400G2X7.501Y18.500I0.000J2.499
N27410G00Z6.000
N27420G00X10.000Y-0.999
N27430G1Z-2.400F120.0
N27440G2X7.501Y1.500I0.000J2.499F800.0
N27450G2X10.000Y3.999I2.499J0.000
N27460G2X12.499Y1.500I0.000J-2.499
N27470G2X10.000Y-0.999I-2.499J0.000
N27480G00Z6.000
N27490G00X2.044Y2.046
N27500G1Z-2.700F120.0
N27510G1X2.301Y1.815F800.0
N27520G1X2.581Y1.612
N27530G1X2.883Y1.439
N27540G1X3.347Y1.235
N27550G1X4.172Y0.670
N27560G1X4.932Y0.236
N27570G1X5.723Y-0.135
N27580G1X6.540Y-0.442
N27590G1X7.380Y-0.684
N27600G1X8.240Y-0.859
N27610G1X9.114Y-0.965
N27620G1X10.000Y-1.001
N27630G1X10.887Y-0.965
N27640G1X11.763Y-0.859
N27650G1X12.622Y-0.684
N27660G1X13.462Y-0.442
N27670G1X14.279Y-0.134
N27680G1X15.068Y0.237
N27690G1X15.827Y0.670
N27700G1X16.650Y1.234
N27710G1X17.116Y1.438
N27720G1X17.418Y1.611
N27730G1X17.700Y1.815
N27740G1X17.958Y2.047
N27750G1X18.189Y2.306
N27760G1X18.393Y2.587
N27770G1X18.566Y2.890
N27780G1X18.770Y3.356
N27790G1X19.335Y4.182
N27800G1X19.768Y4.942
N27810G1X20.139Y5.732
N27820G1X20.445Y6.548
N27830G1X20.686Y7.387
N27840G1X20.860Y8.245
N27850G1X20.965Y9.117
N27860G1X21.001Y10.000
N27870G1X20.965Y10.889
N27880G1X20.858Y11.765
N27890G1X20.683Y12.626
N27900G1X20.440Y13.466
N27910G1X20.133Y14.284
N27920G1X19.761Y15.074
N27930G1X19.328Y15.832
N27940G1X18.763Y16.656
N27950G1X18.560Y17.118
N27960G1X18.389Y17.417
N27970G1X18.187Y17.696
N27980G1X17.958Y17.952
N27990G1X17.703Y18.181
N28000G1X17.425Y18.383
N28010G1X17.126Y18.555
N28020G1X16.665Y18.758
N28030G1X15.837Y19.326
N28040G1X15.075Y19.761
N28050G1X14.282Y20.134
N28060G1X13.462Y20.442
N28070G1X12.621Y20.684
N28080G1X11.760Y20.859
N28090G1X10.886Y20.965
N28100G1X10.000Y21.001
N28110G1X9.115Y20.965
N28120G1X8.242Y20.859
N28130G1X7.383Y20.685
N28140G1X6.543Y20.443
N28150G1X5.726Y20.136
N28160G1X4.935Y19.765
N28170G1X4.175Y19.332
N28180G1X3.350Y18.766
N28190G1X2.884Y18.562
N28200G1X2.582Y18.389
N28210G1X2.301Y18.185
N28220G1X2.043Y17.953
N28230G1X1.811Y17.695
N28240G1X1.607Y17.413
N28250G1X1.434Y17.111
N28260G1X1.231Y16.645
N28270G1X0.667Y15.821
N28280G1X0.234Y15.062
N28290G1X-0.136Y14.273
N28300G1X-0.443Y13.457
N28310G1X-0.685Y12.618
N28320G1X-0.859Y11.760
N28330G1X-0.965Y10.886
N28340G1X-1.001Y10.000
N28350G1X-0.965Y9.114
N28360G1X-0.859Y8.240
N28370G1X-0.685Y7.381
N28380G1X-0.443Y6.541
N28390G1X-0.136Y5.724
N28400G1X0.235Y4.934
N28410G1X0.669Y4.175
N28420G1X1.234Y3.350
N28430G1X1.437Y2.885
N28440G1X1.610Y2.584
N28450G1X1.813Y2.303
N28460G1X2.044Y2.046
N28470G00Z6.000
N28480G00X14.635Y8.904
N28490G1Z-2.700F120.0
N28500G1X14.325Y9.565F800.0
N28510G1X14.073Y10.000
N28520G1X14.401Y10.583
N28530G1X14.635Y11.096
N28540G1X14.325Y10.435
N28550G1X14.073Y10.000
N28560G1X12.014
N28570G1X14.073
N28580G1X14.401Y9.417
N28590G1X14.635Y8.904
N28600G1X15.614Y8.628
N28610G1X15.738Y9.306
N28620G1X15.780Y10.000
N28630G1X15.737Y10.698
N28640G1X15.613Y11.379
N28650G1X15.409Y12.038
N28660G1X15.128Y12.666
N28670G1X15.104Y12.710
N28680G1X15.211Y13.502
N28690G1X15.234Y13.859
N28700G1X15.168Y13.113
N28710G1X15.104Y12.710
N28720G2X10.000Y10.781I-5.104J5.790
N28730G2X4.896Y12.709I0.000J7.719
N28740G1X4.786Y13.543
N28750G1X4.767Y13.858
N28760G1X4.833Y13.114
N28770G1X4.896Y12.709
N28780G1X4.674Y12.244
N28790G1X4.445Y11.597
N28800G1X4.295Y10.924
N28810G1X4.225Y10.234
N28820G1X4.239Y9.534
N28830G1X4.336Y8.849
N28840G1X4.513Y8.183
N28850G1X4.768Y7.545
N28860G1X4.896Y7.291
N28870G1X4.790Y6.498
N28880G1X4.766Y6.141
N28890G1X4.833Y6.887
N28900G1X4.896Y7.291
N28910G2X10.000Y9.219I5.104J-5.790
N28920G2X15.104Y7.291I0.000J-7.719
N28930G1X15.213Y6.459
N28940G1X15.233Y6.142
N28950G1X15.167Y6.886
N28960G1X15.104Y7.291
N28970G1X15.327Y7.759
N28980G1X15.556Y8.406
N28990G1X15.614Y8.628
N29000G1X17.305Y8.214
N29010G1X17.424Y8.800
N29020G1X17.496Y9.396
N29030G1X17.520Y10.000
N29040G1X17.496Y10.608
N29050G1X17.423Y11.207
N29060G1X17.303Y11.795
N29070G1X17.137Y12.370
N29080G1X16.927Y12.928
N29090G1X16.673Y13.469
N29100G1X16.376Y13.987
N29110G1X15.987Y14.555
N29120G2X15.534Y15.353I3.650J2.597
N29130G1X15.480Y15.478
N29140G1X15.656Y15.653
N29150G1X15.480Y15.478
N29160G1X15.224Y15.593
N29170G1X14.909Y16.624
N29180G1X15.224Y15.593
N29190G2X10.000Y12.521I-5.224J2.907
N29200G2X4.775Y15.593I0.000J5.979
N29210G1X5.091Y16.622
N29220G1X4.775Y15.593
N29230G1X4.519Y15.479
N29240G1X4.358Y15.640
N29250G1X4.519Y15.479
N29260G1X4.461Y15.347
N29270G2X4.007Y14.544I-4.105J1.793
N29280G1X3.619Y13.977
N29290G1X3.324Y13.459
N29300G1X3.071Y12.920
N29310G1X2.861Y12.363
N29320G1X2.696Y11.789
N29330G1X2.577Y11.203
N29340G1X2.504Y10.606
N29350G1X2.480Y10.000
N29360G1X2.504Y9.394
N29370G1X2.577Y8.797
N29380G1X2.696Y8.210
N29390G1X2.861Y7.636
N29400G1X3.071Y7.077
N29410G1X3.325Y6.537
N29420G1X3.621Y6.019
N29430G1X4.010Y5.450
N29440G2X4.464Y4.650I-3.650J-2.596
N29450G1X4.520Y4.521
N29460G1X4.354Y4.355
N29470G1X4.520Y4.521
N29480G1X4.775Y4.407
N29490G1X5.091Y3.377
N29500G1X4.775Y4.407
N29510G2X10.000Y7.479I5.225J-2.907
N29520G2X15.225Y4.407I0.000J-5.979
N29530G1X14.909Y3.378
N29540G1X15.225Y4.407
N29550G1X15.481Y4.521
N29560G1X15.642Y4.360
N29570G1X15.481Y4.521
N29580G1X15.539Y4.653
N29590G2X15.993Y5.457I4.105J-1.791
N29600G1X16.382Y6.025
N29610G1X16.678Y6.544
N29620G1X16.931Y7.083
N29630G1X17.140Y7.641
N29640G1X17.305Y8.214
N29650G1X18.995Y7.801
N29660G1X19.142Y8.523
N29670G1X19.231Y9.257
N29680G1X19.260Y10.000
N29690G1X19.230Y10.748
N29700G1X19.141Y11.486
N29710G1X18.993Y12.210
N29720G1X18.789Y12.918
N29730G1X18.530Y13.606
N29740G1X18.217Y14.271
N29750G1X17.852Y14.910
N29760G1X17.405Y15.564
N29770G2X17.128Y16.052I2.232J1.588
N29780G1X17.004Y16.334
N29790G1X16.831Y16.602
N29800G1X16.606Y16.828
N29810G1X16.339Y17.000
N29820G1X16.058Y17.124
N29830G2X15.572Y17.400I1.103J2.507
N29840G1X14.915Y17.850
N29850G1X14.231Y18.237
N29860G1X13.864Y18.811
N29870G1X13.431Y19.354
N29880G1X13.402Y19.385
N29890G1X13.844Y18.840
N29900G1X14.211Y18.271
N29910G1X14.231Y18.237
N29920G2X10.000Y14.261I-4.231J0.263
N29930G2X5.769Y18.236I0.000J4.239
N29940G1X6.136Y18.811
N29950G1X6.569Y19.354
N29960G1X6.598Y19.385
N29970G1X6.157Y18.840
N29980G1X5.790Y18.271
N29990G1X5.769Y18.236
N30000G1X5.097Y17.856
N30010G1X4.442Y17.408
N30020G2X3.953Y17.131I-1.587J2.232
N30030G1X3.668Y17.006
N30040G1X3.397Y16.831
N30050G1X3.167Y16.601
N30060G1X2.991Y16.328
N30070G1X2.867Y16.043
N30080G2X2.589Y15.552I-2.510J1.096
N30090G1X2.143Y14.899
N30100G1X1.779Y14.261
N30110G1X1.467Y13.597
N30120G1X1.209Y12.910
N30130G1X1.006Y12.204
N30140G1X0.859Y11.481
N30150G1X0.770Y10.746
N30160G1X0.740Y10.000
N30170G1X0.770Y9.254
N30180G1X0.859Y8.519
N30190G1X1.006Y7.796
N30200G1X1.209Y7.089
N30210G1X1.468Y6.401
N30220G1X1.780Y5.736
N30230G1X2.145Y5.097
N30240G1X2.592Y4.442
N30250G2X2.869Y3.953I-2.232J-1.587
N30260G1X2.994Y3.668
N30270G1X3.168Y3.398
N30280G1X3.397Y3.170
N30290G1X3.667Y2.995
N30300G1X3.951Y2.870
N30310G2X4.439Y2.594I-1.099J-2.509
N30320G1X5.094Y2.146
N30330G1X5.769Y1.763
N30340G1X6.136Y1.189
N30350G1X6.569Y0.646
N30360G1X6.598Y0.615
N30370G1X6.157Y1.160
N30380G1X5.789Y1.729
N30390G1X5.769Y1.763
N30400G2X10.000Y5.739I4.231J-0.263
N30410G2X14.231Y1.764I0.000J-4.239
N30420G1X13.864Y1.189
N30430G1X13.431Y0.646
N30440G1X13.402Y0.615
N30450G1X13.843Y1.160
N30460G1X14.210Y1.729
N30470G1X14.231Y1.764
N30480G1X14.905Y2.146
N30490G1X15.558Y2.592
N30500G2X16.047Y2.869I1.587J-2.232
N30510G1X16.332Y2.994
N30520G1X16.604Y3.170
N30530G1X16.833Y3.400
N30540G1X17.009Y3.672
N30550G1X17.133Y3.957
N30560G2X17.411Y4.449I2.510J-1.095
N30570G1X17.859Y5.104
N30580G1X18.223Y5.743
N30590G1X18.535Y6.408
N30600G1X18.793Y7.095
N30610G1X18.995Y7.801
N30620G00Z6.000
N30630G00X5.365Y8.904
N30640G1Z-2.700F120.0
N30650G1X5.675Y9.565F800.0
N30660G1X5.927Y10.000
N30670G1X7.986
N30680G1X5.927Y10.000
N30690G1X5.599Y10.583
N30700G1X5.365Y11.096
N30710G1X5.675Y10.435
N30720G1X5.927Y10.000
N30730G1X5.599Y9.417
N30740G1X5.365Y8.904
N30750G00Z6.000
N30760G00X7.501Y18.500
N30770G1Z-2.700F120.0
N30780G2X10.000Y20.999I2.499J0.000F800.0
N30790G2X12.499Y18.500I0.000J-2.499
N30800G2X10.000Y16.001I-2.499J0.000
N30810G2X7.501Y18.500I0.000J2.499
N30820G00Z6.000
N30830G00X10.000Y-0.999
N30840G1Z-2.700F120.0
N30850G2X7.501Y1.500I0.000J2.499F800.0
N30860G2X10.000Y3.999I2.499J0.000
N30870G2X12.499Y1.500I0.000J-2.499
N30880G2X10.000Y-0.999I-2.499J0.000
N30890G00Z6.000
N30900G00X2.044Y2.046
N30910G1Z-3.000F120.0
N30920G1X2.301Y1.815F800.0
N30930G1X2.581Y1.612
N30940G1X2.883Y1.439
N30950G1X3.347Y1.235
N30960G1X4.172Y0.670
N30970G1X4.932Y0.236
N30980G1X5.723Y-0.135
N30990G1X6.540Y-0.442
N31000G1X7.380Y-0.684
N31010G1X8.240Y-0.859
N31020G1X9.114Y-0.965
N31030G1X10.000Y-1.001
N31040G1X10.887Y-0.965
N31050G1X11.763Y-0.859
N31060G1X12.622Y-0.684
N31070G1X13.462Y-0.442
N31080G1X14.279Y-0.134
N31090G1X15.068Y0.237
N31100G1X15.827Y0.670
N31110G1X16.650Y1.234
N31120G1X17.116Y1.438
N31130G1X17.418Y1.611
N31140G1X17.700Y1.815
N31150G1X17.958Y2.047
N31160G1X18.189Y2.306
N31170G1X18.393Y2.587
N31180G1X18.566Y2.890
N31190G1X18.770Y3.356
N31200G1X19.335Y4.182
N31210G1X19.768Y4.942
N31220G1X20.139Y5.732
N31230G1X20.445Y6.548
N31240G1X20.686Y7.387
N31250G1X20.860Y8.245
N31260G1X20.965Y9.117
N31270G1X21.001Y10.000
N31280G1X20.965Y10.889
N31290G1X20.858Y11.765
N31300G1X20.683Y12.626
N31310G1X20.440Y13.466
N31320G1X20.133Y14.284
N31330G1X19.761Y15.074
N31340G1X19.328Y15.832
N31350G1X18.763Y16.656
N31360G1X18.560Y17.118
N31370G1X18.389Y17.417
N31380G1X18.187Y17.696
N31390G1X17.958Y17.952
N31400G1X17.703Y18.181
N31410G1X17.425Y18.383
N31420G1X17.126Y18.555
N31430G1X16.665Y18.758
N31440G1X15.837Y19.326
N31450G1X15.075Y19.761
N31460G1X14.282Y20.134
N31470G1X13.462Y20.442
N31480G1X12.621Y20.684
N31490G1X11.760Y20.859
N31500G1X10.886Y20.965
N31510G1X10.000Y21.001
N31520G1X9.115Y20.965
N31530G1X8.242Y20.859
N31540G1X7.383Y20.685
N31550G1X6.543Y20.443
N31560G1X5.726Y20.136
N31570G1X4.935Y19.765
N31580G1X4.175Y19.332
N31590G1X3.350Y18.766
N31600G1X2.884Y18.562
N31610G1X2.582Y18.389
N31620G1X2.301Y18.185
N31630G1X2.043Y17.953
N31640G1X1.811Y17.695
N31650G1X1.607Y17.413
N31660G1X1.434Y17.111
N31670G1X1.231Y16.645
N31680G1X0.667Y15.821
N31690G1X0.234Y15.062
N31700G1X-0.136Y14.273
N31710G1X-0.443Y13.457
N31720G1X-0.685Y12.618
N31730G1X-0.859Y11.760
N31740G1X-0.965Y10.886
N31750G1X-1.001Y10.000
N31760G1X-0.965Y9.114
N31770G1X-0.859Y8.240
N31780G1X-0.685Y7.381
N31790G1X-0.443Y6.541
N31800G1X-0.136Y5.724
N31810G1X0.235Y4.934
N31820G1X0.669Y4.175
N31830G1X1.234Y3.350
N31840G1X1.437Y2.885
N31850G1X1.610Y2.584
N31860G1X1.813Y2.303
N31870G1X2.044Y2.046
N31880G00Z6.000
N31890G00X14.635Y8.904
N31900G1Z-3.000F120.0
N31910G1X14.325Y9.565F800.0
N31920G1X14.073Y10.000
N31930G1X14.401Y10.583
N31940G1X14.635Y11.096
N31950G1X14.325Y10.435
N31960G1X14.073Y10.000
N31970G1X12.014
N31980G1X14.073
N31990G1X14.401Y9.417
N32000G1X14.635Y8.904
N32010G1X15.614Y8.628
N32020G1X15.738Y9.306
N32030G1X15.780Y10.000
N32040G1X15.737Y10.698
N32050G1X15.613Y11.379
N32060G1X15.409Y12.038
N32070G1X15.128Y12.666
N32080G1X15.104Y12.710
N32090G1X15.211Y13.502
N32100G1X15.234Y13.859
N32110G1X15.168Y13.113
N32120G1X15.104Y12.710
N32130G2X10.000Y10.781I-5.104J5.790
N32140G2X4.896Y12.709I0.000J7.719
N32150G1X4.786Y13.543
N32160G1X4.767Y13.858
N32170G1X4.833Y13.114
N32180G1X4.896Y12.709
N32190G1X4.674Y12.244
N32200G1X4.445Y11.597
N32210G1X4.295Y10.924
N32220G1X4.225Y10.234
N32230G1X4.239Y9.534
N32240G1X4.336Y8.849
N32250G1X4.513Y8.183
N32260G1X4.768Y7.545
N32270G1X4.896Y7.291
N32280G1X4.790Y6.498
N32290G1X4.766Y6.141
N32300G1X4.833Y6.887
N32310G1X4.896Y7.291
N32320G2X10.000Y9.219I5.104J-5.790
N32330G2X15.104Y7.291I0.000J-7.719
N32340G1X15.213Y6.459
N32350G1X15.233Y6.142
N32360G1X15.167Y6.886
N32370G1X15.104Y7.291
N32380G1X15.327Y7.759
N32390G1X15.556Y8.406
N32400G1X15.614Y8.628
N32410G1X17.305Y8.214
N32420G1X17.424Y8.800
N32430G1X17.496Y9.396
N32440G1X17.520Y10.000
N32450G1X17.496Y10.608
N32460G1X17.423Y11.207
N32470G1X17.303Y11.795
N32480G1X17.137Y12.370
N32490G1X16.927Y12.928
N32500G1X16.673Y13.469
N32510G1X16.376Y13.987
N32520G1X15.987Y14.555
N32530G2X15.534Y15.353I3.650J2.597
N32540G1X15.480Y15.478
N32550G1X15.656Y15.653
N32560G1X15.480Y15.478
N32570G1X15.224Y15.593
N32580G1X14.909Y16.624
N32590G1X15.224Y15.593
N32600G2X10.000Y12.521I-5.224J2.907
N32610G2X4.775Y15.593I0.000J5.979
N32620G1X5.091Y16.622
N32630G1X4.775Y15.593
N32640G1X4.519Y15.479
N32650G1X4.358Y15.640
N32660G1X4.519Y15.479
N32670G1X4.461Y15.347
N32680G2X4.007Y14.544I-4.105J1.793
N32690G1X3.619Y13.977
N32700G1X3.324Y13.459
N32710G1X3.071Y12.920
N32720G1X2.861Y12.363
N32730G1X2.696Y11.789
N32740G1X2.577Y11.203
N32750G1X2.504Y10.606
N32760G1X2.480Y10.000
N32770G1X2.504Y9.394
N32780G1X2.577Y8.797
N32790G1X2.696Y8.210
N32800G1X2.861Y7.636
N32810G1X3.071Y7.077
N32820G1X3.325Y6.537
N32830G1X3.621Y6.019
N32840G1X4.010Y5.450
N32850G2X4.464Y4.650I-3.650J-2.596
N32860G1X4.520Y4.521
N32870G1X4.354Y4.355
N32880G1X4.520Y4.521
N32890G1X4.775Y4.407
N32900G1X5.091Y3.377
N32910G1X4.775Y4.407
N32920G2X10.000Y7.479I5.225J-2.907
N32930G2X15.225Y4.407I0.000J-5.979
N32940G1X14.909Y3.378
N32950G1X15.225Y4.407
N32960G1X15.481Y4.521
N32970G1X15.642Y4.360
N32980G1X15.481Y4.521
N32990G1X15.539Y4.653
N33000G2X15.993Y5.457I4.105J-1.791
N33010G1X16.382Y6.025
N33020G1X16.678Y6.544
N33030G1X16.931Y7.083
N33040G1X17.140Y7.641
N33050G1X17.305Y8.214
N33060G1X18.995Y7.801
N33070G1X19.142Y8.523
N33080G1X19.231Y9.257
N33090G1X19.260Y10.000
N33100G1X19.230Y10.748
N33110G1X19.141Y11.486
N33120G1X18.993Y12.210
N33130G1X18.789Y12.918
N33140G1X18.530Y13.606
N33150G1X18.217Y14.271
N33160G1X17.852Y14.910
N33170G1X17.405Y15.564
N33180G2X17.128Y16.052I2.232J1.588
N33190G1X17.004Y16.334
N33200G1X16.831Y16.602
N33210G1X16.606Y16.828
N33220G1X16.339Y17.000
N33230G1X16.058Y17.124
N33240G2X15.572Y17.400I1.103J2.507
N33250G1X14.915Y17.850
N33260G1X14.231Y18.237
N33270G1X13.864Y18.811
N33280G1X13.431Y19.354
N33290G1X13.402Y19.385
N33300G1X13.844Y18.840
N33310G1X14.211Y18.271
N33320G1X14.231Y18.237
N33330G2X10.000Y14.261I-4.231J0.263
N33340G2X5.769Y18.236I0.000J4.239
N33350G1X6.136Y18.811
N33360G1X6.569Y19.354
N33370G1X6.598Y19.385
N33380G1X6.157Y18.840
N33390G1X5.790Y18.271
N33400G1X5.769Y18.236
N33410G1X5.097Y17.856
N33420G1X4.442Y17.408
N33430G2X3.953Y17.131I-1.587J2.232
N33440G1X3.668Y17.006
N33450G1X3.397Y16.831
N33460G1X3.167Y16.601
N33470G1X2.991Y16.328
N33480G1X2.867Y16.043
N33490G2X2.589Y15.552I-2.510J1.096
N33500G1X2.143Y14.899
N33510G1X1.779Y14.261
N33520G1X1.467Y13.597
N33530G1X1.209Y12.910
N33540G1X1.006Y12.204
N33550G1X0.859Y11.481
N33560G1X0.770Y10.746
N33570G1X0.740Y10.000
N33580G1X0.770Y9.254
N33590G1X0.859Y8.519
N33600G1X1.006Y7.796
N33610G1X1.209Y7.089
N33620G1X1.468Y6.401
N33630G1X1.780Y5.736
N33640G1X2.145Y5.097
N33650G1X2.592Y4.442
N33660G2X2.869Y3.953I-2.232J-1.587
N33670G1X2.994Y3.668
N33680G1X3.168Y3.398
N33690G1X3.397Y3.170
N33700G1X3.667Y2.995
N33710G1X3.951Y2.870
N33720G2X4.439Y2.594I-1.099J-2.509
N33730G1X5.094Y2.146
N33740G1X5.769Y1.763
N33750G1X6.136Y1.189
N33760G1X6.569Y0.646
N33770G1X6.598Y0.615
N33780G1X6.157Y1.160
N33790G1X5.789Y1.729
N33800G1X5.769Y1.763
N33810G2X10.000Y5.739I4.231J-0.263
N33820G2X14.231Y1.764I0.000J-4.239
N33830G1X13.864Y1.189
N33840G1X13.431Y0.646
N33850G1X13.402Y0.615
N33860G1X13.843Y1.160
N33870G1X14.210Y1.729
N33880G1X14.231Y1.764
N33890G1X14.905Y2.146
N33900G1X15.558Y2.592
N33910G2X16.047Y2.869I1.587J-2.232
N33920G1X16.332Y2.994
N33930G1X16.604Y3.170
N33940G1X16.833Y3.400
N33950G1X17.009Y3.672
N33960G1X17.133Y3.957
N33970G2X17.411Y4.449I2.510J-1.095
N33980G1X17.859Y5.104
N33990G1X18.223Y5.743
N34000G1X18.535Y6.408
N34010G1X18.793Y7.095
N34020G1X18.995Y7.801
N34030G00Z6.000
N34040G00X5.365Y8.904
N34050G1Z-3.000F120.0
N34060G1X5.675Y9.565F800.0
N34070G1X5.927Y10.000
N34080G1X7.986
N34090G1X5.927Y10.000
N34100G1X5.599Y10.583
N34110G1X5.365Y11.096
N34120G1X5.675Y10.435
N34130G1X5.927Y10.000
N34140G1X5.599Y9.417
N34150G1X5.365Y8.904
N34160G00Z6.000
N34170G00X7.501Y18.500
N34180G1Z-3.000F120.0
N34190G2X10.000Y20.999I2.499J0.000F800.0
N34200G2X12.499Y18.500I0.000J-2.499
N34210G2X10.000Y16.001I-2.499J0.000
N34220G2X7.501Y18.500I0.000J2.499
N34230G00Z6.000
N34240G00X10.000Y-0.999
N34250G1Z-3.000F120.0
N34260G2X7.501Y1.500I0.000J2.499F800.0
N34270G2X10.000Y3.999I2.499J0.000
N34280G2X12.499Y1.500I0.000J-2.499
N34290G2X10.000Y-0.999I-2.499J0.000
N34300G00Z6.000
N34310S14000M03
(ポケット 2)
()
N34340G00X1.144Y4.343Z6.000
N34350G1Z-3.300F120.0
N34360G2X4.343Y7.542I3.199J0.000F800.0
N34370G2X7.542Y4.343I0.000J-3.199
N34380G2X4.343Y1.144I-3.199J0.000
N34390G2X1.144Y4.343I0.000J3.199
N34400G00Z6.000
N34410G00X6.426Y0.678
N34420G1Z-3.300F120.0
N34430G1X6.533Y0.687F800.0
N34440G1X6.598Y0.615
N34450G1X6.533Y0.687
N34460G1X6.564Y0.760
N34470G1X6.533Y0.687
N34480G1X6.426Y0.678
N34490G1X6.128Y-0.297
N34500G1X6.957Y-0.572
N34510G1X7.808Y-0.780
N34520G1X8.675Y-0.921
N34530G1X9.556Y-0.992
N34540G1X10.445Y-0.992
N34550G1X11.327Y-0.921
N34560G1X12.194Y-0.780
N34570G1X13.045Y-0.571
N34580G1X13.874Y-0.296
N34590G1X14.677Y0.043
N34600G1X15.452Y0.445
N34610G1X16.193Y0.909
N34620G1X16.650Y1.234
N34630G1X17.116Y1.438
N34640G1X17.418Y1.611
N34650G1X17.700Y1.815
N34660G1X17.958Y2.047
N34670G1X18.189Y2.306
N34680G1X18.393Y2.587
N34690G1X18.566Y2.890
N34700G1X18.770Y3.356
N34710G1X19.335Y4.182
N34720G1X19.768Y4.942
N34730G1X20.139Y5.732
N34740G1X20.445Y6.548
N34750G1X20.686Y7.387
N34760G1X20.860Y8.245
N34770G1X20.965Y9.117
N34780G1X21.001Y10.000
N34790G1X20.965Y10.889
N34800G1X20.858Y11.765
N34810G1X20.683Y12.626
N34820G1X20.440Y13.466
N34830G1X20.133Y14.284
N34840G1X19.761Y15.074
N34850G1X19.328Y15.832
N34860G1X18.763Y16.656
N34870G1X18.560Y17.118
N34880G1X18.389Y17.417
N34890G1X18.187Y17.696
N34900G1X17.958Y17.952
N34910G1X17.703Y18.181
N34920G1X17.425Y18.383
N34930G1X17.126Y18.555
N34940G1X16.665Y18.758
N34950G1X15.837Y19.326
N34960G1X15.075Y19.761
N34970G1X14.282Y20.134
N34980G1X13.462Y20.442
N34990G1X12.621Y20.684
N35000G1X11.760Y20.859
N35010G1X10.886Y20.965
N35020G1X10.000Y21.001
N35030G1X9.115Y20.965
N35040G1X8.242Y20.859
N35050G1X7.383Y20.685
N35060G1X6.543Y20.443
N35070G1X5.726Y20.136
N35080G1X4.935Y19.765
N35090G1X4.175Y19.332
N35100G1X3.350Y18.766
N35110G1X2.884Y18.562
N35120G1X2.582Y18.389
N35130G1X2.301Y18.185
N35140G1X2.043Y17.953
N35150G1X1.811Y17.695
N35160G1X1.607Y17.413
N35170G1X1.434Y17.111
N35180G1X1.231Y16.645
N35190G1X0.667Y15.821
N35200G1X0.234Y15.062
N35210G1X-0.136Y14.273
N35220G1X-0.443Y13.457
N35230G1X-0.685Y12.618
N35240G1X-0.859Y11.760
N35250G1X-0.965Y10.886
N35260G1X-1.001Y10.000
N35270G1X-0.965Y9.114
N35280G1X-0.859Y8.240
N35290G1X-0.685Y7.381
N35300G1X-0.443Y6.541
N35310G1X-0.136Y5.724
N35320G1X0.235Y4.934
N35330G1X0.669Y4.175
N35340G1X1.234Y3.350
N35350G1X1.437Y2.885
N35360G1X1.610Y2.584
N35370G1X1.813Y2.303
N35380G1X2.044Y2.046
N35390G1X2.301Y1.815
N35400G1X2.581Y1.612
N35410G1X2.883Y1.439
N35420G1X3.347Y1.235
N35430G1X4.172Y0.670
N35440G1X4.932Y0.236
N35450G1X5.723Y-0.135
N35460G1X6.128Y-0.297
N35470G00Z6.000
N35480G00X10.000Y-0.999
N35490G1Z-3.300F120.0
N35500G2X7.501Y1.500I0.000J2.499F800.0
N35510G2X10.000Y3.999I2.499J0.000
N35520G2X12.499Y1.500I0.000J-2.499
N35530G2X10.000Y-0.999I-2.499J0.000
N35540G00Z6.000
N35550G00X13.402Y0.615
N35560G1Z-3.300F120.0
N35570G1X13.467Y0.687F800.0
N35580G1X13.574Y0.678
N35590G1X13.467Y0.687
N35600G1X13.436Y0.760
N35610G1X13.467Y0.687
N35620G1X13.402Y0.615
N35630G00Z6.000
N35640G00X15.657Y1.144
N35650G1Z-3.300F120.0
N35660G2X12.458Y4.343I0.000J3.199F800.0
N35670G2X15.657Y7.542I3.199J0.000
N35680G2X18.856Y4.343I0.000J-3.199
N35690G2X15.657Y1.144I-3.199J0.000
N35700G00Z6.000
N35710G00X18.255Y9.682
N35720G1Z-3.300F120.0
N35730G1X18.055Y10.000F800.0
N35740G1X18.255Y10.317
N35750G1X18.055Y10.000
N35760G1X17.462
N35770G1X18.055
N35780G1X18.255Y9.682
N35790G1X19.270Y9.627
N35800G1X19.270Y10.376
N35810G1X19.210Y11.121
N35820G1X19.091Y11.853
N35830G1X19.046Y12.102
N35840G1X19.223Y12.833
N35850G1X19.319Y13.539
N35860G1X19.322Y13.574
N35870G1X19.228Y12.860
N35880G1X19.053Y12.128
N35890G1X19.040Y12.082
N35900G2X15.657Y10.735I-3.383J3.575
N35910G2X10.905Y14.376I0.000J4.922
N35920G1X11.457Y15.301
N35930G1X10.905Y14.376
N35940G2X10.000Y14.278I-0.904J4.121
N35950G2X9.095Y14.376I0.000J4.224
N35960G1X8.543Y15.301
N35970G1X9.095Y14.376
N35980G2X4.343Y10.735I-4.752J1.280
N35990G2X0.961Y12.082I0.000J4.922
N36000G1X0.782Y12.805
N36010G1X0.683Y13.512
N36020G1X0.679Y13.574
N36030G1X0.772Y12.860
N36040G1X0.947Y12.128
N36050G1X0.961Y12.082
N36060G1X0.842Y11.484
N36070G1X0.752Y10.747
N36080G1X0.722Y10.000
N36090G1X0.752Y9.253
N36100G1X0.842Y8.516
N36110G1X0.961Y7.918
N36120G1X0.782Y7.195
N36130G1X0.683Y6.488
N36140G1X0.679Y6.426
N36150G1X0.772Y7.140
N36160G1X0.947Y7.872
N36170G1X0.961Y7.918
N36180G2X4.343Y9.265I3.383J-3.575
N36190G2X9.095Y5.624I0.000J-4.922
N36200G1X8.543Y4.699
N36210G1X9.095Y5.624
N36220G2X10.000Y5.722I0.904J-4.121
N36230G2X10.905Y5.624I0.000J-4.224
N36240G1X11.457Y4.699
N36250G1X10.905Y5.624
N36260G2X15.657Y9.265I4.752J-1.280
N36270G2X19.039Y7.918I0.000J-4.922
N36280G1X19.218Y7.195
N36290G1X19.317Y6.487
N36300G1X19.321Y6.426
N36310G1X19.228Y7.140
N36320G1X19.053Y7.872
N36330G1X19.039Y7.918
N36340G1X19.159Y8.520
N36350G1X19.248Y9.255
N36360G1X19.270Y9.627
N36370G00Z6.000
N36380G00X9.509Y10.000
N36390G1Z-3.300F120.0
N36400G1X10.000F800.0
N36410G1Y9.509
N36420G1Y10.000
N36430G1X10.491
N36440G1X10.000
N36450G1Y10.491
N36460G1Y10.000
N36470G1X9.509
N36480G1X7.829
N36490G2X10.000Y7.829I-3.485J-5.657
N36500G1X9.990Y7.072
N36510G1X9.779Y6.733
N36520G1X10.000Y7.087
N36530G1X10.221Y6.733
N36540G1X10.000Y7.102
N36550G1Y7.829
N36560G2X12.171Y10.000I5.657J-3.485
N36570G1X13.852
N36580G1X12.171
N36590G2X10.000Y12.171I3.485J5.657
N36600G1X10.010Y12.928
N36610G1X10.221Y13.267
N36620G1X10.000Y12.913
N36630G1X9.779Y13.267
N36640G1X10.000Y12.898
N36650G1Y12.171
N36660G2X7.829Y10.000I-5.657J3.485
N36670G1X6.148
N36680G1X7.829
N36690G00Z6.000
N36700G00X1.745Y9.683
N36710G1Z-3.300F120.0
N36720G1X1.945Y10.000F800.0
N36730G1X2.538
N36740G1X1.945Y10.000
N36750G1X1.745Y10.317
N36760G1X1.945Y10.000
N36770G1X1.745Y9.683
N36780G00Z6.000
N36790G00X1.144Y15.657
N36800G1Z-3.300F120.0
N36810G2X4.343Y18.856I3.199J0.000F800.0
N36820G2X7.542Y15.657I0.000J-3.199
N36830G2X4.343Y12.458I-3.199J0.000
N36840G2X1.144Y15.657I0.000J3.199
N36850G00Z6.000
N36860G00X6.426Y19.321
N36870G1Z-3.300F120.0
N36880G1X6.533Y19.313F800.0
N36890G1X6.564Y19.240
N36900G1X6.533Y19.313
N36910G1X6.598Y19.385
N36920G1X6.533Y19.313
N36930G1X6.426Y19.321
N36940G00Z6.000
N36950G00X7.501Y18.500
N36960G1Z-3.300F120.0
N36970G2X10.000Y20.999I2.499J0.000F800.0
N36980G2X12.499Y18.500I0.000J-2.499
N36990G2X10.000Y16.001I-2.499J0.000
N37000G2X7.501Y18.500I0.000J2.499
N37010G00Z6.000
N37020G00X12.458Y15.657
N37030G1Z-3.300F120.0
N37040G2X15.657Y18.856I3.199J0.000F800.0
N37050G2X18.856Y15.657I0.000J-3.199
N37060G2X15.657Y12.458I-3.199J0.000
N37070G2X12.458Y15.657I0.000J3.199
N37080G00Z6.000
N37090G00X13.436Y19.240
N37100G1Z-3.300F120.0
N37110G1X13.468Y19.313F800.0
N37120G1X13.575Y19.322
N37130G1X13.468Y19.313
N37140G1X13.402Y19.385
N37150G1X13.468Y19.313
N37160G1X13.436Y19.240
N37170G00Z6.000
N37180G00X1.144Y4.343
N37190G1Z-3.600F120.0
N37200G2X4.343Y7.542I3.199J0.000F800.0
N37210G2X7.542Y4.343I0.000J-3.199
N37220G2X4.343Y1.144I-3.199J0.000
N37230G2X1.144Y4.343I0.000J3.199
N37240G00Z6.000
N37250G00X6.426Y0.678
N37260G1Z-3.600F120.0
N37270G1X6.533Y0.687F800.0
N37280G1X6.598Y0.615
N37290G1X6.533Y0.687
N37300G1X6.564Y0.760
N37310G1X6.533Y0.687
N37320G1X6.426Y0.678
N37330G1X6.128Y-0.297
N37340G1X6.957Y-0.572
N37350G1X7.808Y-0.780
N37360G1X8.675Y-0.921
N37370G1X9.556Y-0.992
N37380G1X10.445Y-0.992
N37390G1X11.327Y-0.921
N37400G1X12.194Y-0.780
N37410G1X13.045Y-0.571
N37420G1X13.874Y-0.296
N37430G1X14.677Y0.043
N37440G1X15.452Y0.445
N37450G1X16.193Y0.909
N37460G1X16.650Y1.234
N37470G1X17.116Y1.438
N37480G1X17.418Y1.611
N37490G1X17.700Y1.815
N37500G1X17.958Y2.047
N37510G1X18.189Y2.306
N37520G1X18.393Y2.587
N37530G1X18.566Y2.890
N37540G1X18.770Y3.356
N37550G1X19.335Y4.182
N37560G1X19.768Y4.942
N37570G1X20.139Y5.732
N37580G1X20.445Y6.548
N37590G1X20.686Y7.387
N37600G1X20.860Y8.245
N37610G1X20.965Y9.117
N37620G1X21.001Y10.000
N37630G1X20.965Y10.889
N37640G1X20.858Y11.765
N37650G1X20.683Y12.626
N37660G1X20.440Y13.466
N37670G1X20.133Y14.284
N37680G1X19.761Y15.074
N37690G1X19.328Y15.832
N37700G1X18.763Y16.656
N37710G1X18.560Y17.118
N37720G1X18.389Y17.417
N37730G1X18.187Y17.696
N37740G1X17.958Y17.952
N37750G1X17.703Y18.181
N37760G1X17.425Y18.383
N37770G1X17.126Y18.555
N37780G1X16.665Y18.758
N37790G1X15.837Y19.326
N37800G1X15.075Y19.761
N37810G1X14.282Y20.134
N37820G1X13.462Y20.442
N37830G1X12.621Y20.684
N37840G1X11.760Y20.859
N37850G1X10.886Y20.965
N37860G1X10.000Y21.001
N37870G1X9.115Y20.965
N37880G1X8.242Y20.859
N37890G1X7.383Y20.685
N37900G1X6.543Y20.443
N37910G1X5.726Y20.136
N37920G1X4.935Y19.765
N37930G1X4.175Y19.332
N37940G1X3.350Y18.766
N37950G1X2.884Y18.562
N37960G1X2.582Y18.389
N37970G1X2.301Y18.185
N37980G1X2.043Y17.953
N37990G1X1.811Y17.695
N38000G1X1.607Y17.413
N38010G1X1.434Y17.111
N38020G1X1.231Y16.645
N38030G1X0.667Y15.821
N38040G1X0.234Y15.062
N38050G1X-0.136Y14.273
N38060G1X-0.443Y13.457
N38070G1X-0.685Y12.618
N38080G1X-0.859Y11.760
N38090G1X-0.965Y10.886
N38100G1X-1.001Y10.000
N38110G1X-0.965Y9.114
N38120G1X-0.859Y8.240
N38130G1X-0.685Y7.381
N38140G1X-0.443Y6.541
N38150G1X-0.136Y5.724
N38160G1X0.235Y4.934
N38170G1X0.669Y4.175
N38180G1X1.234Y3.350
N38190G1X1.437Y2.885
N38200G1X1.610Y2.584
N38210G1X1.813Y2.303
N38220G1X2.044Y2.046
N38230G1X2.301Y1.815
N38240G1X2.581Y1.612
N38250G1X2.883Y1.439
N38260G1X3.347Y1.235
N38270G1X4.172Y0.670
N38280G1X4.932Y0.236
N38290G1X5.723Y-0.135
N38300G1X6.128Y-0.297
N38310G00Z6.000
N38320G00X10.000Y-0.999
N38330G1Z-3.600F120.0
N38340G2X7.501Y1.500I0.000J2.499F800.0
N38350G2X10.000Y3.999I2.499J0.000
N38360G2X12.499Y1.500I0.000J-2.499
N38370G2X10.000Y-0.999I-2.499J0.000
N38380G00Z6.000
N38390G00X13.402Y0.615
N38400G1Z-3.600F120.0
N38410G1X13.467Y0.687F800.0
N38420G1X13.574Y0.678
N38430G1X13.467Y0.687
N38440G1X13.436Y0.760
N38450G1X13.467Y0.687
N38460G1X13.402Y0.615
N38470G00Z6.000
N38480G00X15.657Y1.144
N38490G1Z-3.600F120.0
N38500G2X12.458Y4.343I0.000J3.199F800.0
N38510G2X15.657Y7.542I3.199J0.000
N38520G2X18.856Y4.343I0.000J-3.199
N38530G2X15.657Y1.144I-3.199J0.000
N38540G00Z6.000
N38550G00X18.255Y9.682
N38560G1Z-3.600F120.0
N38570G1X18.055Y10.000F800.0
N38580G1X18.255Y10.317
N38590G1X18.055Y10.000
N38600G1X17.462
N38610G1X18.055
N38620G1X18.255Y9.682
N38630G1X19.270Y9.627
N38640G1X19.270Y10.376
N38650G1X19.210Y11.121
N38660G1X19.091Y11.853
N38670G1X19.046Y12.102
N38680G1X19.223Y12.833
N38690G1X19.319Y13.539
N38700G1X19.322Y13.574
N38710G1X19.228Y12.860
N38720G1X19.053Y12.128
N38730G1X19.040Y12.082
N38740G2X15.657Y10.735I-3.383J3.575
N38750G2X10.905Y14.376I0.000J4.922
N38760G1X11.457Y15.301
N38770G1X10.905Y14.376
N38780G2X10.000Y14.278I-0.904J4.121
N38790G2X9.095Y14.376I0.000J4.224
N38800G1X8.543Y15.301
N38810G1X9.095Y14.376
N38820G2X4.343Y10.735I-4.752J1.280
N38830G2X0.961Y12.082I0.000J4.922
N38840G1X0.782Y12.805
N38850G1X0.683Y13.512
N38860G1X0.679Y13.574
N38870G1X0.772Y12.860
N38880G1X0.947Y12.128
N38890G1X0.961Y12.082
N38900G1X0.842Y11.484
N38910G1X0.752Y10.747
N38920G1X0.722Y10.000
N38930G1X0.752Y9.253
N38940G1X0.842Y8.516
N38950G1X0.961Y7.918
N38960G1X0.782Y7.195
N38970G1X0.683Y6.488
N38980G1X0.679Y6.426
N38990G1X0.772Y7.140
N39000G1X0.947Y7.872
N39010G1X0.961Y7.918
N39020G2X4.343Y9.265I3.383J-3.575
N39030G2X9.095Y5.624I0.000J-4.922
N39040G1X8.543Y4.699
N39050G1X9.095Y5.624
N39060G2X10.000Y5.722I0.904J-4.121
N39070G2X10.905Y5.624I0.000J-4.224
N39080G1X11.457Y4.699
N39090G1X10.905Y5.624
N39100G2X15.657Y9.265I4.752J-1.280
N39110G2X19.039Y7.918I0.000J-4.922
N39120G1X19.218Y7.195
N39130G1X19.317Y6.487
N39140G1X19.321Y6.426
N39150G1X19.228Y7.140
N39160G1X19.053Y7.872
N39170G1X19.039Y7.918
N39180G1X19.159Y8.520
N39190G1X19.248Y9.255
N39200G1X19.270Y9.627
N39210G00Z6.000
N39220G00X9.509Y10.000
N39230G1Z-3.600F120.0
N39240G1X10.000F800.0
N39250G1Y9.509
N39260G1Y10.000
N39270G1X10.491
N39280G1X10.000
N39290G1Y10.491
N39300G1Y10.000
N39310G1X9.509
N39320G1X7.829
N39330G2X10.000Y7.829I-3.485J-5.657
N39340G1X9.990Y7.072
N39350G1X9.779Y6.733
N39360G1X10.000Y7.087
N39370G1X10.221Y6.733
N39380G1X10.000Y7.102
N39390G1Y7.829
N39400G2X12.171Y10.000I5.657J-3.485
N39410G1X13.852
N39420G1X12.171
N39430G2X10.000Y12.171I3.485J5.657
N39440G1X10.010Y12.928
N39450G1X10.221Y13.267
N39460G1X10.000Y12.913
N39470G1X9.779Y13.267
N39480G1X10.000Y12.898
N39490G1Y12.171
N39500G2X7.829Y10.000I-5.657J3.485
N39510G1X6.148
N39520G1X7.829
N39530G00Z6.000
N39540G00X1.745Y9.683
N39550G1Z-3.600F120.0
N39560G1X1.945Y10.000F800.0
N39570G1X2.538
N39580G1X1.945Y10.000
N39590G1X1.745Y10.317
N39600G1X1.945Y10.000
N39610G1X1.745Y9.683
N39620G00Z6.000
N39630G00X1.144Y15.657
N39640G1Z-3.600F120.0
N39650G2X4.343Y18.856I3.199J0.000F800.0
N39660G2X7.542Y15.657I0.000J-3.199
N39670G2X4.343Y12.458I-3.199J0.000
N39680G2X1.144Y15.657I0.000J3.199
N39690G00Z6.000
N39700G00X6.426Y19.321
N39710G1Z-3.600F120.0
N39720G1X6.533Y19.313F800.0
N39730G1X6.564Y19.240
N39740G1X6.533Y19.313
N39750G1X6.598Y19.385
N39760G1X6.533Y19.313
N39770G1X6.426Y19.321
N39780G00Z6.000
N39790G00X7.501Y18.500
N39800G1Z-3.600F120.0
N39810G2X10.000Y20.999I2.499J0.000F800.0
N39820G2X12.499Y18.500I0.000J-2.499
N39830G2X10.000Y16.001I-2.499J0.000
N39840G2X7.501Y18.500I0.000J2.499
N39850G00Z6.000
N39860G00X12.458Y15.657
N39870G1Z-3.600F120.0
N39880G2X15.657Y18.856I3.199J0.000F800.0
N39890G2X18.856Y15.657I0.000J-3.199
N39900G2X15.657Y12.458I-3.199J0.000
N39910G2X12.458Y15.657I0.000J3.199
N39920G00Z6.000
N39930G00X13.436Y19.240
N39940G1Z-3.600F120.0
N39950G1X13.468Y19.313F800.0
N39960G1X13.575Y19.322
N39970G1X13.468Y19.313
N39980G1X13.402Y19.385
N39990G1X13.468Y19.313
N40000G1X13.436Y19.240
N40010G00Z6.000
N40020G00X1.144Y4.343
N40030G1Z-3.900F120.0
N40040G2X4.343Y7.542I3.199J0.000F800.0
N40050G2X7.542Y4.343I0.000J-3.199
N40060G2X4.343Y1.144I-3.199J0.000
N40070G2X1.144Y4.343I0.000J3.199
N40080G00Z6.000
N40090G00X6.426Y0.678
N40100G1Z-3.900F120.0
N40110G1X6.533Y0.687F800.0
N40120G1X6.598Y0.615
N40130G1X6.533Y0.687
N40140G1X6.564Y0.760
N40150G1X6.533Y0.687
N40160G1X6.426Y0.678
N40170G1X6.128Y-0.297
N40180G1X6.957Y-0.572
N40190G1X7.808Y-0.780
N40200G1X8.675Y-0.921
N40210G1X9.556Y-0.992
N40220G1X10.445Y-0.992
N40230G1X11.327Y-0.921
N40240G1X12.194Y-0.780
N40250G1X13.045Y-0.571
N40260G1X13.874Y-0.296
N40270G1X14.677Y0.043
N40280G1X15.452Y0.445
N40290G1X16.193Y0.909
N40300G1X16.650Y1.234
N40310G1X17.116Y1.438
N40320G1X17.418Y1.611
N40330G1X17.700Y1.815
N40340G1X17.958Y2.047
N40350G1X18.189Y2.306
N40360G1X18.393Y2.587
N40370G1X18.566Y2.890
N40380G1X18.770Y3.356
N40390G1X19.335Y4.182
N40400G1X19.768Y4.942
N40410G1X20.139Y5.732
N40420G1X20.445Y6.548
N40430G1X20.686Y7.387
N40440G1X20.860Y8.245
N40450G1X20.965Y9.117
N40460G1X21.001Y10.000
N40470G1X20.965Y10.889
N40480G1X20.858Y11.765
N40490G1X20.683Y12.626
N40500G1X20.440Y13.466
N40510G1X20.133Y14.284
N40520G1X19.761Y15.074
N40530G1X19.328Y15.832
N40540G1X18.763Y16.656
N40550G1X18.560Y17.118
N40560G1X18.389Y17.417
N40570G1X18.187Y17.696
N40580G1X17.958Y17.952
N40590G1X17.703Y18.181
N40600G1X17.425Y18.383
N40610G1X17.126Y18.555
N40620G1X16.665Y18.758
N40630G1X15.837Y19.326
N40640G1X15.075Y19.761
N40650G1X14.282Y20.134
N40660G1X13.462Y20.442
N40670G1X12.621Y20.684
N40680G1X11.760Y20.859
N40690G1X10.886Y20.965
N40700G1X10.000Y21.001
N40710G1X9.115Y20.965
N40720G1X8.242Y20.859
N40730G1X7.383Y20.685
N40740G1X6.543Y20.443
N40750G1X5.726Y20.136
N40760G1X4.935Y19.765
N40770G1X4.175Y19.332
N40780G1X3.350Y18.766
N40790G1X2.884Y18.562
N40800G1X2.582Y18.389
N40810G1X2.301Y18.185
N40820G1X2.043Y17.953
N40830G1X1.811Y17.695
N40840G1X1.607Y17.413
N40850G1X1.434Y17.111
N40860G1X1.231Y16.645
N40870G1X0.667Y15.821
N40880G1X0.234Y15.062
N40890G1X-0.136Y14.273
N40900G1X-0.443Y13.457
N40910G1X-0.685Y12.618
N40920G1X-0.859Y11.760
N40930G1X-0.965Y10.886
N40940G1X-1.001Y10.000
N40950G1X-0.965Y9.114
N40960G1X-0.859Y8.240
N40970G1X-0.685Y7.381
N40980G1X-0.443Y6.541
N40990G1X-0.136Y5.724
N41000G1X0.235Y4.934
N41010G1X0.669Y4.175
N41020G1X1.234Y3.350
N41030G1X1.437Y2.885
N41040G1X1.610Y2.584
N41050G1X1.813Y2.303
N41060G1X2.044Y2.046
N41070G1X2.301Y1.815
N41080G1X2.581Y1.612
N41090G1X2.883Y1.439
N41100G1X3.347Y1.235
N41110G1X4.172Y0.670
N41120G1X4.932Y0.236
N41130G1X5.723Y-0.135
N41140G1X6.128Y-0.297
N41150G00Z6.000
N41160G00X10.000Y-0.999
N41170G1Z-3.900F120.0
N41180G2X7.501Y1.500I0.000J2.499F800.0
N41190G2X10.000Y3.999I2.499J0.000
N41200G2X12.499Y1.500I0.000J-2.499
N41210G2X10.000Y-0.999I-2.499J0.000
N41220G00Z6.000
N41230G00X13.402Y0.615
N41240G1Z-3.900F120.0
N41250G1X13.467Y0.687F800.0
N41260G1X13.574Y0.678
N41270G1X13.467Y0.687
N41280G1X13.436Y0.760
N41290G1X13.467Y0.687
N41300G1X13.402Y0.615
N41310G00Z6.000
N41320G00X15.657Y1.144
N41330G1Z-3.900F120.0
N41340G2X12.458Y4.343I0.000J3.199F800.0
N41350G2X15.657Y7.542I3.199J0.000
N41360G2X18.856Y4.343I0.000J-3.199
N41370G2X15.657Y1.144I-3.199J0.000
N41380G00Z6.000
N41390G00X18.255Y9.682
N41400G1Z-3.900F120.0
N41410G1X18.055Y10.000F800.0
N41420G1X18.255Y10.317
N41430G1X18.055Y10.000
N41440G1X17.462
N41450G1X18.055
N41460G1X18.255Y9.682
N41470G1X19.270Y9.627
N41480G1X19.270Y10.376
N41490G1X19.210Y11.121
N41500G1X19.091Y11.853
N41510G1X19.046Y12.102
N41520G1X19.223Y12.833
N41530G1X19.319Y13.539
N41540G1X19.322Y13.574
N41550G1X19.228Y12.860
N41560G1X19.053Y12.128
N41570G1X19.040Y12.082
N41580G2X15.657Y10.735I-3.383J3.575
N41590G2X10.905Y14.376I0.000J4.922
N41600G1X11.457Y15.301
N41610G1X10.905Y14.376
N41620G2X10.000Y14.278I-0.904J4.121
