( ポケット 2 )
( USBCNC Postprocessor )
N20G00G21G17G90G40G49
N30G80
N40G00G43Z20.000H1
N50S12000M03
N60G94
N70X0.000Y0.000F1400.0
N80G00X-0.171Y-0.171Z6.000
N90G01Z-0.188F200.0
N100G3X0.000Y-0.100I0.071J0.071F1400.0
N110G01X0.006Y0.006
N120X-0.100Y0.000
N130G3X-0.171Y-0.171I0.000J-0.100
N140G00Z6.000
N150G00X14.526Y13.305
N160G01Z-0.188F200.0
N170G01Y13.449F1400.0
N180X14.567Y13.510
N190X14.742Y13.392
N200X14.567Y13.510
N210Y16.095
N220X14.742Y16.270
N230X14.567Y16.095
N240X14.392Y16.270
N250X14.567Y16.095
N260Y13.510
N270X14.526Y13.449
N280X14.392Y13.359
N290X14.526Y13.449
N300Y13.305
N310G01Y12.197
N320G01Y11.355
N330Y12.197
N340G2X15.760Y12.679I5.509J-12.297
N350G01X16.524Y12.116
N360X15.760Y12.679
N370Y17.288
N380X16.530Y18.052
N390X15.760Y17.288
N400X13.375
N410X12.604Y18.052
N420X13.375Y17.288
N430Y12.651
N440X12.610Y12.092
N450X13.375Y12.651
N460G2X14.526Y12.197I-4.357J-12.751
N470G01Y10.214
N480G01Y9.338
N490Y10.214
N500G2X17.542Y11.324I5.509J-10.314
N510G01X18.306Y10.691
N520X17.542Y11.324
N530Y17.663
N540G2X17.629Y19.085I11.692J0.000
N550G01X17.766Y19.212
N560X18.417
N570X17.766
N580X18.339Y19.912
N590X17.766Y19.212
N600X17.629Y19.085
N610X17.035Y19.070
N620X11.507
N630X11.346Y19.212
N640X10.789Y19.834
N650X11.346Y19.212
N660X10.718
N670X11.346
N680X11.507Y19.070
N690G2X11.592Y17.663I-11.607J-1.408
N700G01Y11.305
N710X10.828Y10.677
N720X11.592Y11.305
N730G2X14.526Y10.214I-2.575J-11.405
N740G01Y8.138
N750G01Y7.201
N760Y8.138
N770G2X19.324Y9.785I5.509J-8.238
N780G01X20.088Y9.046
N790X19.324Y9.785
N800Y17.663
N810G2X19.446Y19.212I9.910J0.000
N820G01X20.221
N830X19.446
N840G2X19.324Y20.763I9.788J1.550
N850G01Y20.878
N860X20.088Y21.616
N870X19.324Y20.878
N880X18.535Y20.966
N890Y21.740
N900Y20.966
N910G2X17.035Y20.852I-1.500J9.796
N920G01X9.810
N930X9.046Y21.616
N940X9.810Y20.852
N950Y20.763
N960G2X9.688Y19.212I-9.910J0.000
N970G01X8.914
N980X9.688
N990G2X9.810Y17.663I-9.788J-1.550
N1000G01Y9.779
N1010X9.046Y9.046
N1020X9.810Y9.779
N1030G2X14.526Y8.138I-0.793J-9.879
N1040G01X14.240Y6.128
N1050G01X13.954Y5.364
N1060X14.240Y6.128
N1070X14.812
N1080X15.098Y5.364
N1090X14.812Y6.128
N1100G2X20.035Y8.028I5.223J-6.228
N1110G01X21.106
N1120X21.871Y7.264
N1130X21.106Y8.028
N1140Y17.663
N1150G2X21.255Y19.212I8.128J0.000
N1160G01X22.036
N1170X21.255
N1180G2X21.106Y20.763I7.979J1.550
N1190G01Y22.634
N1200X21.871Y23.398
N1210X21.106Y22.634
N1220X20.035
N1230G2X18.535Y22.774I0.000J8.128
N1240G01Y23.553
N1250Y22.774
N1260G2X17.035Y22.634I-1.500J7.989
N1270G01X8.028
N1280X7.264Y23.398
N1290X8.028Y22.634
N1300Y20.763
N1310G2X7.879Y19.212I-8.128J0.000
N1320G01X7.099
N1330X7.879
N1340G2X8.028Y17.663I-7.979J-1.550
N1350G01Y8.028
N1360X7.264Y7.264
N1370X8.028Y8.028
N1380X9.017
N1390G2X14.240Y6.128I0.000J-8.128
N1400G01X13.546Y4.346
N1410G01X13.213Y3.582
N1420X13.546Y4.346
N1430X15.506
N1440X15.839Y3.582
N1450X15.506Y4.346
N1460G2X20.035Y6.246I4.528J-4.446
N1470G01X22.888
N1480X23.653Y5.482
N1490X22.888Y6.246
N1500Y17.663
N1510G2X23.081Y19.212I6.346J0.000
N1520G01X23.872
N1530X23.081
N1540G2X22.888Y20.763I6.154J1.550
N1550G01Y24.416
N1560X23.653Y25.181
N1570X22.888Y24.416
N1580X20.035
N1590G2X18.535Y24.596I0.000J6.346
N1600G01Y25.386
N1610Y24.596
N1620G2X17.035Y24.416I-1.500J6.166
N1630G01X6.246
N1640X5.482Y25.181
N1650X6.246Y24.416
N1660Y20.763
N1670G2X6.054Y19.212I-6.346J0.000
N1680G01X5.262
N1690X6.054
N1700G2X6.246Y17.663I-6.154J-1.550
N1710G01Y6.246
N1720X5.482Y5.482
N1730X6.246Y6.246
N1740X9.017
N1750G2X13.546Y4.346I0.000J-6.346
N1760G01X12.723Y2.564
N1770G01X12.308Y1.800
N1780X12.723Y2.564
N1790X16.329
N1800X16.744Y1.800
N1810X16.329Y2.564
N1820G2X20.035Y4.464I3.706J-2.664
N1830G01X24.670
N1840X25.435Y3.700
N1850X24.670Y4.464
N1860Y17.663
N1870G2X24.942Y19.212I4.564J0.000
N1880G01X25.765
N1890X24.942
N1900G2X24.670Y20.763I4.293J1.550
N1910G01Y26.198
N1920X25.435Y26.963
N1930X24.670Y26.198
N1940X20.035
N1950G2X18.535Y26.452I0.000J4.564
N1960G01Y27.271
N1970Y26.452
N1980G2X17.035Y26.198I-1.500J4.311
N1990G01X4.464
N2000X3.700Y26.963
N2010X4.464Y26.198
N2020Y20.763
N2030G2X4.193Y19.212I-4.564J0.000
N2040G01X3.369
N2050X4.193
N2060G2X4.464Y17.663I-4.293J-1.550
N2070G01Y4.464
N2080X3.700Y3.700
N2090X4.464Y4.464
N2100X9.017
N2110G2X12.723Y2.564I0.000J-4.564
N2120G01X11.656Y0.782
N2130G01X11.365Y0.400
N2140X11.032Y0.018
N2150X11.365Y0.400
N2160X11.656Y0.782
N2170X17.396
N2180X17.687Y0.400
N2190X18.020Y0.018
N2200X17.687Y0.400
N2210X17.396Y0.782
N2220G2X20.035Y2.682I2.639J-0.882
N2230G01X26.453
N2240X27.217Y1.918
N2250X26.453Y2.682
N2260Y17.663
N2270G2X26.924Y19.212I2.782J0.000
N2280G01X27.943
N2290X26.924
N2300G2X26.453Y20.763I2.310J1.550
N2310G01Y27.980
N2320X27.217Y28.745
N2330X26.453Y27.980
N2340X20.035
N2350G2X18.535Y28.419I0.000J2.782
N2360G01Y29.413
N2370Y28.419
N2380G2X17.035Y27.980I-1.500J2.343
N2390G01X2.682
N2400X1.918Y28.745
N2410X2.682Y27.980
N2420Y20.763
N2430G2X2.210Y19.212I-2.782J0.000
N2440G01X1.192
N2450X2.210
N2460G2X2.682Y17.663I-2.310J-1.550
N2470G01Y2.682
N2480X1.918Y1.918
N2490X2.682Y2.682
N2500X9.017
N2510G2X11.656Y0.782I0.000J-2.782
N2520G01X10.017Y-0.100
N2530G01Y-1.000
N2540X19.035
N2550Y-0.100
N2560G2X20.035Y0.900I1.000J0.000
N2570G01X28.240Y0.894
N2580X28.235Y17.663
N2590G2X29.235Y18.663I1.000J0.000
N2600G01X30.135
N2610Y19.763
N2620X29.235
N2630G2X28.235Y20.763I0.000J1.000
N2640G01X28.240Y29.768
N2650X20.035Y29.763
N2660G2X19.035Y30.763I0.000J1.000
N2670G01Y31.663
N2680X18.035
N2690Y30.763
N2700G2X17.035Y29.763I-1.000J0.000
N2710G01X0.894Y29.768
N2720X0.900Y20.763
N2730G2X-0.100Y19.763I-1.000J0.000
N2740G01X-1.000
N2750Y18.663
N2760X-0.100
N2770G2X0.900Y17.663I0.000J-1.000
N2780G01X0.894Y0.894
N2790X9.017Y0.900
N2800G2X10.017Y-0.100I0.000J-1.000
N2810G00Z6.000
N2820G00X29.135
N2830G01Z-0.188F200.0
N2840G3X29.305Y-0.171I0.100J0.000F1400.0
N2850G3X29.235Y0.000I-0.071J0.071
N2860G01X29.129Y0.006
N2870X29.135Y-0.100
N2880G00Z6.000
N2890G00X29.129Y30.657
N2900G01Z-0.188F200.0
N2910G01X29.235Y30.663F1400.0
N2920G3X29.305Y30.833I0.000J0.100
N2930G3X29.135Y30.763I-0.071J-0.071
N2940G01X29.129Y30.657
N2950G00Z6.000
N2960G00X-0.100Y30.663
N2970G01Z-0.188F200.0
N2980G01X0.006Y30.657F1400.0
N2990X0.000Y30.763
N3000G3X-0.171Y30.833I-0.100J0.000
N3010G3X-0.100Y30.663I0.071J-0.071
N3020G00Z6.000
N3030G00X-0.171Y-0.171
N3040G01Z-0.375F200.0
N3050G3X0.000Y-0.100I0.071J0.071F1400.0
N3060G01X0.006Y0.006
N3070X-0.100Y0.000
N3080G3X-0.171Y-0.171I0.000J-0.100
N3090G00Z6.000
N3100G00X14.526Y13.305
N3110G01Z-0.375F200.0
N3120G01Y13.449F1400.0
N3130X14.567Y13.510
N3140X14.742Y13.392
N3150X14.567Y13.510
N3160Y16.095
N3170X14.742Y16.270
N3180X14.567Y16.095
N3190X14.392Y16.270
N3200X14.567Y16.095
N3210Y13.510
N3220X14.526Y13.449
N3230X14.392Y13.359
N3240X14.526Y13.449
N3250Y13.305
N3260G01Y12.197
N3270G01Y11.355
N3280Y12.197
N3290G2X15.760Y12.679I5.509J-12.297
N3300G01X16.524Y12.116
N3310X15.760Y12.679
N3320Y17.288
N3330X16.530Y18.052
N3340X15.760Y17.288
N3350X13.375
N3360X12.604Y18.052
N3370X13.375Y17.288
N3380Y12.651
N3390X12.610Y12.092
N3400X13.375Y12.651
N3410G2X14.526Y12.197I-4.357J-12.751
N3420G01Y10.214
N3430G01Y9.338
N3440Y10.214
N3450G2X17.542Y11.324I5.509J-10.314
N3460G01X18.306Y10.691
N3470X17.542Y11.324
N3480Y17.663
N3490G2X17.629Y19.085I11.692J0.000
N3500G01X17.766Y19.212
N3510X18.417
N3520X17.766
N3530X18.339Y19.912
N3540X17.766Y19.212
N3550X17.629Y19.085
N3560X17.035Y19.070
N3570X11.507
N3580X11.346Y19.212
N3590X10.789Y19.834
N3600X11.346Y19.212
N3610X10.718
N3620X11.346
N3630X11.507Y19.070
N3640G2X11.592Y17.663I-11.607J-1.408
N3650G01Y11.305
N3660X10.828Y10.677
N3670X11.592Y11.305
N3680G2X14.526Y10.214I-2.575J-11.405
N3690G01Y8.138
N3700G01Y7.201
N3710Y8.138
N3720G2X19.324Y9.785I5.509J-8.238
N3730G01X20.088Y9.046
N3740X19.324Y9.785
N3750Y17.663
N3760G2X19.446Y19.212I9.910J0.000
N3770G01X20.221
N3780X19.446
N3790G2X19.324Y20.763I9.788J1.550
N3800G01Y20.878
N3810X20.088Y21.616
N3820X19.324Y20.878
N3830X18.535Y20.966
N3840Y21.740
N3850Y20.966
N3860G2X17.035Y20.852I-1.500J9.796
N3870G01X9.810
N3880X9.046Y21.616
N3890X9.810Y20.852
N3900Y20.763
N3910G2X9.688Y19.212I-9.910J0.000
N3920G01X8.914
N3930X9.688
N3940G2X9.810Y17.663I-9.788J-1.550
N3950G01Y9.779
N3960X9.046Y9.046
N3970X9.810Y9.779
N3980G2X14.526Y8.138I-0.793J-9.879
N3990G01X14.240Y6.128
N4000G01X13.954Y5.364
N4010X14.240Y6.128
N4020X14.812
N4030X15.098Y5.364
N4040X14.812Y6.128
N4050G2X20.035Y8.028I5.223J-6.228
N4060G01X21.106
N4070X21.871Y7.264
N4080X21.106Y8.028
N4090Y17.663
N4100G2X21.255Y19.212I8.128J0.000
N4110G01X22.036
N4120X21.255
N4130G2X21.106Y20.763I7.979J1.550
N4140G01Y22.634
N4150X21.871Y23.398
N4160X21.106Y22.634
N4170X20.035
N4180G2X18.535Y22.774I0.000J8.128
N4190G01Y23.553
N4200Y22.774
N4210G2X17.035Y22.634I-1.500J7.989
N4220G01X8.028
N4230X7.264Y23.398
N4240X8.028Y22.634
N4250Y20.763
N4260G2X7.879Y19.212I-8.128J0.000
N4270G01X7.099
N4280X7.879
N4290G2X8.028Y17.663I-7.979J-1.550
N4300G01Y8.028
N4310X7.264Y7.264
N4320X8.028Y8.028
N4330X9.017
N4340G2X14.240Y6.128I0.000J-8.128
N4350G01X13.546Y4.346
N4360G01X13.213Y3.582
N4370X13.546Y4.346
N4380X15.506
N4390X15.839Y3.582
N4400X15.506Y4.346
N4410G2X20.035Y6.246I4.528J-4.446
N4420G01X22.888
N4430X23.653Y5.482
N4440X22.888Y6.246
N4450Y17.663
N4460G2X23.081Y19.212I6.346J0.000
N4470G01X23.872
N4480X23.081
N4490G2X22.888Y20.763I6.154J1.550
N4500G01Y24.416
N4510X23.653Y25.181
N4520X22.888Y24.416
N4530X20.035
N4540G2X18.535Y24.596I0.000J6.346
N4550G01Y25.386
N4560Y24.596
N4570G2X17.035Y24.416I-1.500J6.166
N4580G01X6.246
N4590X5.482Y25.181
N4600X6.246Y24.416
N4610Y20.763
N4620G2X6.054Y19.212I-6.346J0.000
N4630G01X5.262
N4640X6.054
N4650G2X6.246Y17.663I-6.154J-1.550
N4660G01Y6.246
N4670X5.482Y5.482
N4680X6.246Y6.246
N4690X9.017
N4700G2X13.546Y4.346I0.000J-6.346
N4710G01X12.723Y2.564
N4720G01X12.308Y1.800
N4730X12.723Y2.564
N4740X16.329
N4750X16.744Y1.800
N4760X16.329Y2.564
N4770G2X20.035Y4.464I3.706J-2.664
N4780G01X24.670
N4790X25.435Y3.700
N4800X24.670Y4.464
N4810Y17.663
N4820G2X24.942Y19.212I4.564J0.000
N4830G01X25.765
N4840X24.942
N4850G2X24.670Y20.763I4.293J1.550
N4860G01Y26.198
N4870X25.435Y26.963
N4880X24.670Y26.198
N4890X20.035
N4900G2X18.535Y26.452I0.000J4.564
N4910G01Y27.271
N4920Y26.452
N4930G2X17.035Y26.198I-1.500J4.311
N4940G01X4.464
N4950X3.700Y26.963
N4960X4.464Y26.198
N4970Y20.763
N4980G2X4.193Y19.212I-4.564J0.000
N4990G01X3.369
N5000X4.193
N5010G2X4.464Y17.663I-4.293J-1.550
N5020G01Y4.464
N5030X3.700Y3.700
N5040X4.464Y4.464
N5050X9.017
N5060G2X12.723Y2.564I0.000J-4.564
N5070G01X11.656Y0.782
N5080G01X11.365Y0.400
N5090X11.032Y0.018
N5100X11.365Y0.400
N5110X11.656Y0.782
N5120X17.396
N5130X17.687Y0.400
N5140X18.020Y0.018
N5150X17.687Y0.400
N5160X17.396Y0.782
N5170G2X20.035Y2.682I2.639J-0.882
N5180G01X26.453
N5190X27.217Y1.918
N5200X26.453Y2.682
N5210Y17.663
N5220G2X26.924Y19.212I2.782J0.000
N5230G01X27.943
N5240X26.924
N5250G2X26.453Y20.763I2.310J1.550
N5260G01Y27.980
N5270X27.217Y28.745
N5280X26.453Y27.980
N5290X20.035
N5300G2X18.535Y28.419I0.000J2.782
N5310G01Y29.413
N5320Y28.419
N5330G2X17.035Y27.980I-1.500J2.343
N5340G01X2.682
N5350X1.918Y28.745
N5360X2.682Y27.980
N5370Y20.763
N5380G2X2.210Y19.212I-2.782J0.000
N5390G01X1.192
N5400X2.210
N5410G2X2.682Y17.663I-2.310J-1.550
N5420G01Y2.682
N5430X1.918Y1.918
N5440X2.682Y2.682
N5450X9.017
N5460G2X11.656Y0.782I0.000J-2.782
N5470G01X10.017Y-0.100
N5480G01Y-1.000
N5490X19.035
N5500Y-0.100
N5510G2X20.035Y0.900I1.000J0.000
N5520G01X28.240Y0.894
N5530X28.235Y17.663
N5540G2X29.235Y18.663I1.000J0.000
N5550G01X30.135
N5560Y19.763
N5570X29.235
N5580G2X28.235Y20.763I0.000J1.000
N5590G01X28.240Y29.768
N5600X20.035Y29.763
N5610G2X19.035Y30.763I0.000J1.000
N5620G01Y31.663
N5630X18.035
N5640Y30.763
N5650G2X17.035Y29.763I-1.000J0.000
N5660G01X0.894Y29.768
N5670X0.900Y20.763
N5680G2X-0.100Y19.763I-1.000J0.000
N5690G01X-1.000
N5700Y18.663
N5710X-0.100
N5720G2X0.900Y17.663I0.000J-1.000
N5730G01X0.894Y0.894
N5740X9.017Y0.900
N5750G2X10.017Y-0.100I0.000J-1.000
N5760G00Z6.000
N5770G00X29.135
N5780G01Z-0.375F200.0
N5790G3X29.305Y-0.171I0.100J0.000F1400.0
N5800G3X29.235Y0.000I-0.071J0.071
N5810G01X29.129Y0.006
N5820X29.135Y-0.100
N5830G00Z6.000
N5840G00X29.129Y30.657
N5850G01Z-0.375F200.0
N5860G01X29.235Y30.663F1400.0
N5870G3X29.305Y30.833I0.000J0.100
N5880G3X29.135Y30.763I-0.071J-0.071
N5890G01X29.129Y30.657
N5900G00Z6.000
N5910G00X-0.100Y30.663
N5920G01Z-0.375F200.0
N5930G01X0.006Y30.657F1400.0
N5940X0.000Y30.763
N5950G3X-0.171Y30.833I-0.100J0.000
N5960G3X-0.100Y30.663I0.071J-0.071
N5970G00Z6.000
N5980G00X-0.171Y-0.171
N5990G01Z-0.563F200.0
N6000G3X0.000Y-0.100I0.071J0.071F1400.0
N6010G01X0.006Y0.006
N6020X-0.100Y0.000
N6030G3X-0.171Y-0.171I0.000J-0.100
N6040G00Z6.000
N6050G00X14.526Y13.305
N6060G01Z-0.563F200.0
N6070G01Y13.449F1400.0
N6080X14.567Y13.510
N6090X14.742Y13.392
N6100X14.567Y13.510
N6110Y16.095
N6120X14.742Y16.270
N6130X14.567Y16.095
N6140X14.392Y16.270
N6150X14.567Y16.095
N6160Y13.510
N6170X14.526Y13.449
N6180X14.392Y13.359
N6190X14.526Y13.449
N6200Y13.305
N6210G01Y12.197
N6220G01Y11.355
N6230Y12.197
N6240G2X15.760Y12.679I5.509J-12.297
N6250G01X16.524Y12.116
N6260X15.760Y12.679
N6270Y17.288
N6280X16.530Y18.052
N6290X15.760Y17.288
N6300X13.375
N6310X12.604Y18.052
N6320X13.375Y17.288
N6330Y12.651
N6340X12.610Y12.092
N6350X13.375Y12.651
N6360G2X14.526Y12.197I-4.357J-12.751
N6370G01Y10.214
N6380G01Y9.338
N6390Y10.214
N6400G2X17.542Y11.324I5.509J-10.314
N6410G01X18.306Y10.691
N6420X17.542Y11.324
N6430Y17.663
N6440G2X17.629Y19.085I11.692J0.000
N6450G01X17.766Y19.212
N6460X18.417
N6470X17.766
N6480X18.339Y19.912
N6490X17.766Y19.212
N6500X17.629Y19.085
N6510X17.035Y19.070
N6520X11.507
N6530X11.346Y19.212
N6540X10.789Y19.834
N6550X11.346Y19.212
N6560X10.718
N6570X11.346
N6580X11.507Y19.070
N6590G2X11.592Y17.663I-11.607J-1.408
N6600G01Y11.305
N6610X10.828Y10.677
N6620X11.592Y11.305
N6630G2X14.526Y10.214I-2.575J-11.405
N6640G01Y8.138
N6650G01Y7.201
N6660Y8.138
N6670G2X19.324Y9.785I5.509J-8.238
N6680G01X20.088Y9.046
N6690X19.324Y9.785
N6700Y17.663
N6710G2X19.446Y19.212I9.910J0.000
N6720G01X20.221
N6730X19.446
N6740G2X19.324Y20.763I9.788J1.550
N6750G01Y20.878
N6760X20.088Y21.616
N6770X19.324Y20.878
N6780X18.535Y20.966
N6790Y21.740
N6800Y20.966
N6810G2X17.035Y20.852I-1.500J9.796
N6820G01X9.810
N6830X9.046Y21.616
N6840X9.810Y20.852
N6850Y20.763
N6860G2X9.688Y19.212I-9.910J0.000
N6870G01X8.914
N6880X9.688
N6890G2X9.810Y17.663I-9.788J-1.550
N6900G01Y9.779
N6910X9.046Y9.046
N6920X9.810Y9.779
N6930G2X14.526Y8.138I-0.793J-9.879
N6940G01X14.240Y6.128
N6950G01X13.954Y5.364
N6960X14.240Y6.128
N6970X14.812
N6980X15.098Y5.364
N6990X14.812Y6.128
N7000G2X20.035Y8.028I5.223J-6.228
N7010G01X21.106
N7020X21.871Y7.264
N7030X21.106Y8.028
N7040Y17.663
N7050G2X21.255Y19.212I8.128J0.000
N7060G01X22.036
N7070X21.255
N7080G2X21.106Y20.763I7.979J1.550
N7090G01Y22.634
N7100X21.871Y23.398
N7110X21.106Y22.634
N7120X20.035
N7130G2X18.535Y22.774I0.000J8.128
N7140G01Y23.553
N7150Y22.774
N7160G2X17.035Y22.634I-1.500J7.989
N7170G01X8.028
N7180X7.264Y23.398
N7190X8.028Y22.634
N7200Y20.763
N7210G2X7.879Y19.212I-8.128J0.000
N7220G01X7.099
N7230X7.879
N7240G2X8.028Y17.663I-7.979J-1.550
N7250G01Y8.028
N7260X7.264Y7.264
N7270X8.028Y8.028
N7280X9.017
N7290G2X14.240Y6.128I0.000J-8.128
N7300G01X13.546Y4.346
N7310G01X13.213Y3.582
N7320X13.546Y4.346
N7330X15.506
N7340X15.839Y3.582
N7350X15.506Y4.346
N7360G2X20.035Y6.246I4.528J-4.446
N7370G01X22.888
N7380X23.653Y5.482
N7390X22.888Y6.246
N7400Y17.663
N7410G2X23.081Y19.212I6.346J0.000
N7420G01X23.872
N7430X23.081
N7440G2X22.888Y20.763I6.154J1.550
N7450G01Y24.416
N7460X23.653Y25.181
N7470X22.888Y24.416
N7480X20.035
N7490G2X18.535Y24.596I0.000J6.346
N7500G01Y25.386
N7510Y24.596
N7520G2X17.035Y24.416I-1.500J6.166
N7530G01X6.246
N7540X5.482Y25.181
N7550X6.246Y24.416
N7560Y20.763
N7570G2X6.054Y19.212I-6.346J0.000
N7580G01X5.262
N7590X6.054
N7600G2X6.246Y17.663I-6.154J-1.550
N7610G01Y6.246
N7620X5.482Y5.482
N7630X6.246Y6.246
N7640X9.017
N7650G2X13.546Y4.346I0.000J-6.346
N7660G01X12.723Y2.564
N7670G01X12.308Y1.800
N7680X12.723Y2.564
N7690X16.329
N7700X16.744Y1.800
N7710X16.329Y2.564
N7720G2X20.035Y4.464I3.706J-2.664
N7730G01X24.670
N7740X25.435Y3.700
N7750X24.670Y4.464
N7760Y17.663
N7770G2X24.942Y19.212I4.564J0.000
N7780G01X25.765
N7790X24.942
N7800G2X24.670Y20.763I4.293J1.550
N7810G01Y26.198
N7820X25.435Y26.963
N7830X24.670Y26.198
N7840X20.035
N7850G2X18.535Y26.452I0.000J4.564
N7860G01Y27.271
N7870Y26.452
N7880G2X17.035Y26.198I-1.500J4.311
N7890G01X4.464
N7900X3.700Y26.963
N7910X4.464Y26.198
N7920Y20.763
N7930G2X4.193Y19.212I-4.564J0.000
N7940G01X3.369
N7950X4.193
N7960G2X4.464Y17.663I-4.293J-1.550
N7970G01Y4.464
N7980X3.700Y3.700
N7990X4.464Y4.464
N8000X9.017
N8010G2X12.723Y2.564I0.000J-4.564
N8020G01X11.656Y0.782
N8030G01X11.365Y0.400
N8040X11.032Y0.018
N8050X11.365Y0.400
N8060X11.656Y0.782
N8070X17.396
N8080X17.687Y0.400
N8090X18.020Y0.018
N8100X17.687Y0.400
N8110X17.396Y0.782
N8120G2X20.035Y2.682I2.639J-0.882
N8130G01X26.453
N8140X27.217Y1.918
N8150X26.453Y2.682
N8160Y17.663
N8170G2X26.924Y19.212I2.782J0.000
N8180G01X27.943
N8190X26.924
N8200G2X26.453Y20.763I2.310J1.550
N8210G01Y27.980
N8220X27.217Y28.745
N8230X26.453Y27.980
N8240X20.035
N8250G2X18.535Y28.419I0.000J2.782
N8260G01Y29.413
N8270Y28.419
N8280G2X17.035Y27.980I-1.500J2.343
N8290G01X2.682
N8300X1.918Y28.745
N8310X2.682Y27.980
N8320Y20.763
N8330G2X2.210Y19.212I-2.782J0.000
N8340G01X1.192
N8350X2.210
N8360G2X2.682Y17.663I-2.310J-1.550
N8370G01Y2.682
N8380X1.918Y1.918
N8390X2.682Y2.682
N8400X9.017
N8410G2X11.656Y0.782I0.000J-2.782
N8420G01X10.017Y-0.100
N8430G01Y-1.000
N8440X19.035
N8450Y-0.100
N8460G2X20.035Y0.900I1.000J0.000
N8470G01X28.240Y0.894
N8480X28.235Y17.663
N8490G2X29.235Y18.663I1.000J0.000
N8500G01X30.135
N8510Y19.763
N8520X29.235
N8530G2X28.235Y20.763I0.000J1.000
N8540G01X28.240Y29.768
N8550X20.035Y29.763
N8560G2X19.035Y30.763I0.000J1.000
N8570G01Y31.663
N8580X18.035
N8590Y30.763
N8600G2X17.035Y29.763I-1.000J0.000
N8610G01X0.894Y29.768
N8620X0.900Y20.763
N8630G2X-0.100Y19.763I-1.000J0.000
N8640G01X-1.000
N8650Y18.663
N8660X-0.100
N8670G2X0.900Y17.663I0.000J-1.000
N8680G01X0.894Y0.894
N8690X9.017Y0.900
N8700G2X10.017Y-0.100I0.000J-1.000
N8710G00Z6.000
N8720G00X29.135
N8730G01Z-0.563F200.0
N8740G3X29.305Y-0.171I0.100J0.000F1400.0
N8750G3X29.235Y0.000I-0.071J0.071
N8760G01X29.129Y0.006
N8770X29.135Y-0.100
N8780G00Z6.000
N8790G00X29.129Y30.657
N8800G01Z-0.563F200.0
N8810G01X29.235Y30.663F1400.0
N8820G3X29.305Y30.833I0.000J0.100
N8830G3X29.135Y30.763I-0.071J-0.071
N8840G01X29.129Y30.657
N8850G00Z6.000
N8860G00X-0.100Y30.663
N8870G01Z-0.563F200.0
N8880G01X0.006Y30.657F1400.0
N8890X0.000Y30.763
N8900G3X-0.171Y30.833I-0.100J0.000
N8910G3X-0.100Y30.663I0.071J-0.071
N8920G00Z6.000
N8930G00X-0.171Y-0.171
N8940G01Z-0.750F200.0
N8950G3X0.000Y-0.100I0.071J0.071F1400.0
N8960G01X0.006Y0.006
N8970X-0.100Y0.000
N8980G3X-0.171Y-0.171I0.000J-0.100
N8990G00Z6.000
N9000G00X14.526Y13.305
N9010G01Z-0.750F200.0
N9020G01Y13.449F1400.0
N9030X14.567Y13.510
N9040X14.742Y13.392
N9050X14.567Y13.510
N9060Y16.095
N9070X14.742Y16.270
N9080X14.567Y16.095
N9090X14.392Y16.270
N9100X14.567Y16.095
N9110Y13.510
N9120X14.526Y13.449
N9130X14.392Y13.359
N9140X14.526Y13.449
N9150Y13.305
N9160G01Y12.197
N9170G01Y11.355
N9180Y12.197
N9190G2X15.760Y12.679I5.509J-12.297
N9200G01X16.524Y12.116
N9210X15.760Y12.679
N9220Y17.288
N9230X16.530Y18.052
N9240X15.760Y17.288
N9250X13.375
N9260X12.604Y18.052
N9270X13.375Y17.288
N9280Y12.651
N9290X12.610Y12.092
N9300X13.375Y12.651
N9310G2X14.526Y12.197I-4.357J-12.751
N9320G01Y10.214
N9330G01Y9.338
N9340Y10.214
N9350G2X17.542Y11.324I5.509J-10.314
N9360G01X18.306Y10.691
N9370X17.542Y11.324
N9380Y17.663
N9390G2X17.629Y19.085I11.692J0.000
N9400G01X17.766Y19.212
N9410X18.417
N9420X17.766
N9430X18.339Y19.912
N9440X17.766Y19.212
N9450X17.629Y19.085
N9460X17.035Y19.070
N9470X11.507
N9480X11.346Y19.212
N9490X10.789Y19.834
N9500X11.346Y19.212
N9510X10.718
N9520X11.346
N9530X11.507Y19.070
N9540G2X11.592Y17.663I-11.607J-1.408
N9550G01Y11.305
N9560X10.828Y10.677
N9570X11.592Y11.305
N9580G2X14.526Y10.214I-2.575J-11.405
N9590G01Y8.138
N9600G01Y7.201
N9610Y8.138
N9620G2X19.324Y9.785I5.509J-8.238
N9630G01X20.088Y9.046
N9640X19.324Y9.785
N9650Y17.663
N9660G2X19.446Y19.212I9.910J0.000
N9670G01X20.221
N9680X19.446
N9690G2X19.324Y20.763I9.788J1.550
N9700G01Y20.878
N9710X20.088Y21.616
N9720X19.324Y20.878
N9730X18.535Y20.966
N9740Y21.740
N9750Y20.966
N9760G2X17.035Y20.852I-1.500J9.796
N9770G01X9.810
N9780X9.046Y21.616
N9790X9.810Y20.852
N9800Y20.763
N9810G2X9.688Y19.212I-9.910J0.000
N9820G01X8.914
N9830X9.688
N9840G2X9.810Y17.663I-9.788J-1.550
N9850G01Y9.779
N9860X9.046Y9.046
N9870X9.810Y9.779
N9880G2X14.526Y8.138I-0.793J-9.879
N9890G01X14.240Y6.128
N9900G01X13.954Y5.364
N9910X14.240Y6.128
N9920X14.812
N9930X15.098Y5.364
N9940X14.812Y6.128
N9950G2X20.035Y8.028I5.223J-6.228
N9960G01X21.106
N9970X21.871Y7.264
N9980X21.106Y8.028
N9990Y17.663
N10000G2X21.255Y19.212I8.128J0.000
N10010G01X22.036
N10020X21.255
N10030G2X21.106Y20.763I7.979J1.550
N10040G01Y22.634
N10050X21.871Y23.398
N10060X21.106Y22.634
N10070X20.035
N10080G2X18.535Y22.774I0.000J8.128
N10090G01Y23.553
N10100Y22.774
N10110G2X17.035Y22.634I-1.500J7.989
N10120G01X8.028
N10130X7.264Y23.398
N10140X8.028Y22.634
N10150Y20.763
N10160G2X7.879Y19.212I-8.128J0.000
N10170G01X7.099
N10180X7.879
N10190G2X8.028Y17.663I-7.979J-1.550
N10200G01Y8.028
N10210X7.264Y7.264
N10220X8.028Y8.028
N10230X9.017
N10240G2X14.240Y6.128I0.000J-8.128
N10250G01X13.546Y4.346
N10260G01X13.213Y3.582
N10270X13.546Y4.346
N10280X15.506
N10290X15.839Y3.582
N10300X15.506Y4.346
N10310G2X20.035Y6.246I4.528J-4.446
N10320G01X22.888
N10330X23.653Y5.482
N10340X22.888Y6.246
N10350Y17.663
N10360G2X23.081Y19.212I6.346J0.000
N10370G01X23.872
N10380X23.081
N10390G2X22.888Y20.763I6.154J1.550
N10400G01Y24.416
N10410X23.653Y25.181
N10420X22.888Y24.416
N10430X20.035
N10440G2X18.535Y24.596I0.000J6.346
N10450G01Y25.386
N10460Y24.596
N10470G2X17.035Y24.416I-1.500J6.166
N10480G01X6.246
N10490X5.482Y25.181
N10500X6.246Y24.416
N10510Y20.763
N10520G2X6.054Y19.212I-6.346J0.000
N10530G01X5.262
N10540X6.054
N10550G2X6.246Y17.663I-6.154J-1.550
N10560G01Y6.246
N10570X5.482Y5.482
N10580X6.246Y6.246
N10590X9.017
N10600G2X13.546Y4.346I0.000J-6.346
N10610G01X12.723Y2.564
N10620G01X12.308Y1.800
N10630X12.723Y2.564
N10640X16.329
N10650X16.744Y1.800
N10660X16.329Y2.564
N10670G2X20.035Y4.464I3.706J-2.664
N10680G01X24.670
N10690X25.435Y3.700
N10700X24.670Y4.464
N10710Y17.663
N10720G2X24.942Y19.212I4.564J0.000
N10730G01X25.765
N10740X24.942
N10750G2X24.670Y20.763I4.293J1.550
N10760G01Y26.198
N10770X25.435Y26.963
N10780X24.670Y26.198
N10790X20.035
N10800G2X18.535Y26.452I0.000J4.564
N10810G01Y27.271
N10820Y26.452
N10830G2X17.035Y26.198I-1.500J4.311
N10840G01X4.464
N10850X3.700Y26.963
N10860X4.464Y26.198
N10870Y20.763
N10880G2X4.193Y19.212I-4.564J0.000
N10890G01X3.369
N10900X4.193
N10910G2X4.464Y17.663I-4.293J-1.550
N10920G01Y4.464
N10930X3.700Y3.700
N10940X4.464Y4.464
N10950X9.017
N10960G2X12.723Y2.564I0.000J-4.564
N10970G01X11.656Y0.782
N10980G01X11.365Y0.400
N10990X11.032Y0.018
N11000X11.365Y0.400
N11010X11.656Y0.782
N11020X17.396
N11030X17.687Y0.400
N11040X18.020Y0.018
N11050X17.687Y0.400
N11060X17.396Y0.782
N11070G2X20.035Y2.682I2.639J-0.882
N11080G01X26.453
N11090X27.217Y1.918
N11100X26.453Y2.682
N11110Y17.663
N11120G2X26.924Y19.212I2.782J0.000
N11130G01X27.943
N11140X26.924
N11150G2X26.453Y20.763I2.310J1.550
N11160G01Y27.980
N11170X27.217Y28.745
N11180X26.453Y27.980
N11190X20.035
N11200G2X18.535Y28.419I0.000J2.782
N11210G01Y29.413
N11220Y28.419
N11230G2X17.035Y27.980I-1.500J2.343
N11240G01X2.682
N11250X1.918Y28.745
N11260X2.682Y27.980
N11270Y20.763
N11280G2X2.210Y19.212I-2.782J0.000
N11290G01X1.192
N11300X2.210
N11310G2X2.682Y17.663I-2.310J-1.550
N11320G01Y2.682
N11330X1.918Y1.918
N11340X2.682Y2.682
N11350X9.017
N11360G2X11.656Y0.782I0.000J-2.782
N11370G01X10.017Y-0.100
N11380G01Y-1.000
N11390X19.035
N11400Y-0.100
N11410G2X20.035Y0.900I1.000J0.000
N11420G01X28.240Y0.894
N11430X28.235Y17.663
N11440G2X29.235Y18.663I1.000J0.000
N11450G01X30.135
N11460Y19.763
N11470X29.235
N11480G2X28.235Y20.763I0.000J1.000
N11490G01X28.240Y29.768
N11500X20.035Y29.763
N11510G2X19.035Y30.763I0.000J1.000
N11520G01Y31.663
N11530X18.035
N11540Y30.763
N11550G2X17.035Y29.763I-1.000J0.000
N11560G01X0.894Y29.768
N11570X0.900Y20.763
N11580G2X-0.100Y19.763I-1.000J0.000
N11590G01X-1.000
N11600Y18.663
N11610X-0.100
N11620G2X0.900Y17.663I0.000J-1.000
N11630G01X0.894Y0.894
N11640X9.017Y0.900
N11650G2X10.017Y-0.100I0.000J-1.000
N11660G00Z6.000
N11670G00X29.135
N11680G01Z-0.750F200.0
N11690G3X29.305Y-0.171I0.100J0.000F1400.0
N11700G3X29.235Y0.000I-0.071J0.071
N11710G01X29.129Y0.006
N11720X29.135Y-0.100
N11730G00Z6.000
N11740G00X29.129Y30.657
N11750G01Z-0.750F200.0
N11760G01X29.235Y30.663F1400.0
N11770G3X29.305Y30.833I0.000J0.100
N11780G3X29.135Y30.763I-0.071J-0.071
N11790G01X29.129Y30.657
N11800G00Z6.000
N11810G00X-0.100Y30.663
N11820G01Z-0.750F200.0
N11830G01X0.006Y30.657F1400.0
N11840X0.000Y30.763
N11850G3X-0.171Y30.833I-0.100J0.000
N11860G3X-0.100Y30.663I0.071J-0.071
N11870G00Z6.000
N11880G00X-0.171Y-0.171
N11890G01Z-0.938F200.0
N11900G3X0.000Y-0.100I0.071J0.071F1400.0
N11910G01X0.006Y0.006
N11920X-0.100Y0.000
N11930G3X-0.171Y-0.171I0.000J-0.100
N11940G00Z6.000
N11950G00X14.526Y13.305
N11960G01Z-0.938F200.0
N11970G01Y13.449F1400.0
N11980X14.567Y13.510
N11990X14.742Y13.392
N12000X14.567Y13.510
N12010Y16.095
N12020X14.742Y16.270
N12030X14.567Y16.095
N12040X14.392Y16.270
N12050X14.567Y16.095
N12060Y13.510
N12070X14.526Y13.449
N12080X14.392Y13.359
N12090X14.526Y13.449
N12100Y13.305
N12110G01Y12.197
N12120G01Y11.355
N12130Y12.197
N12140G2X15.760Y12.679I5.509J-12.297
N12150G01X16.524Y12.116
N12160X15.760Y12.679
N12170Y17.288
N12180X16.530Y18.052
N12190X15.760Y17.288
N12200X13.375
N12210X12.604Y18.052
N12220X13.375Y17.288
N12230Y12.651
N12240X12.610Y12.092
N12250X13.375Y12.651
N12260G2X14.526Y12.197I-4.357J-12.751
N12270G01Y10.214
N12280G01Y9.338
N12290Y10.214
N12300G2X17.542Y11.324I5.509J-10.314
N12310G01X18.306Y10.691
N12320X17.542Y11.324
N12330Y17.663
N12340G2X17.629Y19.085I11.692J0.000
N12350G01X17.766Y19.212
N12360X18.417
N12370X17.766
N12380X18.339Y19.912
N12390X17.766Y19.212
N12400X17.629Y19.085
N12410X17.035Y19.070
N12420X11.507
N12430X11.346Y19.212
N12440X10.789Y19.834
N12450X11.346Y19.212
N12460X10.718
N12470X11.346
N12480X11.507Y19.070
N12490G2X11.592Y17.663I-11.607J-1.408
N12500G01Y11.305
N12510X10.828Y10.677
N12520X11.592Y11.305
N12530G2X14.526Y10.214I-2.575J-11.405
N12540G01Y8.138
N12550G01Y7.201
N12560Y8.138
N12570G2X19.324Y9.785I5.509J-8.238
N12580G01X20.088Y9.046
N12590X19.324Y9.785
N12600Y17.663
N12610G2X19.446Y19.212I9.910J0.000
N12620G01X20.221
N12630X19.446
N12640G2X19.324Y20.763I9.788J1.550
N12650G01Y20.878
N12660X20.088Y21.616
N12670X19.324Y20.878
N12680X18.535Y20.966
N12690Y21.740
N12700Y20.966
N12710G2X17.035Y20.852I-1.500J9.796
N12720G01X9.810
N12730X9.046Y21.616
N12740X9.810Y20.852
N12750Y20.763
N12760G2X9.688Y19.212I-9.910J0.000
N12770G01X8.914
N12780X9.688
N12790G2X9.810Y17.663I-9.788J-1.550
N12800G01Y9.779
N12810X9.046Y9.046
N12820X9.810Y9.779
N12830G2X14.526Y8.138I-0.793J-9.879
N12840G01X14.240Y6.128
N12850G01X13.954Y5.364
N12860X14.240Y6.128
N12870X14.812
N12880X15.098Y5.364
N12890X14.812Y6.128
N12900G2X20.035Y8.028I5.223J-6.228
N12910G01X21.106
N12920X21.871Y7.264
N12930X21.106Y8.028
N12940Y17.663
N12950G2X21.255Y19.212I8.128J0.000
N12960G01X22.036
N12970X21.255
N12980G2X21.106Y20.763I7.979J1.550
N12990G01Y22.634
N13000X21.871Y23.398
N13010X21.106Y22.634
N13020X20.035
N13030G2X18.535Y22.774I0.000J8.128
N13040G01Y23.553
N13050Y22.774
N13060G2X17.035Y22.634I-1.500J7.989
N13070G01X8.028
N13080X7.264Y23.398
N13090X8.028Y22.634
N13100Y20.763
N13110G2X7.879Y19.212I-8.128J0.000
N13120G01X7.099
N13130X7.879
N13140G2X8.028Y17.663I-7.979J-1.550
N13150G01Y8.028
N13160X7.264Y7.264
N13170X8.028Y8.028
N13180X9.017
N13190G2X14.240Y6.128I0.000J-8.128
N13200G01X13.546Y4.346
N13210G01X13.213Y3.582
N13220X13.546Y4.346
N13230X15.506
N13240X15.839Y3.582
N13250X15.506Y4.346
N13260G2X20.035Y6.246I4.528J-4.446
N13270G01X22.888
N13280X23.653Y5.482
N13290X22.888Y6.246
N13300Y17.663
N13310G2X23.081Y19.212I6.346J0.000
N13320G01X23.872
N13330X23.081
N13340G2X22.888Y20.763I6.154J1.550
N13350G01Y24.416
N13360X23.653Y25.181
N13370X22.888Y24.416
N13380X20.035
N13390G2X18.535Y24.596I0.000J6.346
N13400G01Y25.386
N13410Y24.596
N13420G2X17.035Y24.416I-1.500J6.166
N13430G01X6.246
N13440X5.482Y25.181
N13450X6.246Y24.416
N13460Y20.763
N13470G2X6.054Y19.212I-6.346J0.000
N13480G01X5.262
N13490X6.054
N13500G2X6.246Y17.663I-6.154J-1.550
N13510G01Y6.246
N13520X5.482Y5.482
N13530X6.246Y6.246
N13540X9.017
N13550G2X13.546Y4.346I0.000J-6.346
N13560G01X12.723Y2.564
N13570G01X12.308Y1.800
N13580X12.723Y2.564
N13590X16.329
N13600X16.744Y1.800
N13610X16.329Y2.564
N13620G2X20.035Y4.464I3.706J-2.664
N13630G01X24.670
N13640X25.435Y3.700
N13650X24.670Y4.464
N13660Y17.663
N13670G2X24.942Y19.212I4.564J0.000
N13680G01X25.765
N13690X24.942
N13700G2X24.670Y20.763I4.293J1.550
N13710G01Y26.198
N13720X25.435Y26.963
N13730X24.670Y26.198
N13740X20.035
N13750G2X18.535Y26.452I0.000J4.564
N13760G01Y27.271
N13770Y26.452
N13780G2X17.035Y26.198I-1.500J4.311
N13790G01X4.464
N13800X3.700Y26.963
N13810X4.464Y26.198
N13820Y20.763
N13830G2X4.193Y19.212I-4.564J0.000
N13840G01X3.369
N13850X4.193
N13860G2X4.464Y17.663I-4.293J-1.550
N13870G01Y4.464
N13880X3.700Y3.700
N13890X4.464Y4.464
N13900X9.017
N13910G2X12.723Y2.564I0.000J-4.564
N13920G01X11.656Y0.782
N13930G01X11.365Y0.400
N13940X11.032Y0.018
N13950X11.365Y0.400
N13960X11.656Y0.782
N13970X17.396
N13980X17.687Y0.400
N13990X18.020Y0.018
N14000X17.687Y0.400
N14010X17.396Y0.782
N14020G2X20.035Y2.682I2.639J-0.882
N14030G01X26.453
N14040X27.217Y1.918
N14050X26.453Y2.682
N14060Y17.663
N14070G2X26.924Y19.212I2.782J0.000
N14080G01X27.943
N14090X26.924
N14100G2X26.453Y20.763I2.310J1.550
N14110G01Y27.980
N14120X27.217Y28.745
N14130X26.453Y27.980
N14140X20.035
N14150G2X18.535Y28.419I0.000J2.782
N14160G01Y29.413
N14170Y28.419
N14180G2X17.035Y27.980I-1.500J2.343
N14190G01X2.682
N14200X1.918Y28.745
N14210X2.682Y27.980
N14220Y20.763
N14230G2X2.210Y19.212I-2.782J0.000
N14240G01X1.192
N14250X2.210
N14260G2X2.682Y17.663I-2.310J-1.550
N14270G01Y2.682
N14280X1.918Y1.918
N14290X2.682Y2.682
N14300X9.017
N14310G2X11.656Y0.782I0.000J-2.782
N14320G01X10.017Y-0.100
N14330G01Y-1.000
N14340X19.035
N14350Y-0.100
N14360G2X20.035Y0.900I1.000J0.000
N14370G01X28.240Y0.894
N14380X28.235Y17.663
N14390G2X29.235Y18.663I1.000J0.000
N14400G01X30.135
N14410Y19.763
N14420X29.235
N14430G2X28.235Y20.763I0.000J1.000
N14440G01X28.240Y29.768
N14450X20.035Y29.763
N14460G2X19.035Y30.763I0.000J1.000
N14470G01Y31.663
N14480X18.035
N14490Y30.763
N14500G2X17.035Y29.763I-1.000J0.000
N14510G01X0.894Y29.768
N14520X0.900Y20.763
N14530G2X-0.100Y19.763I-1.000J0.000
N14540G01X-1.000
N14550Y18.663
N14560X-0.100
N14570G2X0.900Y17.663I0.000J-1.000
N14580G01X0.894Y0.894
N14590X9.017Y0.900
N14600G2X10.017Y-0.100I0.000J-1.000
N14610G00Z6.000
N14620G00X29.135
N14630G01Z-0.938F200.0
N14640G3X29.305Y-0.171I0.100J0.000F1400.0
N14650G3X29.235Y0.000I-0.071J0.071
N14660G01X29.129Y0.006
N14670X29.135Y-0.100
N14680G00Z6.000
N14690G00X29.129Y30.657
N14700G01Z-0.938F200.0
N14710G01X29.235Y30.663F1400.0
N14720G3X29.305Y30.833I0.000J0.100
N14730G3X29.135Y30.763I-0.071J-0.071
N14740G01X29.129Y30.657
N14750G00Z6.000
N14760G00X-0.100Y30.663
N14770G01Z-0.938F200.0
N14780G01X0.006Y30.657F1400.0
N14790X0.000Y30.763
N14800G3X-0.171Y30.833I-0.100J0.000
N14810G3X-0.100Y30.663I0.071J-0.071
N14820G00Z6.000
N14830G00X-0.171Y-0.171
N14840G01Z-1.125F200.0
N14850G3X0.000Y-0.100I0.071J0.071F1400.0
N14860G01X0.006Y0.006
N14870X-0.100Y0.000
N14880G3X-0.171Y-0.171I0.000J-0.100
N14890G00Z6.000
N14900G00X14.526Y13.305
N14910G01Z-1.125F200.0
N14920G01Y13.449F1400.0
N14930X14.567Y13.510
N14940X14.742Y13.392
N14950X14.567Y13.510
N14960Y16.095
N14970X14.742Y16.270
N14980X14.567Y16.095
N14990X14.392Y16.270
N15000X14.567Y16.095
N15010Y13.510
N15020X14.526Y13.449
N15030X14.392Y13.359
N15040X14.526Y13.449
N15050Y13.305
N15060G01Y12.197
N15070G01Y11.355
N15080Y12.197
N15090G2X15.760Y12.679I5.509J-12.297
N15100G01X16.524Y12.116
N15110X15.760Y12.679
N15120Y17.288
N15130X16.530Y18.052
N15140X15.760Y17.288
N15150X13.375
N15160X12.604Y18.052
N15170X13.375Y17.288
N15180Y12.651
N15190X12.610Y12.092
N15200X13.375Y12.651
N15210G2X14.526Y12.197I-4.357J-12.751
N15220G01Y10.214
N15230G01Y9.338
N15240Y10.214
N15250G2X17.542Y11.324I5.509J-10.314
N15260G01X18.306Y10.691
N15270X17.542Y11.324
N15280Y17.663
N15290G2X17.629Y19.085I11.692J0.000
N15300G01X17.766Y19.212
N15310X18.417
N15320X17.766
N15330X18.339Y19.912
N15340X17.766Y19.212
N15350X17.629Y19.085
N15360X17.035Y19.070
N15370X11.507
N15380X11.346Y19.212
N15390X10.789Y19.834
N15400X11.346Y19.212
N15410X10.718
N15420X11.346
N15430X11.507Y19.070
N15440G2X11.592Y17.663I-11.607J-1.408
N15450G01Y11.305
N15460X10.828Y10.677
N15470X11.592Y11.305
N15480G2X14.526Y10.214I-2.575J-11.405
N15490G01Y8.138
N15500G01Y7.201
N15510Y8.138
N15520G2X19.324Y9.785I5.509J-8.238
N15530G01X20.088Y9.046
N15540X19.324Y9.785
N15550Y17.663
N15560G2X19.446Y19.212I9.910J0.000
N15570G01X20.221
N15580X19.446
N15590G2X19.324Y20.763I9.788J1.550
N15600G01Y20.878
N15610X20.088Y21.616
N15620X19.324Y20.878
N15630X18.535Y20.966
N15640Y21.740
N15650Y20.966
N15660G2X17.035Y20.852I-1.500J9.796
N15670G01X9.810
N15680X9.046Y21.616
N15690X9.810Y20.852
N15700Y20.763
N15710G2X9.688Y19.212I-9.910J0.000
N15720G01X8.914
N15730X9.688
N15740G2X9.810Y17.663I-9.788J-1.550
N15750G01Y9.779
N15760X9.046Y9.046
N15770X9.810Y9.779
N15780G2X14.526Y8.138I-0.793J-9.879
N15790G01X14.240Y6.128
N15800G01X13.954Y5.364
N15810X14.240Y6.128
N15820X14.812
N15830X15.098Y5.364
N15840X14.812Y6.128
N15850G2X20.035Y8.028I5.223J-6.228
N15860G01X21.106
N15870X21.871Y7.264
N15880X21.106Y8.028
N15890Y17.663
N15900G2X21.255Y19.212I8.128J0.000
N15910G01X22.036
N15920X21.255
N15930G2X21.106Y20.763I7.979J1.550
N15940G01Y22.634
N15950X21.871Y23.398
N15960X21.106Y22.634
N15970X20.035
N15980G2X18.535Y22.774I0.000J8.128
N15990G01Y23.553
N16000Y22.774
N16010G2X17.035Y22.634I-1.500J7.989
N16020G01X8.028
N16030X7.264Y23.398
N16040X8.028Y22.634
N16050Y20.763
N16060G2X7.879Y19.212I-8.128J0.000
N16070G01X7.099
N16080X7.879
N16090G2X8.028Y17.663I-7.979J-1.550
N16100G01Y8.028
N16110X7.264Y7.264
N16120X8.028Y8.028
N16130X9.017
N16140G2X14.240Y6.128I0.000J-8.128
N16150G01X13.546Y4.346
N16160G01X13.213Y3.582
N16170X13.546Y4.346
N16180X15.506
N16190X15.839Y3.582
N16200X15.506Y4.346
N16210G2X20.035Y6.246I4.528J-4.446
N16220G01X22.888
N16230X23.653Y5.482
N16240X22.888Y6.246
N16250Y17.663
N16260G2X23.081Y19.212I6.346J0.000
N16270G01X23.872
N16280X23.081
N16290G2X22.888Y20.763I6.154J1.550
N16300G01Y24.416
N16310X23.653Y25.181
N16320X22.888Y24.416
N16330X20.035
N16340G2X18.535Y24.596I0.000J6.346
N16350G01Y25.386
N16360Y24.596
N16370G2X17.035Y24.416I-1.500J6.166
N16380G01X6.246
N16390X5.482Y25.181
N16400X6.246Y24.416
N16410Y20.763
N16420G2X6.054Y19.212I-6.346J0.000
N16430G01X5.262
N16440X6.054
N16450G2X6.246Y17.663I-6.154J-1.550
N16460G01Y6.246
N16470X5.482Y5.482
N16480X6.246Y6.246
N16490X9.017
N16500G2X13.546Y4.346I0.000J-6.346
N16510G01X12.723Y2.564
N16520G01X12.308Y1.800
N16530X12.723Y2.564
N16540X16.329
N16550X16.744Y1.800
N16560X16.329Y2.564
N16570G2X20.035Y4.464I3.706J-2.664
N16580G01X24.670
N16590X25.435Y3.700
N16600X24.670Y4.464
N16610Y17.663
N16620G2X24.942Y19.212I4.564J0.000
N16630G01X25.765
N16640X24.942
N16650G2X24.670Y20.763I4.293J1.550
N16660G01Y26.198
N16670X25.435Y26.963
N16680X24.670Y26.198
N16690X20.035
N16700G2X18.535Y26.452I0.000J4.564
N16710G01Y27.271
N16720Y26.452
N16730G2X17.035Y26.198I-1.500J4.311
N16740G01X4.464
N16750X3.700Y26.963
N16760X4.464Y26.198
N16770Y20.763
N16780G2X4.193Y19.212I-4.564J0.000
N16790G01X3.369
N16800X4.193
N16810G2X4.464Y17.663I-4.293J-1.550
N16820G01Y4.464
N16830X3.700Y3.700
N16840X4.464Y4.464
N16850X9.017
N16860G2X12.723Y2.564I0.000J-4.564
N16870G01X11.656Y0.782
N16880G01X11.365Y0.400
N16890X11.032Y0.018
N16900X11.365Y0.400
N16910X11.656Y0.782
N16920X17.396
N16930X17.687Y0.400
N16940X18.020Y0.018
N16950X17.687Y0.400
N16960X17.396Y0.782
N16970G2X20.035Y2.682I2.639J-0.882
N16980G01X26.453
N16990X27.217Y1.918
N17000X26.453Y2.682
N17010Y17.663
N17020G2X26.924Y19.212I2.782J0.000
N17030G01X27.943
N17040X26.924
N17050G2X26.453Y20.763I2.310J1.550
N17060G01Y27.980
N17070X27.217Y28.745
N17080X26.453Y27.980
N17090X20.035
N17100G2X18.535Y28.419I0.000J2.782
N17110G01Y29.413
N17120Y28.419
N17130G2X17.035Y27.980I-1.500J2.343
N17140G01X2.682
N17150X1.918Y28.745
N17160X2.682Y27.980
N17170Y20.763
N17180G2X2.210Y19.212I-2.782J0.000
N17190G01X1.192
N17200X2.210
N17210G2X2.682Y17.663I-2.310J-1.550
N17220G01Y2.682
N17230X1.918Y1.918
N17240X2.682Y2.682
N17250X9.017
N17260G2X11.656Y0.782I0.000J-2.782
N17270G01X10.017Y-0.100
N17280G01Y-1.000
N17290X19.035
N17300Y-0.100
N17310G2X20.035Y0.900I1.000J0.000
N17320G01X28.240Y0.894
N17330X28.235Y17.663
N17340G2X29.235Y18.663I1.000J0.000
N17350G01X30.135
N17360Y19.763
N17370X29.235
N17380G2X28.235Y20.763I0.000J1.000
N17390G01X28.240Y29.768
N17400X20.035Y29.763
N17410G2X19.035Y30.763I0.000J1.000
N17420G01Y31.663
N17430X18.035
N17440Y30.763
N17450G2X17.035Y29.763I-1.000J0.000
N17460G01X0.894Y29.768
N17470X0.900Y20.763
N17480G2X-0.100Y19.763I-1.000J0.000
N17490G01X-1.000
N17500Y18.663
N17510X-0.100
N17520G2X0.900Y17.663I0.000J-1.000
N17530G01X0.894Y0.894
N17540X9.017Y0.900
N17550G2X10.017Y-0.100I0.000J-1.000
N17560G00Z6.000
N17570G00X29.135
N17580G01Z-1.125F200.0
N17590G3X29.305Y-0.171I0.100J0.000F1400.0
N17600G3X29.235Y0.000I-0.071J0.071
N17610G01X29.129Y0.006
N17620X29.135Y-0.100
N17630G00Z6.000
N17640G00X29.129Y30.657
N17650G01Z-1.125F200.0
N17660G01X29.235Y30.663F1400.0
N17670G3X29.305Y30.833I0.000J0.100
N17680G3X29.135Y30.763I-0.071J-0.071
N17690G01X29.129Y30.657
N17700G00Z6.000
N17710G00X-0.100Y30.663
N17720G01Z-1.125F200.0
N17730G01X0.006Y30.657F1400.0
N17740X0.000Y30.763
N17750G3X-0.171Y30.833I-0.100J0.000
N17760G3X-0.100Y30.663I0.071J-0.071
N17770G00Z6.000
N17780G00X-0.171Y-0.171
N17790G01Z-1.313F200.0
N17800G3X0.000Y-0.100I0.071J0.071F1400.0
N17810G01X0.006Y0.006
N17820X-0.100Y0.000
N17830G3X-0.171Y-0.171I0.000J-0.100
N17840G00Z6.000
N17850G00X14.526Y13.305
N17860G01Z-1.313F200.0
N17870G01Y13.449F1400.0
N17880X14.567Y13.510
N17890X14.742Y13.392
N17900X14.567Y13.510
N17910Y16.095
N17920X14.742Y16.270
N17930X14.567Y16.095
N17940X14.392Y16.270
N17950X14.567Y16.095
N17960Y13.510
N17970X14.526Y13.449
N17980X14.392Y13.359
N17990X14.526Y13.449
N18000Y13.305
N18010G01Y12.197
N18020G01Y11.355
N18030Y12.197
N18040G2X15.760Y12.679I5.509J-12.297
N18050G01X16.524Y12.116
N18060X15.760Y12.679
N18070Y17.288
N18080X16.530Y18.052
N18090X15.760Y17.288
N18100X13.375
N18110X12.604Y18.052
N18120X13.375Y17.288
N18130Y12.651
N18140X12.610Y12.092
N18150X13.375Y12.651
N18160G2X14.526Y12.197I-4.357J-12.751
N18170G01Y10.214
N18180G01Y9.338
N18190Y10.214
N18200G2X17.542Y11.324I5.509J-10.314
N18210G01X18.306Y10.691
N18220X17.542Y11.324
N18230Y17.663
N18240G2X17.629Y19.085I11.692J0.000
N18250G01X17.766Y19.212
N18260X18.417
N18270X17.766
N18280X18.339Y19.912
N18290X17.766Y19.212
N18300X17.629Y19.085
N18310X17.035Y19.070
N18320X11.507
N18330X11.346Y19.212
N18340X10.789Y19.834
N18350X11.346Y19.212
N18360X10.718
N18370X11.346
N18380X11.507Y19.070
N18390G2X11.592Y17.663I-11.607J-1.408
N18400G01Y11.305
N18410X10.828Y10.677
N18420X11.592Y11.305
N18430G2X14.526Y10.214I-2.575J-11.405
N18440G01Y8.138
N18450G01Y7.201
N18460Y8.138
N18470G2X19.324Y9.785I5.509J-8.238
N18480G01X20.088Y9.046
N18490X19.324Y9.785
N18500Y17.663
N18510G2X19.446Y19.212I9.910J0.000
N18520G01X20.221
N18530X19.446
N18540G2X19.324Y20.763I9.788J1.550
N18550G01Y20.878
N18560X20.088Y21.616
N18570X19.324Y20.878
N18580X18.535Y20.966
N18590Y21.740
N18600Y20.966
N18610G2X17.035Y20.852I-1.500J9.796
N18620G01X9.810
N18630X9.046Y21.616
N18640X9.810Y20.852
N18650Y20.763
N18660G2X9.688Y19.212I-9.910J0.000
N18670G01X8.914
N18680X9.688
N18690G2X9.810Y17.663I-9.788J-1.550
N18700G01Y9.779
N18710X9.046Y9.046
N18720X9.810Y9.779
N18730G2X14.526Y8.138I-0.793J-9.879
N18740G01X14.240Y6.128
N18750G01X13.954Y5.364
N18760X14.240Y6.128
N18770X14.812
N18780X15.098Y5.364
N18790X14.812Y6.128
N18800G2X20.035Y8.028I5.223J-6.228
N18810G01X21.106
N18820X21.871Y7.264
N18830X21.106Y8.028
N18840Y17.663
N18850G2X21.255Y19.212I8.128J0.000
N18860G01X22.036
N18870X21.255
N18880G2X21.106Y20.763I7.979J1.550
N18890G01Y22.634
N18900X21.871Y23.398
N18910X21.106Y22.634
N18920X20.035
N18930G2X18.535Y22.774I0.000J8.128
N18940G01Y23.553
N18950Y22.774
N18960G2X17.035Y22.634I-1.500J7.989
N18970G01X8.028
N18980X7.264Y23.398
N18990X8.028Y22.634
N19000Y20.763
N19010G2X7.879Y19.212I-8.128J0.000
N19020G01X7.099
N19030X7.879
N19040G2X8.028Y17.663I-7.979J-1.550
N19050G01Y8.028
N19060X7.264Y7.264
N19070X8.028Y8.028
N19080X9.017
N19090G2X14.240Y6.128I0.000J-8.128
N19100G01X13.546Y4.346
N19110G01X13.213Y3.582
N19120X13.546Y4.346
N19130X15.506
N19140X15.839Y3.582
N19150X15.506Y4.346
N19160G2X20.035Y6.246I4.528J-4.446
N19170G01X22.888
N19180X23.653Y5.482
N19190X22.888Y6.246
N19200Y17.663
N19210G2X23.081Y19.212I6.346J0.000
N19220G01X23.872
N19230X23.081
N19240G2X22.888Y20.763I6.154J1.550
N19250G01Y24.416
N19260X23.653Y25.181
N19270X22.888Y24.416
N19280X20.035
N19290G2X18.535Y24.596I0.000J6.346
N19300G01Y25.386
N19310Y24.596
N19320G2X17.035Y24.416I-1.500J6.166
N19330G01X6.246
N19340X5.482Y25.181
N19350X6.246Y24.416
N19360Y20.763
N19370G2X6.054Y19.212I-6.346J0.000
N19380G01X5.262
N19390X6.054
N19400G2X6.246Y17.663I-6.154J-1.550
N19410G01Y6.246
N19420X5.482Y5.482
N19430X6.246Y6.246
N19440X9.017
N19450G2X13.546Y4.346I0.000J-6.346
N19460G01X12.723Y2.564
N19470G01X12.308Y1.800
N19480X12.723Y2.564
N19490X16.329
N19500X16.744Y1.800
N19510X16.329Y2.564
N19520G2X20.035Y4.464I3.706J-2.664
N19530G01X24.670
N19540X25.435Y3.700
N19550X24.670Y4.464
N19560Y17.663
N19570G2X24.942Y19.212I4.564J0.000
N19580G01X25.765
N19590X24.942
N19600G2X24.670Y20.763I4.293J1.550
N19610G01Y26.198
N19620X25.435Y26.963
N19630X24.670Y26.198
N19640X20.035
N19650G2X18.535Y26.452I0.000J4.564
N19660G01Y27.271
N19670Y26.452
N19680G2X17.035Y26.198I-1.500J4.311
N19690G01X4.464
N19700X3.700Y26.963
N19710X4.464Y26.198
N19720Y20.763
N19730G2X4.193Y19.212I-4.564J0.000
N19740G01X3.369
N19750X4.193
N19760G2X4.464Y17.663I-4.293J-1.550
N19770G01Y4.464
N19780X3.700Y3.700
N19790X4.464Y4.464
N19800X9.017
N19810G2X12.723Y2.564I0.000J-4.564
N19820G01X11.656Y0.782
N19830G01X11.365Y0.400
N19840X11.032Y0.018
N19850X11.365Y0.400
N19860X11.656Y0.782
N19870X17.396
N19880X17.687Y0.400
N19890X18.020Y0.018
N19900X17.687Y0.400
N19910X17.396Y0.782
N19920G2X20.035Y2.682I2.639J-0.882
N19930G01X26.453
N19940X27.217Y1.918
N19950X26.453Y2.682
N19960Y17.663
N19970G2X26.924Y19.212I2.782J0.000
N19980G01X27.943
N19990X26.924
N20000G2X26.453Y20.763I2.310J1.550
N20010G01Y27.980
N20020X27.217Y28.745
N20030X26.453Y27.980
N20040X20.035
N20050G2X18.535Y28.419I0.000J2.782
N20060G01Y29.413
N20070Y28.419
N20080G2X17.035Y27.980I-1.500J2.343
N20090G01X2.682
N20100X1.918Y28.745
N20110X2.682Y27.980
N20120Y20.763
N20130G2X2.210Y19.212I-2.782J0.000
N20140G01X1.192
N20150X2.210
N20160G2X2.682Y17.663I-2.310J-1.550
N20170G01Y2.682
N20180X1.918Y1.918
N20190X2.682Y2.682
N20200X9.017
N20210G2X11.656Y0.782I0.000J-2.782
N20220G01X10.017Y-0.100
N20230G01Y-1.000
N20240X19.035
N20250Y-0.100
N20260G2X20.035Y0.900I1.000J0.000
N20270G01X28.240Y0.894
N20280X28.235Y17.663
N20290G2X29.235Y18.663I1.000J0.000
N20300G01X30.135
N20310Y19.763
N20320X29.235
N20330G2X28.235Y20.763I0.000J1.000
N20340G01X28.240Y29.768
N20350X20.035Y29.763
N20360G2X19.035Y30.763I0.000J1.000
N20370G01Y31.663
N20380X18.035
N20390Y30.763
N20400G2X17.035Y29.763I-1.000J0.000
N20410G01X0.894Y29.768
N20420X0.900Y20.763
N20430G2X-0.100Y19.763I-1.000J0.000
N20440G01X-1.000
N20450Y18.663
N20460X-0.100
N20470G2X0.900Y17.663I0.000J-1.000
N20480G01X0.894Y0.894
N20490X9.017Y0.900
N20500G2X10.017Y-0.100I0.000J-1.000
N20510G00Z6.000
N20520G00X29.135
N20530G01Z-1.313F200.0
N20540G3X29.305Y-0.171I0.100J0.000F1400.0
N20550G3X29.235Y0.000I-0.071J0.071
N20560G01X29.129Y0.006
N20570X29.135Y-0.100
N20580G00Z6.000
N20590G00X29.129Y30.657
N20600G01Z-1.313F200.0
N20610G01X29.235Y30.663F1400.0
N20620G3X29.305Y30.833I0.000J0.100
N20630G3X29.135Y30.763I-0.071J-0.071
N20640G01X29.129Y30.657
N20650G00Z6.000
N20660G00X-0.100Y30.663
N20670G01Z-1.313F200.0
N20680G01X0.006Y30.657F1400.0
N20690X0.000Y30.763
N20700G3X-0.171Y30.833I-0.100J0.000
N20710G3X-0.100Y30.663I0.071J-0.071
N20720G00Z6.000
N20730G00X-0.171Y-0.171
N20740G01Z-1.500F200.0
N20750G3X0.000Y-0.100I0.071J0.071F1400.0
N20760G01X0.006Y0.006
N20770X-0.100Y0.000
N20780G3X-0.171Y-0.171I0.000J-0.100
N20790G00Z6.000
N20800G00X14.526Y13.305
N20810G01Z-1.500F200.0
N20820G01Y13.449F1400.0
N20830X14.567Y13.510
N20840X14.742Y13.392
N20850X14.567Y13.510
N20860Y16.095
N20870X14.742Y16.270
N20880X14.567Y16.095
N20890X14.392Y16.270
N20900X14.567Y16.095
N20910Y13.510
N20920X14.526Y13.449
N20930X14.392Y13.359
N20940X14.526Y13.449
N20950Y13.305
N20960G01Y12.197
N20970G01Y11.355
N20980Y12.197
N20990G2X15.760Y12.679I5.509J-12.297
N21000G01X16.524Y12.116
N21010X15.760Y12.679
N21020Y17.288
N21030X16.530Y18.052
N21040X15.760Y17.288
N21050X13.375
N21060X12.604Y18.052
N21070X13.375Y17.288
N21080Y12.651
N21090X12.610Y12.092
N21100X13.375Y12.651
N21110G2X14.526Y12.197I-4.357J-12.751
N21120G01Y10.214
N21130G01Y9.338
N21140Y10.214
N21150G2X17.542Y11.324I5.509J-10.314
N21160G01X18.306Y10.691
N21170X17.542Y11.324
N21180Y17.663
N21190G2X17.629Y19.085I11.692J0.000
N21200G01X17.766Y19.212
N21210X18.417
N21220X17.766
N21230X18.339Y19.912
N21240X17.766Y19.212
N21250X17.629Y19.085
N21260X17.035Y19.070
N21270X11.507
N21280X11.346Y19.212
N21290X10.789Y19.834
N21300X11.346Y19.212
N21310X10.718
N21320X11.346
N21330X11.507Y19.070
N21340G2X11.592Y17.663I-11.607J-1.408
N21350G01Y11.305
N21360X10.828Y10.677
N21370X11.592Y11.305
N21380G2X14.526Y10.214I-2.575J-11.405
N21390G01Y8.138
N21400G01Y7.201
N21410Y8.138
N21420G2X19.324Y9.785I5.509J-8.238
N21430G01X20.088Y9.046
N21440X19.324Y9.785
N21450Y17.663
N21460G2X19.446Y19.212I9.910J0.000
N21470G01X20.221
N21480X19.446
N21490G2X19.324Y20.763I9.788J1.550
N21500G01Y20.878
N21510X20.088Y21.616
N21520X19.324Y20.878
N21530X18.535Y20.966
N21540Y21.740
N21550Y20.966
N21560G2X17.035Y20.852I-1.500J9.796
N21570G01X9.810
N21580X9.046Y21.616
N21590X9.810Y20.852
N21600Y20.763
N21610G2X9.688Y19.212I-9.910J0.000
N21620G01X8.914
N21630X9.688
N21640G2X9.810Y17.663I-9.788J-1.550
N21650G01Y9.779
N21660X9.046Y9.046
N21670X9.810Y9.779
N21680G2X14.526Y8.138I-0.793J-9.879
N21690G01X14.240Y6.128
N21700G01X13.954Y5.364
N21710X14.240Y6.128
N21720X14.812
N21730X15.098Y5.364
N21740X14.812Y6.128
N21750G2X20.035Y8.028I5.223J-6.228
N21760G01X21.106
N21770X21.871Y7.264
N21780X21.106Y8.028
N21790Y17.663
N21800G2X21.255Y19.212I8.128J0.000
N21810G01X22.036
N21820X21.255
N21830G2X21.106Y20.763I7.979J1.550
N21840G01Y22.634
N21850X21.871Y23.398
N21860X21.106Y22.634
N21870X20.035
N21880G2X18.535Y22.774I0.000J8.128
N21890G01Y23.553
N21900Y22.774
N21910G2X17.035Y22.634I-1.500J7.989
N21920G01X8.028
N21930X7.264Y23.398
N21940X8.028Y22.634
N21950Y20.763
N21960G2X7.879Y19.212I-8.128J0.000
N21970G01X7.099
N21980X7.879
N21990G2X8.028Y17.663I-7.979J-1.550
N22000G01Y8.028
N22010X7.264Y7.264
N22020X8.028Y8.028
N22030X9.017
N22040G2X14.240Y6.128I0.000J-8.128
N22050G01X13.546Y4.346
N22060G01X13.213Y3.582
N22070X13.546Y4.346
N22080X15.506
N22090X15.839Y3.582
N22100X15.506Y4.346
N22110G2X20.035Y6.246I4.528J-4.446
N22120G01X22.888
N22130X23.653Y5.482
N22140X22.888Y6.246
N22150Y17.663
N22160G2X23.081Y19.212I6.346J0.000
N22170G01X23.872
N22180X23.081
N22190G2X22.888Y20.763I6.154J1.550
N22200G01Y24.416
N22210X23.653Y25.181
N22220X22.888Y24.416
N22230X20.035
N22240G2X18.535Y24.596I0.000J6.346
N22250G01Y25.386
N22260Y24.596
N22270G2X17.035Y24.416I-1.500J6.166
N22280G01X6.246
N22290X5.482Y25.181
N22300X6.246Y24.416
N22310Y20.763
N22320G2X6.054Y19.212I-6.346J0.000
N22330G01X5.262
N22340X6.054
N22350G2X6.246Y17.663I-6.154J-1.550
N22360G01Y6.246
N22370X5.482Y5.482
N22380X6.246Y6.246
N22390X9.017
N22400G2X13.546Y4.346I0.000J-6.346
N22410G01X12.723Y2.564
N22420G01X12.308Y1.800
N22430X12.723Y2.564
N22440X16.329
N22450X16.744Y1.800
N22460X16.329Y2.564
N22470G2X20.035Y4.464I3.706J-2.664
N22480G01X24.670
N22490X25.435Y3.700
N22500X24.670Y4.464
N22510Y17.663
N22520G2X24.942Y19.212I4.564J0.000
N22530G01X25.765
N22540X24.942
N22550G2X24.670Y20.763I4.293J1.550
N22560G01Y26.198
N22570X25.435Y26.963
N22580X24.670Y26.198
N22590X20.035
N22600G2X18.535Y26.452I0.000J4.564
N22610G01Y27.271
N22620Y26.452
N22630G2X17.035Y26.198I-1.500J4.311
N22640G01X4.464
N22650X3.700Y26.963
N22660X4.464Y26.198
N22670Y20.763
N22680G2X4.193Y19.212I-4.564J0.000
N22690G01X3.369
N22700X4.193
N22710G2X4.464Y17.663I-4.293J-1.550
N22720G01Y4.464
N22730X3.700Y3.700
N22740X4.464Y4.464
N22750X9.017
N22760G2X12.723Y2.564I0.000J-4.564
N22770G01X11.656Y0.782
N22780G01X11.365Y0.400
N22790X11.032Y0.018
N22800X11.365Y0.400
N22810X11.656Y0.782
N22820X17.396
N22830X17.687Y0.400
N22840X18.020Y0.018
N22850X17.687Y0.400
N22860X17.396Y0.782
N22870G2X20.035Y2.682I2.639J-0.882
N22880G01X26.453
N22890X27.217Y1.918
N22900X26.453Y2.682
N22910Y17.663
N22920G2X26.924Y19.212I2.782J0.000
N22930G01X27.943
N22940X26.924
N22950G2X26.453Y20.763I2.310J1.550
N22960G01Y27.980
N22970X27.217Y28.745
N22980X26.453Y27.980
N22990X20.035
N23000G2X18.535Y28.419I0.000J2.782
N23010G01Y29.413
N23020Y28.419
N23030G2X17.035Y27.980I-1.500J2.343
N23040G01X2.682
N23050X1.918Y28.745
N23060X2.682Y27.980
N23070Y20.763
N23080G2X2.210Y19.212I-2.782J0.000
N23090G01X1.192
N23100X2.210
N23110G2X2.682Y17.663I-2.310J-1.550
N23120G01Y2.682
N23130X1.918Y1.918
N23140X2.682Y2.682
N23150X9.017
N23160G2X11.656Y0.782I0.000J-2.782
N23170G01X10.017Y-0.100
N23180G01Y-1.000
N23190X19.035
N23200Y-0.100
N23210G2X20.035Y0.900I1.000J0.000
N23220G01X28.240Y0.894
N23230X28.235Y17.663
N23240G2X29.235Y18.663I1.000J0.000
N23250G01X30.135
N23260Y19.763
N23270X29.235
N23280G2X28.235Y20.763I0.000J1.000
N23290G01X28.240Y29.768
N23300X20.035Y29.763
N23310G2X19.035Y30.763I0.000J1.000
N23320G01Y31.663
N23330X18.035
N23340Y30.763
N23350G2X17.035Y29.763I-1.000J0.000
N23360G01X0.894Y29.768
N23370X0.900Y20.763
N23380G2X-0.100Y19.763I-1.000J0.000
N23390G01X-1.000
N23400Y18.663
N23410X-0.100
N23420G2X0.900Y17.663I0.000J-1.000
N23430G01X0.894Y0.894
N23440X9.017Y0.900
N23450G2X10.017Y-0.100I0.000J-1.000
N23460G00Z6.000
N23470G00X29.135
N23480G01Z-1.500F200.0
N23490G3X29.305Y-0.171I0.100J0.000F1400.0
N23500G3X29.235Y0.000I-0.071J0.071
N23510G01X29.129Y0.006
N23520X29.135Y-0.100
N23530G00Z6.000
N23540G00X29.129Y30.657
N23550G01Z-1.500F200.0
N23560G01X29.235Y30.663F1400.0
N23570G3X29.305Y30.833I0.000J0.100
N23580G3X29.135Y30.763I-0.071J-0.071
N23590G01X29.129Y30.657
N23600G00Z6.000
N23610G00X-0.100Y30.663
N23620G01Z-1.500F200.0
N23630G01X0.006Y30.657F1400.0
N23640X0.000Y30.763
N23650G3X-0.171Y30.833I-0.100J0.000
N23660G3X-0.100Y30.663I0.071J-0.071
N23670G00Z6.000
N23680G00Z20.000
N23690G00X0.000Y0.000
N23700M09
N23710M30
%
