( —ÖŠs 4 )
( USBCNC Postprocessor )
N20G00G21G17G90G40G49
N30G80
N40G00G43Z20.000H1
N50S10000M03
N60G94
N70X0.000Y0.000F500.0
N80G00X17.566Y2.342Z6.000
N90G01Z-0.444F300.0
N100G3X17.516Y2.292I0.000J-0.050F500.0
N110G3X17.566Y2.242I0.050J0.000
N120G3X17.616Y2.292I0.000J0.050
N130G3X17.566Y2.342I-0.050J0.000
N140G01Z-0.889F300.0
N150G3X17.516Y2.292I0.000J-0.050F500.0
N160G3X17.566Y2.242I0.050J0.000
N170G3X17.616Y2.292I0.000J0.050
N180G3X17.566Y2.342I-0.050J0.000
N190G01Z-1.333F300.0
N200G3X17.516Y2.292I0.000J-0.050F500.0
N210G3X17.566Y2.242I0.050J0.000
N220G3X17.616Y2.292I0.000J0.050
N230G3X17.566Y2.342I-0.050J0.000
N240G01Z-1.778F300.0
N250G3X17.516Y2.292I0.000J-0.050F500.0
N260G3X17.566Y2.242I0.050J0.000
N270G3X17.616Y2.292I0.000J0.050
N280G3X17.566Y2.342I-0.050J0.000
N290G01Z-2.222F300.0
N300G3X17.516Y2.292I0.000J-0.050F500.0
N310G3X17.566Y2.242I0.050J0.000
N320G3X17.616Y2.292I0.000J0.050
N330G3X17.566Y2.342I-0.050J0.000
N340G01Z-2.667F300.0
N350G3X17.516Y2.292I0.000J-0.050F500.0
N360G3X17.566Y2.242I0.050J0.000
N370G3X17.616Y2.292I0.000J0.050
N380G3X17.566Y2.342I-0.050J0.000
N390G01Z-3.111F300.0
N400G3X17.516Y2.292I0.000J-0.050F500.0
N410G3X17.566Y2.242I0.050J0.000
N420G3X17.616Y2.292I0.000J0.050
N430G3X17.566Y2.342I-0.050J0.000
N440G01Z-3.556F300.0
N450G3X17.516Y2.292I0.000J-0.050F500.0
N460G3X17.566Y2.242I0.050J0.000
N470G3X17.616Y2.292I0.000J0.050
N480G3X17.566Y2.342I-0.050J0.000
N490G01Z-4.000F300.0
N500G3X17.516Y2.292I0.000J-0.050F500.0
N510G3X17.566Y2.242I0.050J0.000
N520G3X17.616Y2.292I0.000J0.050
N530G3X17.566Y2.342I-0.050J0.000
N540G00Z6.000
N550G00X3.063Y18.799
N560G01Z-0.444F300.0
N570G3X3.013Y18.749I0.000J-0.050F500.0
N580G3X3.063Y18.699I0.050J0.000
N590G3X3.113Y18.749I0.000J0.050
N600G3X3.063Y18.799I-0.050J0.000
N610G01Z-0.889F300.0
N620G3X3.013Y18.749I0.000J-0.050F500.0
N630G3X3.063Y18.699I0.050J0.000
N640G3X3.113Y18.749I0.000J0.050
N650G3X3.063Y18.799I-0.050J0.000
N660G01Z-1.333F300.0
N670G3X3.013Y18.749I0.000J-0.050F500.0
N680G3X3.063Y18.699I0.050J0.000
N690G3X3.113Y18.749I0.000J0.050
N700G3X3.063Y18.799I-0.050J0.000
N710G01Z-1.778F300.0
N720G3X3.013Y18.749I0.000J-0.050F500.0
N730G3X3.063Y18.699I0.050J0.000
N740G3X3.113Y18.749I0.000J0.050
N750G3X3.063Y18.799I-0.050J0.000
N760G01Z-2.222F300.0
N770G3X3.013Y18.749I0.000J-0.050F500.0
N780G3X3.063Y18.699I0.050J0.000
N790G3X3.113Y18.749I0.000J0.050
N800G3X3.063Y18.799I-0.050J0.000
N810G01Z-2.667F300.0
N820G3X3.013Y18.749I0.000J-0.050F500.0
N830G3X3.063Y18.699I0.050J0.000
N840G3X3.113Y18.749I0.000J0.050
N850G3X3.063Y18.799I-0.050J0.000
N860G01Z-3.111F300.0
N870G3X3.013Y18.749I0.000J-0.050F500.0
N880G3X3.063Y18.699I0.050J0.000
N890G3X3.113Y18.749I0.000J0.050
N900G3X3.063Y18.799I-0.050J0.000
N910G01Z-3.556F300.0
N920G3X3.013Y18.749I0.000J-0.050F500.0
N930G3X3.063Y18.699I0.050J0.000
N940G3X3.113Y18.749I0.000J0.050
N950G3X3.063Y18.799I-0.050J0.000
N960G01Z-4.000F300.0
N970G3X3.013Y18.749I0.000J-0.050F500.0
N980G3X3.063Y18.699I0.050J0.000
N990G3X3.113Y18.749I0.000J0.050
N1000G3X3.063Y18.799I-0.050J0.000
N1010G00Z6.000
N1020G00X21.133Y24.653
N1030G01Z-0.444F300.0
N1040G3X21.083Y24.603I0.000J-0.050F500.0
N1050G3X21.133Y24.553I0.050J0.000
N1060G3X21.183Y24.603I0.000J0.050
N1070G3X21.133Y24.653I-0.050J0.000
N1080G01Z-0.889F300.0
N1090G3X21.083Y24.603I0.000J-0.050F500.0
N1100G3X21.133Y24.553I0.050J0.000
N1110G3X21.183Y24.603I0.000J0.050
N1120G3X21.133Y24.653I-0.050J0.000
N1130G01Z-1.333F300.0
N1140G3X21.083Y24.603I0.000J-0.050F500.0
N1150G3X21.133Y24.553I0.050J0.000
N1160G3X21.183Y24.603I0.000J0.050
N1170G3X21.133Y24.653I-0.050J0.000
N1180G01Z-1.778F300.0
N1190G3X21.083Y24.603I0.000J-0.050F500.0
N1200G3X21.133Y24.553I0.050J0.000
N1210G3X21.183Y24.603I0.000J0.050
N1220G3X21.133Y24.653I-0.050J0.000
N1230G01Z-2.222F300.0
N1240G3X21.083Y24.603I0.000J-0.050F500.0
N1250G3X21.133Y24.553I0.050J0.000
N1260G3X21.183Y24.603I0.000J0.050
N1270G3X21.133Y24.653I-0.050J0.000
N1280G01Z-2.667F300.0
N1290G3X21.083Y24.603I0.000J-0.050F500.0
N1300G3X21.133Y24.553I0.050J0.000
N1310G3X21.183Y24.603I0.000J0.050
N1320G3X21.133Y24.653I-0.050J0.000
N1330G01Z-3.111F300.0
N1340G3X21.083Y24.603I0.000J-0.050F500.0
N1350G3X21.133Y24.553I0.050J0.000
N1360G3X21.183Y24.603I0.000J0.050
N1370G3X21.133Y24.653I-0.050J0.000
N1380G01Z-3.556F300.0
N1390G3X21.083Y24.603I0.000J-0.050F500.0
N1400G3X21.133Y24.553I0.050J0.000
N1410G3X21.183Y24.603I0.000J0.050
N1420G3X21.133Y24.653I-0.050J0.000
N1430G01Z-4.000F300.0
N1440G3X21.083Y24.603I0.000J-0.050F500.0
N1450G3X21.133Y24.553I0.050J0.000
N1460G3X21.183Y24.603I0.000J0.050
N1470G3X21.133Y24.653I-0.050J0.000
N1480G00Z6.000
N1490G00X28.373Y22.806
N1500G01Z-0.444F300.0
N1510G3X28.323Y22.756I0.000J-0.050F500.0
N1520G3X28.373Y22.706I0.050J0.000
N1530G3X28.423Y22.756I0.000J0.050
N1540G3X28.373Y22.806I-0.050J0.000
N1550G01Z-0.889F300.0
N1560G3X28.323Y22.756I0.000J-0.050F500.0
N1570G3X28.373Y22.706I0.050J0.000
N1580G3X28.423Y22.756I0.000J0.050
N1590G3X28.373Y22.806I-0.050J0.000
N1600G01Z-1.333F300.0
N1610G3X28.323Y22.756I0.000J-0.050F500.0
N1620G3X28.373Y22.706I0.050J0.000
N1630G3X28.423Y22.756I0.000J0.050
N1640G3X28.373Y22.806I-0.050J0.000
N1650G01Z-1.778F300.0
N1660G3X28.323Y22.756I0.000J-0.050F500.0
N1670G3X28.373Y22.706I0.050J0.000
N1680G3X28.423Y22.756I0.000J0.050
N1690G3X28.373Y22.806I-0.050J0.000
N1700G01Z-2.222F300.0
N1710G3X28.323Y22.756I0.000J-0.050F500.0
N1720G3X28.373Y22.706I0.050J0.000
N1730G3X28.423Y22.756I0.000J0.050
N1740G3X28.373Y22.806I-0.050J0.000
N1750G01Z-2.667F300.0
N1760G3X28.323Y22.756I0.000J-0.050F500.0
N1770G3X28.373Y22.706I0.050J0.000
N1780G3X28.423Y22.756I0.000J0.050
N1790G3X28.373Y22.806I-0.050J0.000
N1800G01Z-3.111F300.0
N1810G3X28.323Y22.756I0.000J-0.050F500.0
N1820G3X28.373Y22.706I0.050J0.000
N1830G3X28.423Y22.756I0.000J0.050
N1840G3X28.373Y22.806I-0.050J0.000
N1850G01Z-3.556F300.0
N1860G3X28.323Y22.756I0.000J-0.050F500.0
N1870G3X28.373Y22.706I0.050J0.000
N1880G3X28.423Y22.756I0.000J0.050
N1890G3X28.373Y22.806I-0.050J0.000
N1900G01Z-4.000F300.0
N1910G3X28.323Y22.756I0.000J-0.050F500.0
N1920G3X28.373Y22.706I0.050J0.000
N1930G3X28.423Y22.756I0.000J0.050
N1940G3X28.373Y22.806I-0.050J0.000
N1950G00Z6.000
N1960G00Z20.000
N1970G00X0.000Y0.000
N1980M09
N1990M30
%
